{"type":"map","version":"1.10","tiledversion":"1.10.2","orientation":"orthogonal","renderorder":"right-down","width":14,"height":10,"tilewidth":16,"tileheight":16,"infinite":false,"nextlayerid":6,"nextobjectid":7,"properties":[{"name":"kind","type":"string","value":"interior"},{"name":"name","type":"string","value":"Marsh Morph Lab"},{"name":"floor","type":"string","value":"lab"},{"name":"wall","type":"string","value":"white"},{"name":"music","type":"string","value":"haven"}],"layers":[{"id":1,"name":"ground","type":"tilelayer","width":14,"height":10,"x":0,"y":0,"opacity":1,"visible":true,"data":[601,601,601,1025,601,601,601,601,601,1025,601,601,601,601,602,602,602,1026,602,602,602,602,602,1026,602,602,602,602,604,606,604,604,606,604,604,606,604,604,606,604,604,606,607,608,607,607,608,607,607,608,607,607,608,607,607,608,607,608,607,607,608,607,607,608,607,607,608,607,607,608,607,608,607,607,608,607,607,608,607,607,608,607,607,608,607,608,607,607,608,607,607,608,607,607,608,607,607,608,607,608,607,607,608,607,607,608,607,607,608,607,607,608,607,608,607,607,608,607,607,608,607,607,608,607,607,608,607,608,607,607,608,607,607,608,607,607,608,607,607,608]},{"id":2,"name":"decor","type":"tilelayer","width":14,"height":10,"x":0,"y":0,"opacity":1,"visible":true,"data":[0,0,0,0,0,0,0,0,0,0,0,0,0,0,0,0,0,0,0,0,0,0,0,0,0,0,0,0,605,605,0,0,469,524,0,0,0,0,468,0,605,612,0,0,0,0,0,0,0,0,0,0,0,0,0,0,0,0,0,0,0,1357,1358,1359,0,0,0,0,0,0,0,0,0,0,0,1360,0,1361,0,0,0,481,0,0,0,0,0,0,0,0,0,0,0,0,487,531,488,0,477,0,0,0,0,0,0,0,0,0,0,0,0,477,0,0,0,0,0,0,0,0,0,0,0,0,0,0,0,0,0,0,0,0,492,0,0,0,0,0,0,0]},{"id":3,"name":"above","type":"tilelayer","width":14,"height":10,"x":0,"y":0,"opacity":1,"visible":true,"data":[0,0,0,0,0,0,0,0,0,0,0,0,0,0,603,603,0,0,461,518,0,0,0,0,459,0,603,610,0,0,0,0,0,0,0,0,0,0,0,0,0,0,0,0,0,0,0,1354,1355,1356,0,0,0,0,0,0,0,0,0,0,0,0,0,0,0,0,0,480,0,0,0,0,0,0,0,0,0,0,0,0,482,530,483,0,470,0,0,0,0,0,0,0,0,0,0,0,0,470,0,0,0,0,0,0,0,0,0,0,0,0,0,0,0,0,0,0,0,0,0,0,0,0,0,0,0,0,0,0,0,0,0,0,0,0,0,0,0,0,0,0]},{"id":4,"name":"meta","type":"tilelayer","width":14,"height":10,"x":0,"y":0,"opacity":0.6,"visible":false,"data":[3188,3188,3188,3188,3188,3188,3188,3188,3188,3188,3188,3188,3188,3188,3188,3188,3188,3188,3188,3188,3188,3188,3188,3188,3188,3188,3188,3188,3188,3188,0,0,3188,3188,0,0,0,0,3188,0,3188,3188,0,0,0,0,0,0,0,0,0,0,0,0,0,0,0,0,0,0,0,3188,3188,3188,0,0,0,0,0,0,0,0,0,0,0,0,0,0,0,0,0,3188,0,0,0,0,0,0,0,0,0,0,0,0,3188,3188,3188,0,3188,0,0,0,0,0,0,0,0,0,0,0,0,3188,0,0,0,0,0,0,0,0,0,0,0,0,0,0,0,0,0,0,0,0,0,0,0,0,0,0,0,0]},{"id":5,"name":"objects","type":"objectgroup","draworder":"topdown","x":0,"y":0,"opacity":1,"visible":true,"objects":[{"id":1,"name":"","type":"sign","x":160,"y":32,"width":16,"height":16,"rotation":0,"visible":true,"properties":[{"name":"text","type":"string","value":"Dr. Marsh's research notes: 'Six Seals. Six Sigils. Why would the old Wardens tie a Tamer's badge to a stone?'"}]},{"id":2,"name":"","type":"sign","x":80,"y":64,"width":48,"height":16,"rotation":0,"visible":true,"properties":[{"name":"script","type":"string","value":"lab.starters"}]},{"id":3,"name":"marsh","type":"npc","x":128,"y":48,"width":16,"height":16,"rotation":0,"visible":true,"properties":[{"name":"id","type":"string","value":"marsh"},{"name":"sprite","type":"string","value":"marsh"},{"name":"face","type":"string","value":"down"},{"name":"move","type":"string","value":"still"},{"name":"script","type":"string","value":"lab.marsh"},{"name":"name","type":"string","value":"Dr. Marsh"}]},{"id":4,"name":"lab_wren","type":"npc","x":48,"y":64,"width":16,"height":16,"rotation":0,"visible":true,"properties":[{"name":"id","type":"string","value":"lab_wren"},{"name":"sprite","type":"string","value":"wren"},{"name":"face","type":"string","value":"right"},{"name":"move","type":"string","value":"still"},{"name":"script","type":"string","value":"lab.wren"},{"name":"hide","type":"string","value":"got_starter"}]},{"id":5,"name":"lab_aide","type":"npc","x":176,"y":112,"width":16,"height":16,"rotation":0,"visible":true,"properties":[{"name":"id","type":"string","value":"lab_aide"},{"name":"sprite","type":"string","value":"assistant"},{"name":"face","type":"string","value":"down"},{"name":"move","type":"string","value":"wander"},{"name":"radius","type":"string","value":"1"},{"name":"script","type":"string","value":"lab.aide"}]},{"id":6,"name":"","type":"warp","x":96,"y":144,"width":16,"height":16,"rotation":0,"visible":true,"properties":[{"name":"mat","type":"string","value":"1"},{"name":"to","type":"string","value":"rootmere:24,7"},{"name":"face","type":"string","value":"down"}]}]}],"tilesets":[{"firstgid":1,"name":"world","image":"../tilesets/world.png","imagewidth":1024,"imageheight":800,"tilewidth":16,"tileheight":16,"tilecount":3186,"columns":64,"margin":0,"spacing":0,"tiles":[{"id":13,"animation":[{"tileid":13,"duration":220},{"tileid":14,"duration":220},{"tileid":15,"duration":220},{"tileid":16,"duration":220}]},{"id":17,"animation":[{"tileid":17,"duration":220},{"tileid":18,"duration":220},{"tileid":19,"duration":220},{"tileid":20,"duration":220}]},{"id":21,"animation":[{"tileid":21,"duration":220},{"tileid":22,"duration":220},{"tileid":23,"duration":220},{"tileid":24,"duration":220}]},{"id":25,"animation":[{"tileid":25,"duration":220},{"tileid":26,"duration":220},{"tileid":27,"duration":220},{"tileid":28,"duration":220}]},{"id":29,"animation":[{"tileid":29,"duration":220},{"tileid":30,"duration":220},{"tileid":31,"duration":220},{"tileid":32,"duration":220}]},{"id":33,"animation":[{"tileid":33,"duration":220},{"tileid":34,"duration":220},{"tileid":35,"duration":220},{"tileid":36,"duration":220}]},{"id":37,"animation":[{"tileid":37,"duration":220},{"tileid":38,"duration":220},{"tileid":39,"duration":220},{"tileid":40,"duration":220}]},{"id":41,"animation":[{"tileid":41,"duration":220},{"tileid":42,"duration":220},{"tileid":43,"duration":220},{"tileid":44,"duration":220}]},{"id":45,"animation":[{"tileid":45,"duration":220},{"tileid":46,"duration":220},{"tileid":47,"duration":220},{"tileid":48,"duration":220}]},{"id":49,"animation":[{"tileid":49,"duration":220},{"tileid":50,"duration":220},{"tileid":51,"duration":220},{"tileid":52,"duration":220}]},{"id":53,"animation":[{"tileid":53,"duration":220},{"tileid":54,"duration":220},{"tileid":55,"duration":220},{"tileid":56,"duration":220}]},{"id":57,"animation":[{"tileid":57,"duration":220},{"tileid":58,"duration":220},{"tileid":59,"duration":220},{"tileid":60,"duration":220}]},{"id":61,"animation":[{"tileid":61,"duration":220},{"tileid":62,"duration":220},{"tileid":63,"duration":220},{"tileid":64,"duration":220}]},{"id":65,"animation":[{"tileid":65,"duration":220},{"tileid":66,"duration":220},{"tileid":67,"duration":220},{"tileid":68,"duration":220}]},{"id":69,"animation":[{"tileid":69,"duration":220},{"tileid":70,"duration":220},{"tileid":71,"duration":220},{"tileid":72,"duration":220}]},{"id":78,"animation":[{"tileid":78,"duration":220},{"tileid":79,"duration":220},{"tileid":80,"duration":220},{"tileid":81,"duration":220}]},{"id":82,"animation":[{"tileid":82,"duration":220},{"tileid":83,"duration":220},{"tileid":84,"duration":220},{"tileid":85,"duration":220}]},{"id":86,"animation":[{"tileid":86,"duration":220},{"tileid":87,"duration":220},{"tileid":88,"duration":220},{"tileid":89,"duration":220}]},{"id":90,"animation":[{"tileid":90,"duration":220},{"tileid":91,"duration":220},{"tileid":92,"duration":220},{"tileid":93,"duration":220}]},{"id":94,"animation":[{"tileid":94,"duration":220},{"tileid":95,"duration":220},{"tileid":96,"duration":220},{"tileid":97,"duration":220}]},{"id":98,"animation":[{"tileid":98,"duration":220},{"tileid":99,"duration":220},{"tileid":100,"duration":220},{"tileid":101,"duration":220}]},{"id":102,"animation":[{"tileid":102,"duration":220},{"tileid":103,"duration":220},{"tileid":104,"duration":220},{"tileid":105,"duration":220}]},{"id":106,"animation":[{"tileid":106,"duration":220},{"tileid":107,"duration":220},{"tileid":108,"duration":220},{"tileid":109,"duration":220}]},{"id":110,"animation":[{"tileid":110,"duration":220},{"tileid":111,"duration":220},{"tileid":112,"duration":220},{"tileid":113,"duration":220}]},{"id":143,"animation":[{"tileid":143,"duration":220},{"tileid":144,"duration":220},{"tileid":145,"duration":220},{"tileid":146,"duration":220}]},{"id":147,"animation":[{"tileid":147,"duration":220},{"tileid":148,"duration":220},{"tileid":149,"duration":220},{"tileid":150,"duration":220}]},{"id":151,"animation":[{"tileid":151,"duration":220},{"tileid":152,"duration":220},{"tileid":153,"duration":220},{"tileid":154,"duration":220}]},{"id":155,"animation":[{"tileid":155,"duration":220},{"tileid":156,"duration":220},{"tileid":157,"duration":220},{"tileid":158,"duration":220}]},{"id":316,"animation":[{"tileid":316,"duration":220},{"tileid":317,"duration":220},{"tileid":318,"duration":220},{"tileid":319,"duration":220}]},{"id":320,"animation":[{"tileid":320,"duration":220},{"tileid":321,"duration":220},{"tileid":322,"duration":220},{"tileid":323,"duration":220}]},{"id":329,"animation":[{"tileid":329,"duration":220},{"tileid":330,"duration":220},{"tileid":331,"duration":220},{"tileid":332,"duration":220}]},{"id":333,"animation":[{"tileid":333,"duration":220},{"tileid":334,"duration":220},{"tileid":335,"duration":220},{"tileid":336,"duration":220}]},{"id":337,"animation":[{"tileid":337,"duration":220},{"tileid":338,"duration":220},{"tileid":339,"duration":220},{"tileid":340,"duration":220}]},{"id":341,"animation":[{"tileid":341,"duration":220},{"tileid":342,"duration":220},{"tileid":343,"duration":220},{"tileid":344,"duration":220}]},{"id":345,"animation":[{"tileid":345,"duration":220},{"tileid":346,"duration":220},{"tileid":347,"duration":220},{"tileid":348,"duration":220}]},{"id":349,"animation":[{"tileid":349,"duration":220},{"tileid":350,"duration":220},{"tileid":351,"duration":220},{"tileid":352,"duration":220}]},{"id":359,"animation":[{"tileid":359,"duration":220},{"tileid":360,"duration":220},{"tileid":361,"duration":220},{"tileid":362,"duration":220}]},{"id":363,"animation":[{"tileid":363,"duration":220},{"tileid":364,"duration":220},{"tileid":365,"duration":220},{"tileid":366,"duration":220}]},{"id":367,"animation":[{"tileid":367,"duration":220},{"tileid":368,"duration":220},{"tileid":369,"duration":220},{"tileid":370,"duration":220}]},{"id":371,"animation":[{"tileid":371,"duration":220},{"tileid":372,"duration":220},{"tileid":373,"duration":220},{"tileid":374,"duration":220}]},{"id":375,"animation":[{"tileid":375,"duration":220},{"tileid":376,"duration":220},{"tileid":377,"duration":220},{"tileid":378,"duration":220}]},{"id":379,"animation":[{"tileid":379,"duration":220},{"tileid":380,"duration":220},{"tileid":381,"duration":220},{"tileid":382,"duration":220}]},{"id":387,"animation":[{"tileid":387,"duration":220},{"tileid":388,"duration":220},{"tileid":389,"duration":220},{"tileid":390,"duration":220}]},{"id":391,"animation":[{"tileid":391,"duration":220},{"tileid":392,"duration":220},{"tileid":393,"duration":220},{"tileid":394,"duration":220}]},{"id":558,"animation":[{"tileid":558,"duration":220},{"tileid":559,"duration":220},{"tileid":560,"duration":220},{"tileid":561,"duration":220}]},{"id":562,"animation":[{"tileid":562,"duration":220},{"tileid":563,"duration":220},{"tileid":564,"duration":220},{"tileid":565,"duration":220}]},{"id":663,"animation":[{"tileid":663,"duration":220},{"tileid":664,"duration":220},{"tileid":665,"duration":220},{"tileid":666,"duration":220}]},{"id":667,"animation":[{"tileid":667,"duration":220},{"tileid":668,"duration":220},{"tileid":669,"duration":220},{"tileid":670,"duration":220}]},{"id":671,"animation":[{"tileid":671,"duration":220},{"tileid":672,"duration":220},{"tileid":673,"duration":220},{"tileid":674,"duration":220}]},{"id":675,"animation":[{"tileid":675,"duration":220},{"tileid":676,"duration":220},{"tileid":677,"duration":220},{"tileid":678,"duration":220}]},{"id":681,"animation":[{"tileid":681,"duration":220},{"tileid":682,"duration":220},{"tileid":683,"duration":220},{"tileid":684,"duration":220}]},{"id":685,"animation":[{"tileid":685,"duration":220},{"tileid":686,"duration":220},{"tileid":687,"duration":220},{"tileid":688,"duration":220}]},{"id":689,"animation":[{"tileid":689,"duration":220},{"tileid":690,"duration":220},{"tileid":691,"duration":220},{"tileid":692,"duration":220}]},{"id":693,"animation":[{"tileid":693,"duration":220},{"tileid":694,"duration":220},{"tileid":695,"duration":220},{"tileid":696,"duration":220}]},{"id":1047,"animation":[{"tileid":1047,"duration":220},{"tileid":1048,"duration":220},{"tileid":1049,"duration":220},{"tileid":1050,"duration":220}]},{"id":1051,"animation":[{"tileid":1051,"duration":220},{"tileid":1052,"duration":220},{"tileid":1053,"duration":220},{"tileid":1054,"duration":220}]},{"id":1055,"animation":[{"tileid":1055,"duration":220},{"tileid":1056,"duration":220},{"tileid":1057,"duration":220},{"tileid":1058,"duration":220}]},{"id":1059,"animation":[{"tileid":1059,"duration":220},{"tileid":1060,"duration":220},{"tileid":1061,"duration":220},{"tileid":1062,"duration":220}]},{"id":1064,"animation":[{"tileid":1064,"duration":220},{"tileid":1065,"duration":220},{"tileid":1066,"duration":220},{"tileid":1067,"duration":220}]},{"id":1068,"animation":[{"tileid":1068,"duration":220},{"tileid":1069,"duration":220},{"tileid":1070,"duration":220},{"tileid":1071,"duration":220}]},{"id":1074,"animation":[{"tileid":1074,"duration":220},{"tileid":1075,"duration":220},{"tileid":1076,"duration":220},{"tileid":1077,"duration":220}]},{"id":1079,"animation":[{"tileid":1079,"duration":220},{"tileid":1080,"duration":220},{"tileid":1081,"duration":220},{"tileid":1082,"duration":220}]},{"id":1083,"animation":[{"tileid":1083,"duration":220},{"tileid":1084,"duration":220},{"tileid":1085,"duration":220},{"tileid":1086,"duration":220}]},{"id":1095,"animation":[{"tileid":1095,"duration":220},{"tileid":1096,"duration":220},{"tileid":1097,"duration":220},{"tileid":1098,"duration":220}]},{"id":1120,"animation":[{"tileid":1120,"duration":220},{"tileid":1121,"duration":220},{"tileid":1122,"duration":220},{"tileid":1123,"duration":220}]},{"id":1124,"animation":[{"tileid":1124,"duration":220},{"tileid":1125,"duration":220},{"tileid":1126,"duration":220},{"tileid":1127,"duration":220}]},{"id":1134,"animation":[{"tileid":1134,"duration":220},{"tileid":1135,"duration":220},{"tileid":1136,"duration":220},{"tileid":1137,"duration":220}]},{"id":1138,"animation":[{"tileid":1138,"duration":220},{"tileid":1139,"duration":220},{"tileid":1140,"duration":220},{"tileid":1141,"duration":220}]},{"id":1164,"animation":[{"tileid":1164,"duration":220},{"tileid":1165,"duration":220},{"tileid":1166,"duration":220},{"tileid":1167,"duration":220}]},{"id":1168,"animation":[{"tileid":1168,"duration":220},{"tileid":1169,"duration":220},{"tileid":1170,"duration":220},{"tileid":1171,"duration":220}]},{"id":1172,"animation":[{"tileid":1172,"duration":220},{"tileid":1173,"duration":220},{"tileid":1174,"duration":220},{"tileid":1175,"duration":220}]},{"id":1176,"animation":[{"tileid":1176,"duration":220},{"tileid":1177,"duration":220},{"tileid":1178,"duration":220},{"tileid":1179,"duration":220}]},{"id":1180,"animation":[{"tileid":1180,"duration":220},{"tileid":1181,"duration":220},{"tileid":1182,"duration":220},{"tileid":1183,"duration":220}]},{"id":1184,"animation":[{"tileid":1184,"duration":220},{"tileid":1185,"duration":220},{"tileid":1186,"duration":220},{"tileid":1187,"duration":220}]},{"id":1197,"animation":[{"tileid":1197,"duration":220},{"tileid":1198,"duration":220},{"tileid":1199,"duration":220},{"tileid":1200,"duration":220}]},{"id":1208,"animation":[{"tileid":1208,"duration":220},{"tileid":1209,"duration":220},{"tileid":1210,"duration":220},{"tileid":1211,"duration":220}]},{"id":1227,"animation":[{"tileid":1227,"duration":220},{"tileid":1228,"duration":220},{"tileid":1229,"duration":220},{"tileid":1230,"duration":220}]},{"id":1231,"animation":[{"tileid":1231,"duration":220},{"tileid":1232,"duration":220},{"tileid":1233,"duration":220},{"tileid":1234,"duration":220}]},{"id":1235,"animation":[{"tileid":1235,"duration":220},{"tileid":1236,"duration":220},{"tileid":1237,"duration":220},{"tileid":1238,"duration":220}]},{"id":1239,"animation":[{"tileid":1239,"duration":220},{"tileid":1240,"duration":220},{"tileid":1241,"duration":220},{"tileid":1242,"duration":220}]},{"id":1254,"animation":[{"tileid":1254,"duration":220},{"tileid":1255,"duration":220},{"tileid":1256,"duration":220},{"tileid":1257,"duration":220}]},{"id":1258,"animation":[{"tileid":1258,"duration":220},{"tileid":1259,"duration":220},{"tileid":1260,"duration":220},{"tileid":1261,"duration":220}]},{"id":1262,"animation":[{"tileid":1262,"duration":220},{"tileid":1263,"duration":220},{"tileid":1264,"duration":220},{"tileid":1265,"duration":220}]},{"id":1276,"animation":[{"tileid":1276,"duration":220},{"tileid":1277,"duration":220},{"tileid":1278,"duration":220},{"tileid":1279,"duration":220}]},{"id":1282,"animation":[{"tileid":1282,"duration":220},{"tileid":1283,"duration":220},{"tileid":1284,"duration":220},{"tileid":1285,"duration":220}]},{"id":1303,"animation":[{"tileid":1303,"duration":220},{"tileid":1304,"duration":220},{"tileid":1305,"duration":220},{"tileid":1306,"duration":220}]},{"id":1307,"animation":[{"tileid":1307,"duration":220},{"tileid":1308,"duration":220},{"tileid":1309,"duration":220},{"tileid":1310,"duration":220}]},{"id":1311,"animation":[{"tileid":1311,"duration":220},{"tileid":1312,"duration":220},{"tileid":1313,"duration":220},{"tileid":1314,"duration":220}]},{"id":1315,"animation":[{"tileid":1315,"duration":220},{"tileid":1316,"duration":220},{"tileid":1317,"duration":220},{"tileid":1318,"duration":220}]},{"id":1319,"animation":[{"tileid":1319,"duration":220},{"tileid":1320,"duration":220},{"tileid":1321,"duration":220},{"tileid":1322,"duration":220}]},{"id":1367,"animation":[{"tileid":1367,"duration":220},{"tileid":1368,"duration":220},{"tileid":1369,"duration":220},{"tileid":1370,"duration":220}]},{"id":1375,"animation":[{"tileid":1375,"duration":220},{"tileid":1376,"duration":220},{"tileid":1377,"duration":220},{"tileid":1378,"duration":220}]},{"id":1381,"animation":[{"tileid":1381,"duration":220},{"tileid":1382,"duration":220},{"tileid":1383,"duration":220},{"tileid":1384,"duration":220}]},{"id":1421,"animation":[{"tileid":1421,"duration":220},{"tileid":1422,"duration":220},{"tileid":1423,"duration":220},{"tileid":1424,"duration":220}]},{"id":1669,"animation":[{"tileid":1669,"duration":220},{"tileid":1670,"duration":220},{"tileid":1671,"duration":220},{"tileid":1672,"duration":220}]},{"id":1673,"animation":[{"tileid":1673,"duration":220},{"tileid":1674,"duration":220},{"tileid":1675,"duration":220},{"tileid":1676,"duration":220}]},{"id":1677,"animation":[{"tileid":1677,"duration":220},{"tileid":1678,"duration":220},{"tileid":1679,"duration":220},{"tileid":1680,"duration":220}]},{"id":1681,"animation":[{"tileid":1681,"duration":220},{"tileid":1682,"duration":220},{"tileid":1683,"duration":220},{"tileid":1684,"duration":220}]},{"id":1688,"animation":[{"tileid":1688,"duration":220},{"tileid":1689,"duration":220},{"tileid":1690,"duration":220},{"tileid":1691,"duration":220}]},{"id":1692,"animation":[{"tileid":1692,"duration":220},{"tileid":1693,"duration":220},{"tileid":1694,"duration":220},{"tileid":1695,"duration":220}]},{"id":1696,"animation":[{"tileid":1696,"duration":220},{"tileid":1697,"duration":220},{"tileid":1698,"duration":220},{"tileid":1699,"duration":220}]},{"id":1700,"animation":[{"tileid":1700,"duration":220},{"tileid":1701,"duration":220},{"tileid":1702,"duration":220},{"tileid":1703,"duration":220}]},{"id":1705,"animation":[{"tileid":1705,"duration":220},{"tileid":1706,"duration":220},{"tileid":1707,"duration":220},{"tileid":1708,"duration":220}]},{"id":1709,"animation":[{"tileid":1709,"duration":220},{"tileid":1710,"duration":220},{"tileid":1711,"duration":220},{"tileid":1712,"duration":220}]},{"id":1713,"animation":[{"tileid":1713,"duration":220},{"tileid":1714,"duration":220},{"tileid":1715,"duration":220},{"tileid":1716,"duration":220}]},{"id":1717,"animation":[{"tileid":1717,"duration":220},{"tileid":1718,"duration":220},{"tileid":1719,"duration":220},{"tileid":1720,"duration":220}]},{"id":1721,"animation":[{"tileid":1721,"duration":220},{"tileid":1722,"duration":220},{"tileid":1723,"duration":220},{"tileid":1724,"duration":220}]},{"id":1727,"animation":[{"tileid":1727,"duration":220},{"tileid":1728,"duration":220},{"tileid":1729,"duration":220},{"tileid":1730,"duration":220}]},{"id":1731,"animation":[{"tileid":1731,"duration":220},{"tileid":1732,"duration":220},{"tileid":1733,"duration":220},{"tileid":1734,"duration":220}]},{"id":1748,"animation":[{"tileid":1748,"duration":220},{"tileid":1749,"duration":220},{"tileid":1750,"duration":220},{"tileid":1751,"duration":220},{"tileid":1752,"duration":220},{"tileid":1753,"duration":220},{"tileid":1754,"duration":220},{"tileid":1755,"duration":220}]},{"id":1756,"animation":[{"tileid":1756,"duration":220},{"tileid":1757,"duration":220},{"tileid":1758,"duration":220},{"tileid":1759,"duration":220},{"tileid":1760,"duration":220},{"tileid":1761,"duration":220},{"tileid":1762,"duration":220},{"tileid":1763,"duration":220}]},{"id":1764,"animation":[{"tileid":1764,"duration":220},{"tileid":1765,"duration":220},{"tileid":1766,"duration":220},{"tileid":1767,"duration":220},{"tileid":1768,"duration":220},{"tileid":1769,"duration":220},{"tileid":1770,"duration":220},{"tileid":1771,"duration":220}]},{"id":1772,"animation":[{"tileid":1772,"duration":220},{"tileid":1773,"duration":220},{"tileid":1774,"duration":220},{"tileid":1775,"duration":220},{"tileid":1776,"duration":220},{"tileid":1777,"duration":220},{"tileid":1778,"duration":220},{"tileid":1779,"duration":220}]},{"id":1780,"animation":[{"tileid":1780,"duration":220},{"tileid":1781,"duration":220},{"tileid":1782,"duration":220},{"tileid":1783,"duration":220},{"tileid":1784,"duration":220},{"tileid":1785,"duration":220},{"tileid":1786,"duration":220},{"tileid":1787,"duration":220}]},{"id":1788,"animation":[{"tileid":1788,"duration":220},{"tileid":1789,"duration":220},{"tileid":1790,"duration":220},{"tileid":1791,"duration":220},{"tileid":1792,"duration":220},{"tileid":1793,"duration":220},{"tileid":1794,"duration":220},{"tileid":1795,"duration":220}]},{"id":1796,"animation":[{"tileid":1796,"duration":220},{"tileid":1797,"duration":220},{"tileid":1798,"duration":220},{"tileid":1799,"duration":220},{"tileid":1800,"duration":220},{"tileid":1801,"duration":220},{"tileid":1802,"duration":220},{"tileid":1803,"duration":220}]},{"id":1804,"animation":[{"tileid":1804,"duration":220},{"tileid":1805,"duration":220},{"tileid":1806,"duration":220},{"tileid":1807,"duration":220},{"tileid":1808,"duration":220},{"tileid":1809,"duration":220},{"tileid":1810,"duration":220},{"tileid":1811,"duration":220}]},{"id":1812,"animation":[{"tileid":1812,"duration":220},{"tileid":1813,"duration":220},{"tileid":1814,"duration":220},{"tileid":1815,"duration":220},{"tileid":1816,"duration":220},{"tileid":1817,"duration":220},{"tileid":1818,"duration":220},{"tileid":1819,"duration":220}]},{"id":1820,"animation":[{"tileid":1820,"duration":220},{"tileid":1821,"duration":220},{"tileid":1822,"duration":220},{"tileid":1823,"duration":220},{"tileid":1824,"duration":220},{"tileid":1825,"duration":220},{"tileid":1826,"duration":220},{"tileid":1827,"duration":220}]},{"id":1828,"animation":[{"tileid":1828,"duration":220},{"tileid":1829,"duration":220},{"tileid":1830,"duration":220},{"tileid":1831,"duration":220},{"tileid":1832,"duration":220},{"tileid":1833,"duration":220},{"tileid":1834,"duration":220},{"tileid":1835,"duration":220}]},{"id":1836,"animation":[{"tileid":1836,"duration":220},{"tileid":1837,"duration":220},{"tileid":1838,"duration":220},{"tileid":1839,"duration":220},{"tileid":1840,"duration":220},{"tileid":1841,"duration":220},{"tileid":1842,"duration":220},{"tileid":1843,"duration":220}]},{"id":1844,"animation":[{"tileid":1844,"duration":220},{"tileid":1845,"duration":220},{"tileid":1846,"duration":220},{"tileid":1847,"duration":220},{"tileid":1848,"duration":220},{"tileid":1849,"duration":220},{"tileid":1850,"duration":220},{"tileid":1851,"duration":220}]},{"id":1852,"animation":[{"tileid":1852,"duration":220},{"tileid":1853,"duration":220},{"tileid":1854,"duration":220},{"tileid":1855,"duration":220},{"tileid":1856,"duration":220},{"tileid":1857,"duration":220},{"tileid":1858,"duration":220},{"tileid":1859,"duration":220}]},{"id":1860,"animation":[{"tileid":1860,"duration":220},{"tileid":1861,"duration":220},{"tileid":1862,"duration":220},{"tileid":1863,"duration":220},{"tileid":1864,"duration":220},{"tileid":1865,"duration":220},{"tileid":1866,"duration":220},{"tileid":1867,"duration":220}]},{"id":1868,"animation":[{"tileid":1868,"duration":220},{"tileid":1869,"duration":220},{"tileid":1870,"duration":220},{"tileid":1871,"duration":220},{"tileid":1872,"duration":220},{"tileid":1873,"duration":220},{"tileid":1874,"duration":220},{"tileid":1875,"duration":220}]},{"id":1876,"animation":[{"tileid":1876,"duration":220},{"tileid":1877,"duration":220},{"tileid":1878,"duration":220},{"tileid":1879,"duration":220},{"tileid":1880,"duration":220},{"tileid":1881,"duration":220},{"tileid":1882,"duration":220},{"tileid":1883,"duration":220}]},{"id":1884,"animation":[{"tileid":1884,"duration":220},{"tileid":1885,"duration":220},{"tileid":1886,"duration":220},{"tileid":1887,"duration":220},{"tileid":1888,"duration":220},{"tileid":1889,"duration":220},{"tileid":1890,"duration":220},{"tileid":1891,"duration":220}]},{"id":1892,"animation":[{"tileid":1892,"duration":220},{"tileid":1893,"duration":220},{"tileid":1894,"duration":220},{"tileid":1895,"duration":220},{"tileid":1896,"duration":220},{"tileid":1897,"duration":220},{"tileid":1898,"duration":220},{"tileid":1899,"duration":220}]},{"id":1900,"animation":[{"tileid":1900,"duration":220},{"tileid":1901,"duration":220},{"tileid":1902,"duration":220},{"tileid":1903,"duration":220},{"tileid":1904,"duration":220},{"tileid":1905,"duration":220},{"tileid":1906,"duration":220},{"tileid":1907,"duration":220}]},{"id":1908,"animation":[{"tileid":1908,"duration":220},{"tileid":1909,"duration":220},{"tileid":1910,"duration":220},{"tileid":1911,"duration":220},{"tileid":1912,"duration":220},{"tileid":1913,"duration":220},{"tileid":1914,"duration":220},{"tileid":1915,"duration":220}]},{"id":1916,"animation":[{"tileid":1916,"duration":220},{"tileid":1917,"duration":220},{"tileid":1918,"duration":220},{"tileid":1919,"duration":220},{"tileid":1920,"duration":220},{"tileid":1921,"duration":220},{"tileid":1922,"duration":220},{"tileid":1923,"duration":220}]},{"id":1924,"animation":[{"tileid":1924,"duration":220},{"tileid":1925,"duration":220},{"tileid":1926,"duration":220},{"tileid":1927,"duration":220},{"tileid":1928,"duration":220},{"tileid":1929,"duration":220},{"tileid":1930,"duration":220},{"tileid":1931,"duration":220}]},{"id":1932,"animation":[{"tileid":1932,"duration":220},{"tileid":1933,"duration":220},{"tileid":1934,"duration":220},{"tileid":1935,"duration":220},{"tileid":1936,"duration":220},{"tileid":1937,"duration":220},{"tileid":1938,"duration":220},{"tileid":1939,"duration":220}]},{"id":1956,"animation":[{"tileid":1956,"duration":220},{"tileid":1957,"duration":220},{"tileid":1958,"duration":220},{"tileid":1959,"duration":220}]},{"id":1960,"animation":[{"tileid":1960,"duration":220},{"tileid":1961,"duration":220},{"tileid":1962,"duration":220},{"tileid":1963,"duration":220}]},{"id":1967,"animation":[{"tileid":1967,"duration":220},{"tileid":1968,"duration":220},{"tileid":1969,"duration":220},{"tileid":1970,"duration":220}]},{"id":1971,"animation":[{"tileid":1971,"duration":220},{"tileid":1972,"duration":220},{"tileid":1973,"duration":220},{"tileid":1974,"duration":220}]},{"id":1975,"animation":[{"tileid":1975,"duration":220},{"tileid":1976,"duration":220},{"tileid":1977,"duration":220},{"tileid":1978,"duration":220}]},{"id":1979,"animation":[{"tileid":1979,"duration":220},{"tileid":1980,"duration":220},{"tileid":1981,"duration":220},{"tileid":1982,"duration":220}]},{"id":1984,"animation":[{"tileid":1984,"duration":220},{"tileid":1985,"duration":220},{"tileid":1986,"duration":220},{"tileid":1987,"duration":220}]},{"id":1988,"animation":[{"tileid":1988,"duration":220},{"tileid":1989,"duration":220},{"tileid":1990,"duration":220},{"tileid":1991,"duration":220}]},{"id":1992,"animation":[{"tileid":1992,"duration":220},{"tileid":1993,"duration":220},{"tileid":1994,"duration":220},{"tileid":1995,"duration":220}]},{"id":1998,"animation":[{"tileid":1998,"duration":220},{"tileid":1999,"duration":220},{"tileid":2000,"duration":220},{"tileid":2001,"duration":220}]},{"id":2002,"animation":[{"tileid":2002,"duration":220},{"tileid":2003,"duration":220},{"tileid":2004,"duration":220},{"tileid":2005,"duration":220}]},{"id":2012,"animation":[{"tileid":2012,"duration":220},{"tileid":2013,"duration":220},{"tileid":2014,"duration":220},{"tileid":2015,"duration":220}]},{"id":2018,"animation":[{"tileid":2018,"duration":220},{"tileid":2019,"duration":220},{"tileid":2020,"duration":220},{"tileid":2021,"duration":220}]},{"id":2024,"animation":[{"tileid":2024,"duration":220},{"tileid":2025,"duration":220},{"tileid":2026,"duration":220},{"tileid":2027,"duration":220}]},{"id":2029,"animation":[{"tileid":2029,"duration":220},{"tileid":2030,"duration":220},{"tileid":2031,"duration":220},{"tileid":2032,"duration":220}]},{"id":2033,"animation":[{"tileid":2033,"duration":220},{"tileid":2034,"duration":220},{"tileid":2035,"duration":220},{"tileid":2036,"duration":220}]},{"id":2038,"animation":[{"tileid":2038,"duration":220},{"tileid":2039,"duration":220},{"tileid":2040,"duration":220},{"tileid":2041,"duration":220}]},{"id":2043,"animation":[{"tileid":2043,"duration":220},{"tileid":2044,"duration":220},{"tileid":2045,"duration":220},{"tileid":2046,"duration":220}]},{"id":2047,"animation":[{"tileid":2047,"duration":220},{"tileid":2048,"duration":220},{"tileid":2049,"duration":220},{"tileid":2050,"duration":220}]},{"id":2051,"animation":[{"tileid":2051,"duration":220},{"tileid":2052,"duration":220},{"tileid":2053,"duration":220},{"tileid":2054,"duration":220}]},{"id":2056,"animation":[{"tileid":2056,"duration":220},{"tileid":2057,"duration":220},{"tileid":2058,"duration":220},{"tileid":2059,"duration":220}]},{"id":2060,"animation":[{"tileid":2060,"duration":220},{"tileid":2061,"duration":220},{"tileid":2062,"duration":220},{"tileid":2063,"duration":220}]},{"id":2064,"animation":[{"tileid":2064,"duration":220},{"tileid":2065,"duration":220},{"tileid":2066,"duration":220},{"tileid":2067,"duration":220}]},{"id":2068,"animation":[{"tileid":2068,"duration":220},{"tileid":2069,"duration":220},{"tileid":2070,"duration":220},{"tileid":2071,"duration":220}]},{"id":2072,"animation":[{"tileid":2072,"duration":220},{"tileid":2073,"duration":220},{"tileid":2074,"duration":220},{"tileid":2075,"duration":220}]},{"id":2076,"animation":[{"tileid":2076,"duration":220},{"tileid":2077,"duration":220},{"tileid":2078,"duration":220},{"tileid":2079,"duration":220}]},{"id":2081,"animation":[{"tileid":2081,"duration":220},{"tileid":2082,"duration":220},{"tileid":2083,"duration":220},{"tileid":2084,"duration":220}]},{"id":2108,"animation":[{"tileid":2108,"duration":220},{"tileid":2109,"duration":220},{"tileid":2110,"duration":220},{"tileid":2111,"duration":220}]},{"id":2112,"animation":[{"tileid":2112,"duration":220},{"tileid":2113,"duration":220},{"tileid":2114,"duration":220},{"tileid":2115,"duration":220}]},{"id":2116,"animation":[{"tileid":2116,"duration":220},{"tileid":2117,"duration":220},{"tileid":2118,"duration":220},{"tileid":2119,"duration":220}]},{"id":2120,"animation":[{"tileid":2120,"duration":220},{"tileid":2121,"duration":220},{"tileid":2122,"duration":220},{"tileid":2123,"duration":220}]},{"id":2124,"animation":[{"tileid":2124,"duration":220},{"tileid":2125,"duration":220},{"tileid":2126,"duration":220},{"tileid":2127,"duration":220}]},{"id":2128,"animation":[{"tileid":2128,"duration":220},{"tileid":2129,"duration":220},{"tileid":2130,"duration":220},{"tileid":2131,"duration":220}]},{"id":2132,"animation":[{"tileid":2132,"duration":220},{"tileid":2133,"duration":220},{"tileid":2134,"duration":220},{"tileid":2135,"duration":220}]},{"id":2136,"animation":[{"tileid":2136,"duration":220},{"tileid":2137,"duration":220},{"tileid":2138,"duration":220},{"tileid":2139,"duration":220}]},{"id":2140,"animation":[{"tileid":2140,"duration":220},{"tileid":2141,"duration":220},{"tileid":2142,"duration":220},{"tileid":2143,"duration":220}]},{"id":2144,"animation":[{"tileid":2144,"duration":220},{"tileid":2145,"duration":220},{"tileid":2146,"duration":220},{"tileid":2147,"duration":220}]},{"id":2148,"animation":[{"tileid":2148,"duration":220},{"tileid":2149,"duration":220},{"tileid":2150,"duration":220},{"tileid":2151,"duration":220}]},{"id":2152,"animation":[{"tileid":2152,"duration":220},{"tileid":2153,"duration":220},{"tileid":2154,"duration":220},{"tileid":2155,"duration":220}]},{"id":2156,"animation":[{"tileid":2156,"duration":220},{"tileid":2157,"duration":220},{"tileid":2158,"duration":220},{"tileid":2159,"duration":220}]},{"id":2160,"animation":[{"tileid":2160,"duration":220},{"tileid":2161,"duration":220},{"tileid":2162,"duration":220},{"tileid":2163,"duration":220}]},{"id":2164,"animation":[{"tileid":2164,"duration":220},{"tileid":2165,"duration":220},{"tileid":2166,"duration":220},{"tileid":2167,"duration":220}]},{"id":2168,"animation":[{"tileid":2168,"duration":220},{"tileid":2169,"duration":220},{"tileid":2170,"duration":220},{"tileid":2171,"duration":220}]},{"id":2173,"animation":[{"tileid":2173,"duration":220},{"tileid":2174,"duration":220},{"tileid":2175,"duration":220},{"tileid":2176,"duration":220}]},{"id":2177,"animation":[{"tileid":2177,"duration":220},{"tileid":2178,"duration":220},{"tileid":2179,"duration":220},{"tileid":2180,"duration":220}]},{"id":2181,"animation":[{"tileid":2181,"duration":220},{"tileid":2182,"duration":220},{"tileid":2183,"duration":220},{"tileid":2184,"duration":220}]},{"id":2185,"animation":[{"tileid":2185,"duration":220},{"tileid":2186,"duration":220},{"tileid":2187,"duration":220},{"tileid":2188,"duration":220}]},{"id":2191,"animation":[{"tileid":2191,"duration":220},{"tileid":2192,"duration":220},{"tileid":2193,"duration":220},{"tileid":2194,"duration":220}]},{"id":2195,"animation":[{"tileid":2195,"duration":220},{"tileid":2196,"duration":220},{"tileid":2197,"duration":220},{"tileid":2198,"duration":220}]},{"id":2199,"animation":[{"tileid":2199,"duration":220},{"tileid":2200,"duration":220},{"tileid":2201,"duration":220},{"tileid":2202,"duration":220}]},{"id":2203,"animation":[{"tileid":2203,"duration":220},{"tileid":2204,"duration":220},{"tileid":2205,"duration":220},{"tileid":2206,"duration":220}]},{"id":2207,"animation":[{"tileid":2207,"duration":220},{"tileid":2208,"duration":220},{"tileid":2209,"duration":220},{"tileid":2210,"duration":220}]},{"id":2213,"animation":[{"tileid":2213,"duration":220},{"tileid":2214,"duration":220},{"tileid":2215,"duration":220},{"tileid":2216,"duration":220}]},{"id":2217,"animation":[{"tileid":2217,"duration":220},{"tileid":2218,"duration":220},{"tileid":2219,"duration":220},{"tileid":2220,"duration":220}]},{"id":2287,"animation":[{"tileid":2287,"duration":220},{"tileid":2288,"duration":220},{"tileid":2289,"duration":220},{"tileid":2290,"duration":220},{"tileid":2291,"duration":220},{"tileid":2292,"duration":220},{"tileid":2293,"duration":220},{"tileid":2294,"duration":220}]},{"id":2295,"animation":[{"tileid":2295,"duration":220},{"tileid":2296,"duration":220},{"tileid":2297,"duration":220},{"tileid":2298,"duration":220},{"tileid":2299,"duration":220},{"tileid":2300,"duration":220},{"tileid":2301,"duration":220},{"tileid":2302,"duration":220}]},{"id":2303,"animation":[{"tileid":2303,"duration":220},{"tileid":2304,"duration":220},{"tileid":2305,"duration":220},{"tileid":2306,"duration":220},{"tileid":2307,"duration":220},{"tileid":2308,"duration":220},{"tileid":2309,"duration":220},{"tileid":2310,"duration":220}]},{"id":2311,"animation":[{"tileid":2311,"duration":220},{"tileid":2312,"duration":220},{"tileid":2313,"duration":220},{"tileid":2314,"duration":220},{"tileid":2315,"duration":220},{"tileid":2316,"duration":220},{"tileid":2317,"duration":220},{"tileid":2318,"duration":220}]},{"id":2319,"animation":[{"tileid":2319,"duration":220},{"tileid":2320,"duration":220},{"tileid":2321,"duration":220},{"tileid":2322,"duration":220},{"tileid":2323,"duration":220},{"tileid":2324,"duration":220},{"tileid":2325,"duration":220},{"tileid":2326,"duration":220}]},{"id":2327,"animation":[{"tileid":2327,"duration":220},{"tileid":2328,"duration":220},{"tileid":2329,"duration":220},{"tileid":2330,"duration":220},{"tileid":2331,"duration":220},{"tileid":2332,"duration":220},{"tileid":2333,"duration":220},{"tileid":2334,"duration":220}]},{"id":2335,"animation":[{"tileid":2335,"duration":220},{"tileid":2336,"duration":220},{"tileid":2337,"duration":220},{"tileid":2338,"duration":220},{"tileid":2339,"duration":220},{"tileid":2340,"duration":220},{"tileid":2341,"duration":220},{"tileid":2342,"duration":220}]},{"id":2343,"animation":[{"tileid":2343,"duration":220},{"tileid":2344,"duration":220},{"tileid":2345,"duration":220},{"tileid":2346,"duration":220},{"tileid":2347,"duration":220},{"tileid":2348,"duration":220},{"tileid":2349,"duration":220},{"tileid":2350,"duration":220}]},{"id":2355,"animation":[{"tileid":2355,"duration":220},{"tileid":2356,"duration":220},{"tileid":2357,"duration":220},{"tileid":2358,"duration":220}]},{"id":2359,"animation":[{"tileid":2359,"duration":220},{"tileid":2360,"duration":220},{"tileid":2361,"duration":220},{"tileid":2362,"duration":220}]},{"id":2365,"animation":[{"tileid":2365,"duration":220},{"tileid":2366,"duration":220},{"tileid":2367,"duration":220},{"tileid":2368,"duration":220}]},{"id":2369,"animation":[{"tileid":2369,"duration":220},{"tileid":2370,"duration":220},{"tileid":2371,"duration":220},{"tileid":2372,"duration":220}]},{"id":2373,"animation":[{"tileid":2373,"duration":220},{"tileid":2374,"duration":220},{"tileid":2375,"duration":220},{"tileid":2376,"duration":220}]},{"id":2377,"animation":[{"tileid":2377,"duration":220},{"tileid":2378,"duration":220},{"tileid":2379,"duration":220},{"tileid":2380,"duration":220}]},{"id":2383,"animation":[{"tileid":2383,"duration":220},{"tileid":2384,"duration":220},{"tileid":2385,"duration":220},{"tileid":2386,"duration":220}]},{"id":2387,"animation":[{"tileid":2387,"duration":220},{"tileid":2388,"duration":220},{"tileid":2389,"duration":220},{"tileid":2390,"duration":220}]},{"id":2494,"animation":[{"tileid":2494,"duration":220},{"tileid":2495,"duration":220},{"tileid":2496,"duration":220},{"tileid":2497,"duration":220}]},{"id":2498,"animation":[{"tileid":2498,"duration":220},{"tileid":2499,"duration":220},{"tileid":2500,"duration":220},{"tileid":2501,"duration":220}]},{"id":2502,"animation":[{"tileid":2502,"duration":220},{"tileid":2503,"duration":220},{"tileid":2504,"duration":220},{"tileid":2505,"duration":220}]},{"id":2506,"animation":[{"tileid":2506,"duration":220},{"tileid":2507,"duration":220},{"tileid":2508,"duration":220},{"tileid":2509,"duration":220}]},{"id":2510,"animation":[{"tileid":2510,"duration":220},{"tileid":2511,"duration":220},{"tileid":2512,"duration":220},{"tileid":2513,"duration":220}]},{"id":2514,"animation":[{"tileid":2514,"duration":220},{"tileid":2515,"duration":220},{"tileid":2516,"duration":220},{"tileid":2517,"duration":220}]},{"id":2518,"animation":[{"tileid":2518,"duration":220},{"tileid":2519,"duration":220},{"tileid":2520,"duration":220},{"tileid":2521,"duration":220}]},{"id":2522,"animation":[{"tileid":2522,"duration":220},{"tileid":2523,"duration":220},{"tileid":2524,"duration":220},{"tileid":2525,"duration":220}]},{"id":2526,"animation":[{"tileid":2526,"duration":220},{"tileid":2527,"duration":220},{"tileid":2528,"duration":220},{"tileid":2529,"duration":220}]},{"id":2533,"animation":[{"tileid":2533,"duration":220},{"tileid":2534,"duration":220},{"tileid":2535,"duration":220},{"tileid":2536,"duration":220}]},{"id":2537,"animation":[{"tileid":2537,"duration":220},{"tileid":2538,"duration":220},{"tileid":2539,"duration":220},{"tileid":2540,"duration":220}]},{"id":2541,"animation":[{"tileid":2541,"duration":220},{"tileid":2542,"duration":220},{"tileid":2543,"duration":220},{"tileid":2544,"duration":220}]},{"id":2548,"animation":[{"tileid":2548,"duration":220},{"tileid":2549,"duration":220},{"tileid":2550,"duration":220},{"tileid":2551,"duration":220}]},{"id":2552,"animation":[{"tileid":2552,"duration":220},{"tileid":2553,"duration":220},{"tileid":2554,"duration":220},{"tileid":2555,"duration":220}]},{"id":2557,"animation":[{"tileid":2557,"duration":220},{"tileid":2558,"duration":220},{"tileid":2559,"duration":220},{"tileid":2560,"duration":220}]},{"id":2561,"animation":[{"tileid":2561,"duration":220},{"tileid":2562,"duration":220},{"tileid":2563,"duration":220},{"tileid":2564,"duration":220}]},{"id":2568,"animation":[{"tileid":2568,"duration":220},{"tileid":2569,"duration":220},{"tileid":2570,"duration":220},{"tileid":2571,"duration":220}]},{"id":2572,"animation":[{"tileid":2572,"duration":220},{"tileid":2573,"duration":220},{"tileid":2574,"duration":220},{"tileid":2575,"duration":220}]},{"id":2576,"animation":[{"tileid":2576,"duration":220},{"tileid":2577,"duration":220},{"tileid":2578,"duration":220},{"tileid":2579,"duration":220}]},{"id":2583,"animation":[{"tileid":2583,"duration":220},{"tileid":2584,"duration":220},{"tileid":2585,"duration":220},{"tileid":2586,"duration":220}]},{"id":2606,"animation":[{"tileid":2606,"duration":220},{"tileid":2607,"duration":220},{"tileid":2608,"duration":220},{"tileid":2609,"duration":220}]},{"id":2610,"animation":[{"tileid":2610,"duration":220},{"tileid":2611,"duration":220},{"tileid":2612,"duration":220},{"tileid":2613,"duration":220}]},{"id":2614,"animation":[{"tileid":2614,"duration":220},{"tileid":2615,"duration":220},{"tileid":2616,"duration":220},{"tileid":2617,"duration":220}]},{"id":2618,"animation":[{"tileid":2618,"duration":220},{"tileid":2619,"duration":220},{"tileid":2620,"duration":220},{"tileid":2621,"duration":220}]},{"id":2622,"animation":[{"tileid":2622,"duration":220},{"tileid":2623,"duration":220},{"tileid":2624,"duration":220},{"tileid":2625,"duration":220}]},{"id":2631,"animation":[{"tileid":2631,"duration":220},{"tileid":2632,"duration":220},{"tileid":2633,"duration":220},{"tileid":2634,"duration":220}]},{"id":2635,"animation":[{"tileid":2635,"duration":220},{"tileid":2636,"duration":220},{"tileid":2637,"duration":220},{"tileid":2638,"duration":220}]},{"id":2639,"animation":[{"tileid":2639,"duration":220},{"tileid":2640,"duration":220},{"tileid":2641,"duration":220},{"tileid":2642,"duration":220}]},{"id":2647,"animation":[{"tileid":2647,"duration":220},{"tileid":2648,"duration":220},{"tileid":2649,"duration":220},{"tileid":2650,"duration":220}]},{"id":2653,"animation":[{"tileid":2653,"duration":220},{"tileid":2654,"duration":220},{"tileid":2655,"duration":220},{"tileid":2656,"duration":220}]},{"id":2661,"animation":[{"tileid":2661,"duration":220},{"tileid":2662,"duration":220},{"tileid":2663,"duration":220},{"tileid":2664,"duration":220}]},{"id":2665,"animation":[{"tileid":2665,"duration":220},{"tileid":2666,"duration":220},{"tileid":2667,"duration":220},{"tileid":2668,"duration":220}]},{"id":2887,"animation":[{"tileid":2887,"duration":220},{"tileid":2888,"duration":220},{"tileid":2889,"duration":220},{"tileid":2890,"duration":220}]},{"id":2891,"animation":[{"tileid":2891,"duration":220},{"tileid":2892,"duration":220},{"tileid":2893,"duration":220},{"tileid":2894,"duration":220}]},{"id":2895,"animation":[{"tileid":2895,"duration":220},{"tileid":2896,"duration":220},{"tileid":2897,"duration":220},{"tileid":2898,"duration":220}]},{"id":2899,"animation":[{"tileid":2899,"duration":220},{"tileid":2900,"duration":220},{"tileid":2901,"duration":220},{"tileid":2902,"duration":220}]},{"id":2903,"animation":[{"tileid":2903,"duration":220},{"tileid":2904,"duration":220},{"tileid":2905,"duration":220},{"tileid":2906,"duration":220}]},{"id":2909,"animation":[{"tileid":2909,"duration":220},{"tileid":2910,"duration":220},{"tileid":2911,"duration":220},{"tileid":2912,"duration":220}]},{"id":2913,"animation":[{"tileid":2913,"duration":220},{"tileid":2914,"duration":220},{"tileid":2915,"duration":220},{"tileid":2916,"duration":220}]},{"id":2919,"animation":[{"tileid":2919,"duration":220},{"tileid":2920,"duration":220},{"tileid":2921,"duration":220},{"tileid":2922,"duration":220}]},{"id":2923,"animation":[{"tileid":2923,"duration":220},{"tileid":2924,"duration":220},{"tileid":2925,"duration":220},{"tileid":2926,"duration":220}]},{"id":2927,"animation":[{"tileid":2927,"duration":220},{"tileid":2928,"duration":220},{"tileid":2929,"duration":220},{"tileid":2930,"duration":220}]},{"id":2931,"animation":[{"tileid":2931,"duration":220},{"tileid":2932,"duration":220},{"tileid":2933,"duration":220},{"tileid":2934,"duration":220}]},{"id":2935,"animation":[{"tileid":2935,"duration":220},{"tileid":2936,"duration":220},{"tileid":2937,"duration":220},{"tileid":2938,"duration":220}]},{"id":2939,"animation":[{"tileid":2939,"duration":220},{"tileid":2940,"duration":220},{"tileid":2941,"duration":220},{"tileid":2942,"duration":220}]},{"id":2943,"animation":[{"tileid":2943,"duration":220},{"tileid":2944,"duration":220},{"tileid":2945,"duration":220},{"tileid":2946,"duration":220}]},{"id":2947,"animation":[{"tileid":2947,"duration":220},{"tileid":2948,"duration":220},{"tileid":2949,"duration":220},{"tileid":2950,"duration":220}]},{"id":2954,"animation":[{"tileid":2954,"duration":220},{"tileid":2955,"duration":220},{"tileid":2956,"duration":220},{"tileid":2957,"duration":220}]},{"id":2963,"animation":[{"tileid":2963,"duration":220},{"tileid":2964,"duration":220},{"tileid":2965,"duration":220},{"tileid":2966,"duration":220}]},{"id":2967,"animation":[{"tileid":2967,"duration":220},{"tileid":2968,"duration":220},{"tileid":2969,"duration":220},{"tileid":2970,"duration":220}]},{"id":2971,"animation":[{"tileid":2971,"duration":220},{"tileid":2972,"duration":220},{"tileid":2973,"duration":220},{"tileid":2974,"duration":220}]},{"id":2975,"animation":[{"tileid":2975,"duration":220},{"tileid":2976,"duration":220},{"tileid":2977,"duration":220},{"tileid":2978,"duration":220}]},{"id":2979,"animation":[{"tileid":2979,"duration":220},{"tileid":2980,"duration":220},{"tileid":2981,"duration":220},{"tileid":2982,"duration":220}]},{"id":2983,"animation":[{"tileid":2983,"duration":220},{"tileid":2984,"duration":220},{"tileid":2985,"duration":220},{"tileid":2986,"duration":220}]},{"id":2987,"animation":[{"tileid":2987,"duration":220},{"tileid":2988,"duration":220},{"tileid":2989,"duration":220},{"tileid":2990,"duration":220}]},{"id":2991,"animation":[{"tileid":2991,"duration":220},{"tileid":2992,"duration":220},{"tileid":2993,"duration":220},{"tileid":2994,"duration":220}]},{"id":2995,"animation":[{"tileid":2995,"duration":220},{"tileid":2996,"duration":220},{"tileid":2997,"duration":220},{"tileid":2998,"duration":220}]},{"id":2999,"animation":[{"tileid":2999,"duration":220},{"tileid":3000,"duration":220},{"tileid":3001,"duration":220},{"tileid":3002,"duration":220}]},{"id":3003,"animation":[{"tileid":3003,"duration":220},{"tileid":3004,"duration":220},{"tileid":3005,"duration":220},{"tileid":3006,"duration":220}]},{"id":3007,"animation":[{"tileid":3007,"duration":220},{"tileid":3008,"duration":220},{"tileid":3009,"duration":220},{"tileid":3010,"duration":220}]},{"id":3011,"animation":[{"tileid":3011,"duration":220},{"tileid":3012,"duration":220},{"tileid":3013,"duration":220},{"tileid":3014,"duration":220}]},{"id":3015,"animation":[{"tileid":3015,"duration":220},{"tileid":3016,"duration":220},{"tileid":3017,"duration":220},{"tileid":3018,"duration":220}]},{"id":3019,"animation":[{"tileid":3019,"duration":220},{"tileid":3020,"duration":220},{"tileid":3021,"duration":220},{"tileid":3022,"duration":220}]},{"id":3023,"animation":[{"tileid":3023,"duration":220},{"tileid":3024,"duration":220},{"tileid":3025,"duration":220},{"tileid":3026,"duration":220}]},{"id":3027,"animation":[{"tileid":3027,"duration":220},{"tileid":3028,"duration":220},{"tileid":3029,"duration":220},{"tileid":3030,"duration":220}]},{"id":3031,"animation":[{"tileid":3031,"duration":220},{"tileid":3032,"duration":220},{"tileid":3033,"duration":220},{"tileid":3034,"duration":220}]},{"id":3035,"animation":[{"tileid":3035,"duration":220},{"tileid":3036,"duration":220},{"tileid":3037,"duration":220},{"tileid":3038,"duration":220}]},{"id":3039,"animation":[{"tileid":3039,"duration":220},{"tileid":3040,"duration":220},{"tileid":3041,"duration":220},{"tileid":3042,"duration":220}]},{"id":3043,"animation":[{"tileid":3043,"duration":220},{"tileid":3044,"duration":220},{"tileid":3045,"duration":220},{"tileid":3046,"duration":220}]},{"id":3047,"animation":[{"tileid":3047,"duration":220},{"tileid":3048,"duration":220},{"tileid":3049,"duration":220},{"tileid":3050,"duration":220}]},{"id":3051,"animation":[{"tileid":3051,"duration":220},{"tileid":3052,"duration":220},{"tileid":3053,"duration":220},{"tileid":3054,"duration":220}]},{"id":3055,"animation":[{"tileid":3055,"duration":220},{"tileid":3056,"duration":220},{"tileid":3057,"duration":220},{"tileid":3058,"duration":220}]},{"id":3059,"animation":[{"tileid":3059,"duration":220},{"tileid":3060,"duration":220},{"tileid":3061,"duration":220},{"tileid":3062,"duration":220}]},{"id":3063,"animation":[{"tileid":3063,"duration":220},{"tileid":3064,"duration":220},{"tileid":3065,"duration":220},{"tileid":3066,"duration":220}]},{"id":3069,"animation":[{"tileid":3069,"duration":220},{"tileid":3070,"duration":220},{"tileid":3071,"duration":220},{"tileid":3072,"duration":220}]},{"id":3074,"animation":[{"tileid":3074,"duration":220},{"tileid":3075,"duration":220},{"tileid":3076,"duration":220},{"tileid":3077,"duration":220}]},{"id":3078,"animation":[{"tileid":3078,"duration":220},{"tileid":3079,"duration":220},{"tileid":3080,"duration":220},{"tileid":3081,"duration":220}]},{"id":3083,"animation":[{"tileid":3083,"duration":220},{"tileid":3084,"duration":220},{"tileid":3085,"duration":220},{"tileid":3086,"duration":220}]},{"id":3087,"animation":[{"tileid":3087,"duration":220},{"tileid":3088,"duration":220},{"tileid":3089,"duration":220},{"tileid":3090,"duration":220}]},{"id":3091,"animation":[{"tileid":3091,"duration":220},{"tileid":3092,"duration":220},{"tileid":3093,"duration":220},{"tileid":3094,"duration":220}]},{"id":3095,"animation":[{"tileid":3095,"duration":220},{"tileid":3096,"duration":220},{"tileid":3097,"duration":220},{"tileid":3098,"duration":220}]},{"id":3099,"animation":[{"tileid":3099,"duration":220},{"tileid":3100,"duration":220},{"tileid":3101,"duration":220},{"tileid":3102,"duration":220}]},{"id":3103,"animation":[{"tileid":3103,"duration":220},{"tileid":3104,"duration":220},{"tileid":3105,"duration":220},{"tileid":3106,"duration":220}]},{"id":3107,"animation":[{"tileid":3107,"duration":220},{"tileid":3108,"duration":220},{"tileid":3109,"duration":220},{"tileid":3110,"duration":220}]},{"id":3111,"animation":[{"tileid":3111,"duration":220},{"tileid":3112,"duration":220},{"tileid":3113,"duration":220},{"tileid":3114,"duration":220}]},{"id":3115,"animation":[{"tileid":3115,"duration":220},{"tileid":3116,"duration":220},{"tileid":3117,"duration":220},{"tileid":3118,"duration":220}]},{"id":3119,"animation":[{"tileid":3119,"duration":220},{"tileid":3120,"duration":220},{"tileid":3121,"duration":220},{"tileid":3122,"duration":220}]}]},{"firstgid":3187,"name":"meta","image":"../tilesets/meta.png","imagewidth":256,"imageheight":16,"tilewidth":16,"tileheight":16,"tilecount":16,"columns":16,"margin":0,"spacing":0,"tiles":[{"id":0,"properties":[{"name":"behavior","type":"string","value":"none"}]},{"id":1,"properties":[{"name":"behavior","type":"string","value":"solid"}]},{"id":2,"properties":[{"name":"behavior","type":"string","value":"water"}]},{"id":3,"properties":[{"name":"behavior","type":"string","value":"grass"}]},{"id":4,"properties":[{"name":"behavior","type":"string","value":"ledge_down"}]},{"id":5,"properties":[{"name":"behavior","type":"string","value":"ledge_left"}]},{"id":6,"properties":[{"name":"behavior","type":"string","value":"ledge_right"}]},{"id":7,"properties":[{"name":"behavior","type":"string","value":"counter"}]},{"id":8,"properties":[{"name":"behavior","type":"string","value":"door"}]},{"id":9,"properties":[{"name":"behavior","type":"string","value":"bridge"}]},{"id":10,"properties":[{"name":"behavior","type":"string","value":"noenc"}]},{"id":11,"properties":[{"name":"behavior","type":"string","value":"ice"}]},{"id":12,"properties":[{"name":"behavior","type":"string","value":"push_up"}]},{"id":13,"properties":[{"name":"behavior","type":"string","value":"push_down"}]},{"id":14,"properties":[{"name":"behavior","type":"string","value":"push_left"}]},{"id":15,"properties":[{"name":"behavior","type":"string","value":"push_right"}]}]}]}