{"type":"map","version":"1.10","tiledversion":"1.10.2","orientation":"orthogonal","renderorder":"right-down","width":16,"height":11,"tilewidth":16,"tileheight":16,"infinite":false,"nextlayerid":6,"nextobjectid":6,"properties":[{"name":"kind","type":"string","value":"interior"},{"name":"name","type":"string","value":"Riftgate Haven"},{"name":"floor","type":"string","value":"mint"},{"name":"wall","type":"string","value":"teal"},{"name":"music","type":"string","value":"haven"}],"layers":[{"id":1,"name":"ground","type":"tilelayer","width":16,"height":11,"x":0,"y":0,"opacity":1,"visible":true,"data":[409,409,410,409,409,409,409,409,409,409,409,409,409,410,409,409,411,411,413,411,411,411,411,411,411,411,411,411,411,413,411,411,419,420,419,419,420,419,419,420,419,419,420,419,419,420,419,419,428,429,428,428,429,428,428,429,428,428,429,428,428,429,428,428,428,429,428,428,429,428,428,429,428,428,429,428,428,429,428,428,428,429,428,428,429,428,428,429,428,428,429,428,428,429,428,428,428,429,428,428,429,428,428,429,428,428,429,428,428,429,428,428,428,429,428,428,429,428,428,429,428,428,429,428,428,429,428,428,428,429,428,428,429,428,428,429,428,428,429,428,428,429,428,428,428,429,428,428,429,428,428,429,428,428,429,428,428,429,428,428,428,429,428,428,429,428,428,429,428,428,429,428,428,429,428,428]},{"id":2,"name":"decor","type":"tilelayer","width":16,"height":11,"x":0,"y":0,"opacity":1,"visible":true,"data":[0,0,0,0,0,0,0,0,0,0,0,0,0,0,0,0,0,0,0,0,0,0,0,0,0,0,0,0,0,0,0,0,0,421,0,422,0,0,424,425,0,0,0,0,426,427,0,0,0,0,0,430,0,0,0,0,0,0,0,0,0,0,0,0,0,0,0,0,432,432,432,432,432,432,430,432,432,432,432,430,0,0,0,0,0,0,0,0,0,0,0,0,0,0,0,0,0,434,0,0,0,0,437,438,439,0,0,0,0,0,0,0,0,440,441,434,0,0,442,443,444,0,0,440,441,434,0,0,0,0,0,0,0,0,0,0,0,0,0,0,0,0,0,0,430,0,0,0,0,0,0,0,0,0,0,0,0,0,0,430,0,0,0,0,0,0,0,445,445,0,0,0,0,0,0,0]},{"id":3,"name":"above","type":"tilelayer","width":16,"height":11,"x":0,"y":0,"opacity":1,"visible":true,"data":[0,0,0,0,0,0,0,0,0,0,0,0,0,0,0,0,0,412,0,414,0,0,415,416,0,0,0,0,417,418,0,0,0,0,0,423,0,0,0,0,0,0,0,0,0,0,0,0,0,0,0,0,431,431,431,431,431,431,423,431,431,431,431,423,0,0,0,0,0,0,0,0,0,0,0,0,0,0,0,0,0,433,0,0,0,0,0,0,0,0,0,0,0,0,0,0,0,435,436,433,0,0,0,0,0,0,0,435,436,433,0,0,0,0,0,0,0,0,0,0,0,0,0,0,0,0,0,0,423,0,0,0,0,0,0,0,0,0,0,0,0,0,0,423,0,0,0,0,0,0,0,0,0,0,0,0,0,0,0,0,0,0,0,0,0,0,0,0,0,0,0,0,0,0,0,0]},{"id":4,"name":"meta","type":"tilelayer","width":16,"height":11,"x":0,"y":0,"opacity":0.6,"visible":false,"data":[3103,3103,3103,3103,3103,3103,3103,3103,3103,3103,3103,3103,3103,3103,3103,3103,3103,3103,3103,3103,3103,3103,3103,3103,3103,3103,3103,3103,3103,3103,3103,3103,0,3103,0,3103,0,0,3103,3103,0,0,0,0,3103,3103,0,0,0,0,0,3103,0,0,0,0,0,0,0,0,0,0,0,0,0,0,0,0,3109,3109,3109,3109,3109,3109,3103,3109,3109,3109,3109,3103,0,0,0,0,0,0,0,0,0,0,0,0,0,0,0,0,0,3103,0,0,0,0,0,0,0,0,0,0,0,0,0,0,0,3103,3103,3103,0,0,0,0,0,0,0,3103,3103,3103,0,0,0,0,0,0,0,0,0,0,0,0,0,0,0,0,0,0,3103,0,0,0,0,0,0,0,0,0,0,0,0,0,0,3103,0,0,0,0,0,0,0,0,0,0,0,0,0,0,0,0]},{"id":5,"name":"objects","type":"objectgroup","draworder":"topdown","x":0,"y":0,"opacity":1,"visible":true,"objects":[{"id":1,"name":"","type":"sign","x":16,"y":32,"width":16,"height":16,"rotation":0,"visible":true,"properties":[{"name":"script","type":"string","value":"haven.pc"}]},{"id":2,"name":"riftgate_haven_keeper","type":"npc","x":112,"y":48,"width":16,"height":16,"rotation":0,"visible":true,"properties":[{"name":"id","type":"string","value":"riftgate_haven_keeper"},{"name":"sprite","type":"string","value":"nurse"},{"name":"face","type":"string","value":"down"},{"name":"move","type":"string","value":"still"},{"name":"script","type":"string","value":"haven.heal"},{"name":"noturn","type":"string","value":"1"},{"name":"name","type":"string","value":"Haven Keeper"}]},{"id":3,"name":"riftgate_haven_clerk","type":"npc","x":192,"y":48,"width":16,"height":16,"rotation":0,"visible":true,"properties":[{"name":"id","type":"string","value":"riftgate_haven_clerk"},{"name":"sprite","type":"string","value":"clerk"},{"name":"face","type":"string","value":"down"},{"name":"move","type":"string","value":"still"},{"name":"script","type":"string","value":"haven.shop"},{"name":"noturn","type":"string","value":"1"},{"name":"name","type":"string","value":"Clerk"}]},{"id":4,"name":"","type":"warp","x":112,"y":160,"width":16,"height":16,"rotation":0,"visible":true,"properties":[{"name":"mat","type":"string","value":"1"},{"name":"to","type":"string","value":"riftgate:11,10"},{"name":"face","type":"string","value":"down"}]},{"id":5,"name":"","type":"warp","x":128,"y":160,"width":16,"height":16,"rotation":0,"visible":true,"properties":[{"name":"mat","type":"string","value":"1"},{"name":"to","type":"string","value":"riftgate:11,10"},{"name":"face","type":"string","value":"down"}]}]}],"tilesets":[{"firstgid":1,"name":"world","image":"../tilesets/world.png","imagewidth":1024,"imageheight":784,"tilewidth":16,"tileheight":16,"tilecount":3101,"columns":64,"margin":0,"spacing":0,"tiles":[{"id":18,"animation":[{"tileid":18,"duration":220},{"tileid":19,"duration":220},{"tileid":20,"duration":220},{"tileid":21,"duration":220}]},{"id":22,"animation":[{"tileid":22,"duration":220},{"tileid":23,"duration":220},{"tileid":24,"duration":220},{"tileid":25,"duration":220}]},{"id":26,"animation":[{"tileid":26,"duration":220},{"tileid":27,"duration":220},{"tileid":28,"duration":220},{"tileid":29,"duration":220}]},{"id":30,"animation":[{"tileid":30,"duration":220},{"tileid":31,"duration":220},{"tileid":32,"duration":220},{"tileid":33,"duration":220}]},{"id":34,"animation":[{"tileid":34,"duration":220},{"tileid":35,"duration":220},{"tileid":36,"duration":220},{"tileid":37,"duration":220}]},{"id":38,"animation":[{"tileid":38,"duration":220},{"tileid":39,"duration":220},{"tileid":40,"duration":220},{"tileid":41,"duration":220}]},{"id":42,"animation":[{"tileid":42,"duration":220},{"tileid":43,"duration":220},{"tileid":44,"duration":220},{"tileid":45,"duration":220}]},{"id":46,"animation":[{"tileid":46,"duration":220},{"tileid":47,"duration":220},{"tileid":48,"duration":220},{"tileid":49,"duration":220}]},{"id":50,"animation":[{"tileid":50,"duration":220},{"tileid":51,"duration":220},{"tileid":52,"duration":220},{"tileid":53,"duration":220}]},{"id":54,"animation":[{"tileid":54,"duration":220},{"tileid":55,"duration":220},{"tileid":56,"duration":220},{"tileid":57,"duration":220}]},{"id":58,"animation":[{"tileid":58,"duration":220},{"tileid":59,"duration":220},{"tileid":60,"duration":220},{"tileid":61,"duration":220}]},{"id":62,"animation":[{"tileid":62,"duration":220},{"tileid":63,"duration":220},{"tileid":64,"duration":220},{"tileid":65,"duration":220}]},{"id":66,"animation":[{"tileid":66,"duration":220},{"tileid":67,"duration":220},{"tileid":68,"duration":220},{"tileid":69,"duration":220}]},{"id":70,"animation":[{"tileid":70,"duration":220},{"tileid":71,"duration":220},{"tileid":72,"duration":220},{"tileid":73,"duration":220}]},{"id":74,"animation":[{"tileid":74,"duration":220},{"tileid":75,"duration":220},{"tileid":76,"duration":220},{"tileid":77,"duration":220}]},{"id":78,"animation":[{"tileid":78,"duration":220},{"tileid":79,"duration":220},{"tileid":80,"duration":220},{"tileid":81,"duration":220}]},{"id":82,"animation":[{"tileid":82,"duration":220},{"tileid":83,"duration":220},{"tileid":84,"duration":220},{"tileid":85,"duration":220}]},{"id":86,"animation":[{"tileid":86,"duration":220},{"tileid":87,"duration":220},{"tileid":88,"duration":220},{"tileid":89,"duration":220}]},{"id":90,"animation":[{"tileid":90,"duration":220},{"tileid":91,"duration":220},{"tileid":92,"duration":220},{"tileid":93,"duration":220}]},{"id":94,"animation":[{"tileid":94,"duration":220},{"tileid":95,"duration":220},{"tileid":96,"duration":220},{"tileid":97,"duration":220}]},{"id":98,"animation":[{"tileid":98,"duration":220},{"tileid":99,"duration":220},{"tileid":100,"duration":220},{"tileid":101,"duration":220}]},{"id":102,"animation":[{"tileid":102,"duration":220},{"tileid":103,"duration":220},{"tileid":104,"duration":220},{"tileid":105,"duration":220}]},{"id":106,"animation":[{"tileid":106,"duration":220},{"tileid":107,"duration":220},{"tileid":108,"duration":220},{"tileid":109,"duration":220}]},{"id":269,"animation":[{"tileid":269,"duration":220},{"tileid":270,"duration":220},{"tileid":271,"duration":220},{"tileid":272,"duration":220}]},{"id":273,"animation":[{"tileid":273,"duration":220},{"tileid":274,"duration":220},{"tileid":275,"duration":220},{"tileid":276,"duration":220}]},{"id":282,"animation":[{"tileid":282,"duration":220},{"tileid":283,"duration":220},{"tileid":284,"duration":220},{"tileid":285,"duration":220}]},{"id":286,"animation":[{"tileid":286,"duration":220},{"tileid":287,"duration":220},{"tileid":288,"duration":220},{"tileid":289,"duration":220}]},{"id":290,"animation":[{"tileid":290,"duration":220},{"tileid":291,"duration":220},{"tileid":292,"duration":220},{"tileid":293,"duration":220}]},{"id":294,"animation":[{"tileid":294,"duration":220},{"tileid":295,"duration":220},{"tileid":296,"duration":220},{"tileid":297,"duration":220}]},{"id":298,"animation":[{"tileid":298,"duration":220},{"tileid":299,"duration":220},{"tileid":300,"duration":220},{"tileid":301,"duration":220}]},{"id":302,"animation":[{"tileid":302,"duration":220},{"tileid":303,"duration":220},{"tileid":304,"duration":220},{"tileid":305,"duration":220}]},{"id":312,"animation":[{"tileid":312,"duration":220},{"tileid":313,"duration":220},{"tileid":314,"duration":220},{"tileid":315,"duration":220}]},{"id":316,"animation":[{"tileid":316,"duration":220},{"tileid":317,"duration":220},{"tileid":318,"duration":220},{"tileid":319,"duration":220}]},{"id":320,"animation":[{"tileid":320,"duration":220},{"tileid":321,"duration":220},{"tileid":322,"duration":220},{"tileid":323,"duration":220}]},{"id":324,"animation":[{"tileid":324,"duration":220},{"tileid":325,"duration":220},{"tileid":326,"duration":220},{"tileid":327,"duration":220}]},{"id":328,"animation":[{"tileid":328,"duration":220},{"tileid":329,"duration":220},{"tileid":330,"duration":220},{"tileid":331,"duration":220}]},{"id":332,"animation":[{"tileid":332,"duration":220},{"tileid":333,"duration":220},{"tileid":334,"duration":220},{"tileid":335,"duration":220}]},{"id":340,"animation":[{"tileid":340,"duration":220},{"tileid":341,"duration":220},{"tileid":342,"duration":220},{"tileid":343,"duration":220}]},{"id":344,"animation":[{"tileid":344,"duration":220},{"tileid":345,"duration":220},{"tileid":346,"duration":220},{"tileid":347,"duration":220}]},{"id":508,"animation":[{"tileid":508,"duration":220},{"tileid":509,"duration":220},{"tileid":510,"duration":220},{"tileid":511,"duration":220}]},{"id":512,"animation":[{"tileid":512,"duration":220},{"tileid":513,"duration":220},{"tileid":514,"duration":220},{"tileid":515,"duration":220}]},{"id":551,"animation":[{"tileid":551,"duration":220},{"tileid":552,"duration":220},{"tileid":553,"duration":220},{"tileid":554,"duration":220}]},{"id":555,"animation":[{"tileid":555,"duration":220},{"tileid":556,"duration":220},{"tileid":557,"duration":220},{"tileid":558,"duration":220}]},{"id":559,"animation":[{"tileid":559,"duration":220},{"tileid":560,"duration":220},{"tileid":561,"duration":220},{"tileid":562,"duration":220}]},{"id":563,"animation":[{"tileid":563,"duration":220},{"tileid":564,"duration":220},{"tileid":565,"duration":220},{"tileid":566,"duration":220}]},{"id":569,"animation":[{"tileid":569,"duration":220},{"tileid":570,"duration":220},{"tileid":571,"duration":220},{"tileid":572,"duration":220}]},{"id":573,"animation":[{"tileid":573,"duration":220},{"tileid":574,"duration":220},{"tileid":575,"duration":220},{"tileid":576,"duration":220}]},{"id":577,"animation":[{"tileid":577,"duration":220},{"tileid":578,"duration":220},{"tileid":579,"duration":220},{"tileid":580,"duration":220}]},{"id":581,"animation":[{"tileid":581,"duration":220},{"tileid":582,"duration":220},{"tileid":583,"duration":220},{"tileid":584,"duration":220}]},{"id":964,"animation":[{"tileid":964,"duration":220},{"tileid":965,"duration":220},{"tileid":966,"duration":220},{"tileid":967,"duration":220}]},{"id":968,"animation":[{"tileid":968,"duration":220},{"tileid":969,"duration":220},{"tileid":970,"duration":220},{"tileid":971,"duration":220}]},{"id":972,"animation":[{"tileid":972,"duration":220},{"tileid":973,"duration":220},{"tileid":974,"duration":220},{"tileid":975,"duration":220}]},{"id":976,"animation":[{"tileid":976,"duration":220},{"tileid":977,"duration":220},{"tileid":978,"duration":220},{"tileid":979,"duration":220}]},{"id":981,"animation":[{"tileid":981,"duration":220},{"tileid":982,"duration":220},{"tileid":983,"duration":220},{"tileid":984,"duration":220}]},{"id":985,"animation":[{"tileid":985,"duration":220},{"tileid":986,"duration":220},{"tileid":987,"duration":220},{"tileid":988,"duration":220}]},{"id":991,"animation":[{"tileid":991,"duration":220},{"tileid":992,"duration":220},{"tileid":993,"duration":220},{"tileid":994,"duration":220}]},{"id":996,"animation":[{"tileid":996,"duration":220},{"tileid":997,"duration":220},{"tileid":998,"duration":220},{"tileid":999,"duration":220}]},{"id":1000,"animation":[{"tileid":1000,"duration":220},{"tileid":1001,"duration":220},{"tileid":1002,"duration":220},{"tileid":1003,"duration":220}]},{"id":1012,"animation":[{"tileid":1012,"duration":220},{"tileid":1013,"duration":220},{"tileid":1014,"duration":220},{"tileid":1015,"duration":220}]},{"id":1037,"animation":[{"tileid":1037,"duration":220},{"tileid":1038,"duration":220},{"tileid":1039,"duration":220},{"tileid":1040,"duration":220}]},{"id":1041,"animation":[{"tileid":1041,"duration":220},{"tileid":1042,"duration":220},{"tileid":1043,"duration":220},{"tileid":1044,"duration":220}]},{"id":1051,"animation":[{"tileid":1051,"duration":220},{"tileid":1052,"duration":220},{"tileid":1053,"duration":220},{"tileid":1054,"duration":220}]},{"id":1055,"animation":[{"tileid":1055,"duration":220},{"tileid":1056,"duration":220},{"tileid":1057,"duration":220},{"tileid":1058,"duration":220}]},{"id":1081,"animation":[{"tileid":1081,"duration":220},{"tileid":1082,"duration":220},{"tileid":1083,"duration":220},{"tileid":1084,"duration":220}]},{"id":1085,"animation":[{"tileid":1085,"duration":220},{"tileid":1086,"duration":220},{"tileid":1087,"duration":220},{"tileid":1088,"duration":220}]},{"id":1089,"animation":[{"tileid":1089,"duration":220},{"tileid":1090,"duration":220},{"tileid":1091,"duration":220},{"tileid":1092,"duration":220}]},{"id":1093,"animation":[{"tileid":1093,"duration":220},{"tileid":1094,"duration":220},{"tileid":1095,"duration":220},{"tileid":1096,"duration":220}]},{"id":1097,"animation":[{"tileid":1097,"duration":220},{"tileid":1098,"duration":220},{"tileid":1099,"duration":220},{"tileid":1100,"duration":220}]},{"id":1101,"animation":[{"tileid":1101,"duration":220},{"tileid":1102,"duration":220},{"tileid":1103,"duration":220},{"tileid":1104,"duration":220}]},{"id":1114,"animation":[{"tileid":1114,"duration":220},{"tileid":1115,"duration":220},{"tileid":1116,"duration":220},{"tileid":1117,"duration":220}]},{"id":1125,"animation":[{"tileid":1125,"duration":220},{"tileid":1126,"duration":220},{"tileid":1127,"duration":220},{"tileid":1128,"duration":220}]},{"id":1144,"animation":[{"tileid":1144,"duration":220},{"tileid":1145,"duration":220},{"tileid":1146,"duration":220},{"tileid":1147,"duration":220}]},{"id":1148,"animation":[{"tileid":1148,"duration":220},{"tileid":1149,"duration":220},{"tileid":1150,"duration":220},{"tileid":1151,"duration":220}]},{"id":1152,"animation":[{"tileid":1152,"duration":220},{"tileid":1153,"duration":220},{"tileid":1154,"duration":220},{"tileid":1155,"duration":220}]},{"id":1156,"animation":[{"tileid":1156,"duration":220},{"tileid":1157,"duration":220},{"tileid":1158,"duration":220},{"tileid":1159,"duration":220}]},{"id":1171,"animation":[{"tileid":1171,"duration":220},{"tileid":1172,"duration":220},{"tileid":1173,"duration":220},{"tileid":1174,"duration":220}]},{"id":1175,"animation":[{"tileid":1175,"duration":220},{"tileid":1176,"duration":220},{"tileid":1177,"duration":220},{"tileid":1178,"duration":220}]},{"id":1179,"animation":[{"tileid":1179,"duration":220},{"tileid":1180,"duration":220},{"tileid":1181,"duration":220},{"tileid":1182,"duration":220}]},{"id":1193,"animation":[{"tileid":1193,"duration":220},{"tileid":1194,"duration":220},{"tileid":1195,"duration":220},{"tileid":1196,"duration":220}]},{"id":1199,"animation":[{"tileid":1199,"duration":220},{"tileid":1200,"duration":220},{"tileid":1201,"duration":220},{"tileid":1202,"duration":220}]},{"id":1220,"animation":[{"tileid":1220,"duration":220},{"tileid":1221,"duration":220},{"tileid":1222,"duration":220},{"tileid":1223,"duration":220}]},{"id":1224,"animation":[{"tileid":1224,"duration":220},{"tileid":1225,"duration":220},{"tileid":1226,"duration":220},{"tileid":1227,"duration":220}]},{"id":1228,"animation":[{"tileid":1228,"duration":220},{"tileid":1229,"duration":220},{"tileid":1230,"duration":220},{"tileid":1231,"duration":220}]},{"id":1232,"animation":[{"tileid":1232,"duration":220},{"tileid":1233,"duration":220},{"tileid":1234,"duration":220},{"tileid":1235,"duration":220}]},{"id":1236,"animation":[{"tileid":1236,"duration":220},{"tileid":1237,"duration":220},{"tileid":1238,"duration":220},{"tileid":1239,"duration":220}]},{"id":1288,"animation":[{"tileid":1288,"duration":220},{"tileid":1289,"duration":220},{"tileid":1290,"duration":220},{"tileid":1291,"duration":220}]},{"id":1296,"animation":[{"tileid":1296,"duration":220},{"tileid":1297,"duration":220},{"tileid":1298,"duration":220},{"tileid":1299,"duration":220}]},{"id":1302,"animation":[{"tileid":1302,"duration":220},{"tileid":1303,"duration":220},{"tileid":1304,"duration":220},{"tileid":1305,"duration":220}]},{"id":1342,"animation":[{"tileid":1342,"duration":220},{"tileid":1343,"duration":220},{"tileid":1344,"duration":220},{"tileid":1345,"duration":220}]},{"id":1593,"animation":[{"tileid":1593,"duration":220},{"tileid":1594,"duration":220},{"tileid":1595,"duration":220},{"tileid":1596,"duration":220}]},{"id":1597,"animation":[{"tileid":1597,"duration":220},{"tileid":1598,"duration":220},{"tileid":1599,"duration":220},{"tileid":1600,"duration":220}]},{"id":1601,"animation":[{"tileid":1601,"duration":220},{"tileid":1602,"duration":220},{"tileid":1603,"duration":220},{"tileid":1604,"duration":220}]},{"id":1605,"animation":[{"tileid":1605,"duration":220},{"tileid":1606,"duration":220},{"tileid":1607,"duration":220},{"tileid":1608,"duration":220}]},{"id":1612,"animation":[{"tileid":1612,"duration":220},{"tileid":1613,"duration":220},{"tileid":1614,"duration":220},{"tileid":1615,"duration":220}]},{"id":1616,"animation":[{"tileid":1616,"duration":220},{"tileid":1617,"duration":220},{"tileid":1618,"duration":220},{"tileid":1619,"duration":220}]},{"id":1620,"animation":[{"tileid":1620,"duration":220},{"tileid":1621,"duration":220},{"tileid":1622,"duration":220},{"tileid":1623,"duration":220}]},{"id":1624,"animation":[{"tileid":1624,"duration":220},{"tileid":1625,"duration":220},{"tileid":1626,"duration":220},{"tileid":1627,"duration":220}]},{"id":1629,"animation":[{"tileid":1629,"duration":220},{"tileid":1630,"duration":220},{"tileid":1631,"duration":220},{"tileid":1632,"duration":220}]},{"id":1633,"animation":[{"tileid":1633,"duration":220},{"tileid":1634,"duration":220},{"tileid":1635,"duration":220},{"tileid":1636,"duration":220}]},{"id":1637,"animation":[{"tileid":1637,"duration":220},{"tileid":1638,"duration":220},{"tileid":1639,"duration":220},{"tileid":1640,"duration":220}]},{"id":1641,"animation":[{"tileid":1641,"duration":220},{"tileid":1642,"duration":220},{"tileid":1643,"duration":220},{"tileid":1644,"duration":220}]},{"id":1645,"animation":[{"tileid":1645,"duration":220},{"tileid":1646,"duration":220},{"tileid":1647,"duration":220},{"tileid":1648,"duration":220}]},{"id":1651,"animation":[{"tileid":1651,"duration":220},{"tileid":1652,"duration":220},{"tileid":1653,"duration":220},{"tileid":1654,"duration":220}]},{"id":1655,"animation":[{"tileid":1655,"duration":220},{"tileid":1656,"duration":220},{"tileid":1657,"duration":220},{"tileid":1658,"duration":220}]},{"id":1661,"animation":[{"tileid":1661,"duration":220},{"tileid":1662,"duration":220},{"tileid":1663,"duration":220},{"tileid":1664,"duration":220},{"tileid":1665,"duration":220},{"tileid":1666,"duration":220},{"tileid":1667,"duration":220},{"tileid":1668,"duration":220}]},{"id":1669,"animation":[{"tileid":1669,"duration":220},{"tileid":1670,"duration":220},{"tileid":1671,"duration":220},{"tileid":1672,"duration":220},{"tileid":1673,"duration":220},{"tileid":1674,"duration":220},{"tileid":1675,"duration":220},{"tileid":1676,"duration":220}]},{"id":1677,"animation":[{"tileid":1677,"duration":220},{"tileid":1678,"duration":220},{"tileid":1679,"duration":220},{"tileid":1680,"duration":220},{"tileid":1681,"duration":220},{"tileid":1682,"duration":220},{"tileid":1683,"duration":220},{"tileid":1684,"duration":220}]},{"id":1685,"animation":[{"tileid":1685,"duration":220},{"tileid":1686,"duration":220},{"tileid":1687,"duration":220},{"tileid":1688,"duration":220},{"tileid":1689,"duration":220},{"tileid":1690,"duration":220},{"tileid":1691,"duration":220},{"tileid":1692,"duration":220}]},{"id":1693,"animation":[{"tileid":1693,"duration":220},{"tileid":1694,"duration":220},{"tileid":1695,"duration":220},{"tileid":1696,"duration":220},{"tileid":1697,"duration":220},{"tileid":1698,"duration":220},{"tileid":1699,"duration":220},{"tileid":1700,"duration":220}]},{"id":1701,"animation":[{"tileid":1701,"duration":220},{"tileid":1702,"duration":220},{"tileid":1703,"duration":220},{"tileid":1704,"duration":220},{"tileid":1705,"duration":220},{"tileid":1706,"duration":220},{"tileid":1707,"duration":220},{"tileid":1708,"duration":220}]},{"id":1709,"animation":[{"tileid":1709,"duration":220},{"tileid":1710,"duration":220},{"tileid":1711,"duration":220},{"tileid":1712,"duration":220},{"tileid":1713,"duration":220},{"tileid":1714,"duration":220},{"tileid":1715,"duration":220},{"tileid":1716,"duration":220}]},{"id":1717,"animation":[{"tileid":1717,"duration":220},{"tileid":1718,"duration":220},{"tileid":1719,"duration":220},{"tileid":1720,"duration":220},{"tileid":1721,"duration":220},{"tileid":1722,"duration":220},{"tileid":1723,"duration":220},{"tileid":1724,"duration":220}]},{"id":1725,"animation":[{"tileid":1725,"duration":220},{"tileid":1726,"duration":220},{"tileid":1727,"duration":220},{"tileid":1728,"duration":220},{"tileid":1729,"duration":220},{"tileid":1730,"duration":220},{"tileid":1731,"duration":220},{"tileid":1732,"duration":220}]},{"id":1733,"animation":[{"tileid":1733,"duration":220},{"tileid":1734,"duration":220},{"tileid":1735,"duration":220},{"tileid":1736,"duration":220},{"tileid":1737,"duration":220},{"tileid":1738,"duration":220},{"tileid":1739,"duration":220},{"tileid":1740,"duration":220}]},{"id":1741,"animation":[{"tileid":1741,"duration":220},{"tileid":1742,"duration":220},{"tileid":1743,"duration":220},{"tileid":1744,"duration":220},{"tileid":1745,"duration":220},{"tileid":1746,"duration":220},{"tileid":1747,"duration":220},{"tileid":1748,"duration":220}]},{"id":1749,"animation":[{"tileid":1749,"duration":220},{"tileid":1750,"duration":220},{"tileid":1751,"duration":220},{"tileid":1752,"duration":220},{"tileid":1753,"duration":220},{"tileid":1754,"duration":220},{"tileid":1755,"duration":220},{"tileid":1756,"duration":220}]},{"id":1757,"animation":[{"tileid":1757,"duration":220},{"tileid":1758,"duration":220},{"tileid":1759,"duration":220},{"tileid":1760,"duration":220},{"tileid":1761,"duration":220},{"tileid":1762,"duration":220},{"tileid":1763,"duration":220},{"tileid":1764,"duration":220}]},{"id":1765,"animation":[{"tileid":1765,"duration":220},{"tileid":1766,"duration":220},{"tileid":1767,"duration":220},{"tileid":1768,"duration":220},{"tileid":1769,"duration":220},{"tileid":1770,"duration":220},{"tileid":1771,"duration":220},{"tileid":1772,"duration":220}]},{"id":1773,"animation":[{"tileid":1773,"duration":220},{"tileid":1774,"duration":220},{"tileid":1775,"duration":220},{"tileid":1776,"duration":220},{"tileid":1777,"duration":220},{"tileid":1778,"duration":220},{"tileid":1779,"duration":220},{"tileid":1780,"duration":220}]},{"id":1781,"animation":[{"tileid":1781,"duration":220},{"tileid":1782,"duration":220},{"tileid":1783,"duration":220},{"tileid":1784,"duration":220},{"tileid":1785,"duration":220},{"tileid":1786,"duration":220},{"tileid":1787,"duration":220},{"tileid":1788,"duration":220}]},{"id":1790,"animation":[{"tileid":1790,"duration":220},{"tileid":1791,"duration":220},{"tileid":1792,"duration":220},{"tileid":1793,"duration":220},{"tileid":1794,"duration":220},{"tileid":1795,"duration":220},{"tileid":1796,"duration":220},{"tileid":1797,"duration":220}]},{"id":1798,"animation":[{"tileid":1798,"duration":220},{"tileid":1799,"duration":220},{"tileid":1800,"duration":220},{"tileid":1801,"duration":220},{"tileid":1802,"duration":220},{"tileid":1803,"duration":220},{"tileid":1804,"duration":220},{"tileid":1805,"duration":220}]},{"id":1806,"animation":[{"tileid":1806,"duration":220},{"tileid":1807,"duration":220},{"tileid":1808,"duration":220},{"tileid":1809,"duration":220},{"tileid":1810,"duration":220},{"tileid":1811,"duration":220},{"tileid":1812,"duration":220},{"tileid":1813,"duration":220}]},{"id":1814,"animation":[{"tileid":1814,"duration":220},{"tileid":1815,"duration":220},{"tileid":1816,"duration":220},{"tileid":1817,"duration":220},{"tileid":1818,"duration":220},{"tileid":1819,"duration":220},{"tileid":1820,"duration":220},{"tileid":1821,"duration":220}]},{"id":1822,"animation":[{"tileid":1822,"duration":220},{"tileid":1823,"duration":220},{"tileid":1824,"duration":220},{"tileid":1825,"duration":220},{"tileid":1826,"duration":220},{"tileid":1827,"duration":220},{"tileid":1828,"duration":220},{"tileid":1829,"duration":220}]},{"id":1830,"animation":[{"tileid":1830,"duration":220},{"tileid":1831,"duration":220},{"tileid":1832,"duration":220},{"tileid":1833,"duration":220},{"tileid":1834,"duration":220},{"tileid":1835,"duration":220},{"tileid":1836,"duration":220},{"tileid":1837,"duration":220}]},{"id":1838,"animation":[{"tileid":1838,"duration":220},{"tileid":1839,"duration":220},{"tileid":1840,"duration":220},{"tileid":1841,"duration":220},{"tileid":1842,"duration":220},{"tileid":1843,"duration":220},{"tileid":1844,"duration":220},{"tileid":1845,"duration":220}]},{"id":1846,"animation":[{"tileid":1846,"duration":220},{"tileid":1847,"duration":220},{"tileid":1848,"duration":220},{"tileid":1849,"duration":220},{"tileid":1850,"duration":220},{"tileid":1851,"duration":220},{"tileid":1852,"duration":220},{"tileid":1853,"duration":220}]},{"id":1873,"animation":[{"tileid":1873,"duration":220},{"tileid":1874,"duration":220},{"tileid":1875,"duration":220},{"tileid":1876,"duration":220}]},{"id":1877,"animation":[{"tileid":1877,"duration":220},{"tileid":1878,"duration":220},{"tileid":1879,"duration":220},{"tileid":1880,"duration":220}]},{"id":1884,"animation":[{"tileid":1884,"duration":220},{"tileid":1885,"duration":220},{"tileid":1886,"duration":220},{"tileid":1887,"duration":220}]},{"id":1888,"animation":[{"tileid":1888,"duration":220},{"tileid":1889,"duration":220},{"tileid":1890,"duration":220},{"tileid":1891,"duration":220}]},{"id":1892,"animation":[{"tileid":1892,"duration":220},{"tileid":1893,"duration":220},{"tileid":1894,"duration":220},{"tileid":1895,"duration":220}]},{"id":1896,"animation":[{"tileid":1896,"duration":220},{"tileid":1897,"duration":220},{"tileid":1898,"duration":220},{"tileid":1899,"duration":220}]},{"id":1901,"animation":[{"tileid":1901,"duration":220},{"tileid":1902,"duration":220},{"tileid":1903,"duration":220},{"tileid":1904,"duration":220}]},{"id":1905,"animation":[{"tileid":1905,"duration":220},{"tileid":1906,"duration":220},{"tileid":1907,"duration":220},{"tileid":1908,"duration":220}]},{"id":1909,"animation":[{"tileid":1909,"duration":220},{"tileid":1910,"duration":220},{"tileid":1911,"duration":220},{"tileid":1912,"duration":220}]},{"id":1915,"animation":[{"tileid":1915,"duration":220},{"tileid":1916,"duration":220},{"tileid":1917,"duration":220},{"tileid":1918,"duration":220}]},{"id":1919,"animation":[{"tileid":1919,"duration":220},{"tileid":1920,"duration":220},{"tileid":1921,"duration":220},{"tileid":1922,"duration":220}]},{"id":1929,"animation":[{"tileid":1929,"duration":220},{"tileid":1930,"duration":220},{"tileid":1931,"duration":220},{"tileid":1932,"duration":220}]},{"id":1935,"animation":[{"tileid":1935,"duration":220},{"tileid":1936,"duration":220},{"tileid":1937,"duration":220},{"tileid":1938,"duration":220}]},{"id":1941,"animation":[{"tileid":1941,"duration":220},{"tileid":1942,"duration":220},{"tileid":1943,"duration":220},{"tileid":1944,"duration":220}]},{"id":1946,"animation":[{"tileid":1946,"duration":220},{"tileid":1947,"duration":220},{"tileid":1948,"duration":220},{"tileid":1949,"duration":220}]},{"id":1950,"animation":[{"tileid":1950,"duration":220},{"tileid":1951,"duration":220},{"tileid":1952,"duration":220},{"tileid":1953,"duration":220}]},{"id":1956,"animation":[{"tileid":1956,"duration":220},{"tileid":1957,"duration":220},{"tileid":1958,"duration":220},{"tileid":1959,"duration":220}]},{"id":1961,"animation":[{"tileid":1961,"duration":220},{"tileid":1962,"duration":220},{"tileid":1963,"duration":220},{"tileid":1964,"duration":220}]},{"id":1965,"animation":[{"tileid":1965,"duration":220},{"tileid":1966,"duration":220},{"tileid":1967,"duration":220},{"tileid":1968,"duration":220}]},{"id":1969,"animation":[{"tileid":1969,"duration":220},{"tileid":1970,"duration":220},{"tileid":1971,"duration":220},{"tileid":1972,"duration":220}]},{"id":1974,"animation":[{"tileid":1974,"duration":220},{"tileid":1975,"duration":220},{"tileid":1976,"duration":220},{"tileid":1977,"duration":220}]},{"id":1978,"animation":[{"tileid":1978,"duration":220},{"tileid":1979,"duration":220},{"tileid":1980,"duration":220},{"tileid":1981,"duration":220}]},{"id":1982,"animation":[{"tileid":1982,"duration":220},{"tileid":1983,"duration":220},{"tileid":1984,"duration":220},{"tileid":1985,"duration":220}]},{"id":1986,"animation":[{"tileid":1986,"duration":220},{"tileid":1987,"duration":220},{"tileid":1988,"duration":220},{"tileid":1989,"duration":220}]},{"id":1990,"animation":[{"tileid":1990,"duration":220},{"tileid":1991,"duration":220},{"tileid":1992,"duration":220},{"tileid":1993,"duration":220}]},{"id":1994,"animation":[{"tileid":1994,"duration":220},{"tileid":1995,"duration":220},{"tileid":1996,"duration":220},{"tileid":1997,"duration":220}]},{"id":1999,"animation":[{"tileid":1999,"duration":220},{"tileid":2000,"duration":220},{"tileid":2001,"duration":220},{"tileid":2002,"duration":220}]},{"id":2028,"animation":[{"tileid":2028,"duration":220},{"tileid":2029,"duration":220},{"tileid":2030,"duration":220},{"tileid":2031,"duration":220}]},{"id":2032,"animation":[{"tileid":2032,"duration":220},{"tileid":2033,"duration":220},{"tileid":2034,"duration":220},{"tileid":2035,"duration":220}]},{"id":2036,"animation":[{"tileid":2036,"duration":220},{"tileid":2037,"duration":220},{"tileid":2038,"duration":220},{"tileid":2039,"duration":220}]},{"id":2040,"animation":[{"tileid":2040,"duration":220},{"tileid":2041,"duration":220},{"tileid":2042,"duration":220},{"tileid":2043,"duration":220}]},{"id":2044,"animation":[{"tileid":2044,"duration":220},{"tileid":2045,"duration":220},{"tileid":2046,"duration":220},{"tileid":2047,"duration":220}]},{"id":2048,"animation":[{"tileid":2048,"duration":220},{"tileid":2049,"duration":220},{"tileid":2050,"duration":220},{"tileid":2051,"duration":220}]},{"id":2052,"animation":[{"tileid":2052,"duration":220},{"tileid":2053,"duration":220},{"tileid":2054,"duration":220},{"tileid":2055,"duration":220}]},{"id":2056,"animation":[{"tileid":2056,"duration":220},{"tileid":2057,"duration":220},{"tileid":2058,"duration":220},{"tileid":2059,"duration":220}]},{"id":2060,"animation":[{"tileid":2060,"duration":220},{"tileid":2061,"duration":220},{"tileid":2062,"duration":220},{"tileid":2063,"duration":220}]},{"id":2064,"animation":[{"tileid":2064,"duration":220},{"tileid":2065,"duration":220},{"tileid":2066,"duration":220},{"tileid":2067,"duration":220}]},{"id":2068,"animation":[{"tileid":2068,"duration":220},{"tileid":2069,"duration":220},{"tileid":2070,"duration":220},{"tileid":2071,"duration":220}]},{"id":2072,"animation":[{"tileid":2072,"duration":220},{"tileid":2073,"duration":220},{"tileid":2074,"duration":220},{"tileid":2075,"duration":220}]},{"id":2076,"animation":[{"tileid":2076,"duration":220},{"tileid":2077,"duration":220},{"tileid":2078,"duration":220},{"tileid":2079,"duration":220}]},{"id":2080,"animation":[{"tileid":2080,"duration":220},{"tileid":2081,"duration":220},{"tileid":2082,"duration":220},{"tileid":2083,"duration":220}]},{"id":2084,"animation":[{"tileid":2084,"duration":220},{"tileid":2085,"duration":220},{"tileid":2086,"duration":220},{"tileid":2087,"duration":220}]},{"id":2088,"animation":[{"tileid":2088,"duration":220},{"tileid":2089,"duration":220},{"tileid":2090,"duration":220},{"tileid":2091,"duration":220}]},{"id":2093,"animation":[{"tileid":2093,"duration":220},{"tileid":2094,"duration":220},{"tileid":2095,"duration":220},{"tileid":2096,"duration":220}]},{"id":2097,"animation":[{"tileid":2097,"duration":220},{"tileid":2098,"duration":220},{"tileid":2099,"duration":220},{"tileid":2100,"duration":220}]},{"id":2101,"animation":[{"tileid":2101,"duration":220},{"tileid":2102,"duration":220},{"tileid":2103,"duration":220},{"tileid":2104,"duration":220}]},{"id":2105,"animation":[{"tileid":2105,"duration":220},{"tileid":2106,"duration":220},{"tileid":2107,"duration":220},{"tileid":2108,"duration":220}]},{"id":2111,"animation":[{"tileid":2111,"duration":220},{"tileid":2112,"duration":220},{"tileid":2113,"duration":220},{"tileid":2114,"duration":220}]},{"id":2115,"animation":[{"tileid":2115,"duration":220},{"tileid":2116,"duration":220},{"tileid":2117,"duration":220},{"tileid":2118,"duration":220}]},{"id":2119,"animation":[{"tileid":2119,"duration":220},{"tileid":2120,"duration":220},{"tileid":2121,"duration":220},{"tileid":2122,"duration":220}]},{"id":2123,"animation":[{"tileid":2123,"duration":220},{"tileid":2124,"duration":220},{"tileid":2125,"duration":220},{"tileid":2126,"duration":220}]},{"id":2127,"animation":[{"tileid":2127,"duration":220},{"tileid":2128,"duration":220},{"tileid":2129,"duration":220},{"tileid":2130,"duration":220}]},{"id":2133,"animation":[{"tileid":2133,"duration":220},{"tileid":2134,"duration":220},{"tileid":2135,"duration":220},{"tileid":2136,"duration":220}]},{"id":2137,"animation":[{"tileid":2137,"duration":220},{"tileid":2138,"duration":220},{"tileid":2139,"duration":220},{"tileid":2140,"duration":220}]},{"id":2207,"animation":[{"tileid":2207,"duration":220},{"tileid":2208,"duration":220},{"tileid":2209,"duration":220},{"tileid":2210,"duration":220},{"tileid":2211,"duration":220},{"tileid":2212,"duration":220},{"tileid":2213,"duration":220},{"tileid":2214,"duration":220}]},{"id":2215,"animation":[{"tileid":2215,"duration":220},{"tileid":2216,"duration":220},{"tileid":2217,"duration":220},{"tileid":2218,"duration":220},{"tileid":2219,"duration":220},{"tileid":2220,"duration":220},{"tileid":2221,"duration":220},{"tileid":2222,"duration":220}]},{"id":2223,"animation":[{"tileid":2223,"duration":220},{"tileid":2224,"duration":220},{"tileid":2225,"duration":220},{"tileid":2226,"duration":220},{"tileid":2227,"duration":220},{"tileid":2228,"duration":220},{"tileid":2229,"duration":220},{"tileid":2230,"duration":220}]},{"id":2231,"animation":[{"tileid":2231,"duration":220},{"tileid":2232,"duration":220},{"tileid":2233,"duration":220},{"tileid":2234,"duration":220},{"tileid":2235,"duration":220},{"tileid":2236,"duration":220},{"tileid":2237,"duration":220},{"tileid":2238,"duration":220}]},{"id":2239,"animation":[{"tileid":2239,"duration":220},{"tileid":2240,"duration":220},{"tileid":2241,"duration":220},{"tileid":2242,"duration":220},{"tileid":2243,"duration":220},{"tileid":2244,"duration":220},{"tileid":2245,"duration":220},{"tileid":2246,"duration":220}]},{"id":2247,"animation":[{"tileid":2247,"duration":220},{"tileid":2248,"duration":220},{"tileid":2249,"duration":220},{"tileid":2250,"duration":220},{"tileid":2251,"duration":220},{"tileid":2252,"duration":220},{"tileid":2253,"duration":220},{"tileid":2254,"duration":220}]},{"id":2255,"animation":[{"tileid":2255,"duration":220},{"tileid":2256,"duration":220},{"tileid":2257,"duration":220},{"tileid":2258,"duration":220},{"tileid":2259,"duration":220},{"tileid":2260,"duration":220},{"tileid":2261,"duration":220},{"tileid":2262,"duration":220}]},{"id":2263,"animation":[{"tileid":2263,"duration":220},{"tileid":2264,"duration":220},{"tileid":2265,"duration":220},{"tileid":2266,"duration":220},{"tileid":2267,"duration":220},{"tileid":2268,"duration":220},{"tileid":2269,"duration":220},{"tileid":2270,"duration":220}]},{"id":2275,"animation":[{"tileid":2275,"duration":220},{"tileid":2276,"duration":220},{"tileid":2277,"duration":220},{"tileid":2278,"duration":220}]},{"id":2279,"animation":[{"tileid":2279,"duration":220},{"tileid":2280,"duration":220},{"tileid":2281,"duration":220},{"tileid":2282,"duration":220}]},{"id":2285,"animation":[{"tileid":2285,"duration":220},{"tileid":2286,"duration":220},{"tileid":2287,"duration":220},{"tileid":2288,"duration":220}]},{"id":2289,"animation":[{"tileid":2289,"duration":220},{"tileid":2290,"duration":220},{"tileid":2291,"duration":220},{"tileid":2292,"duration":220}]},{"id":2293,"animation":[{"tileid":2293,"duration":220},{"tileid":2294,"duration":220},{"tileid":2295,"duration":220},{"tileid":2296,"duration":220}]},{"id":2297,"animation":[{"tileid":2297,"duration":220},{"tileid":2298,"duration":220},{"tileid":2299,"duration":220},{"tileid":2300,"duration":220}]},{"id":2303,"animation":[{"tileid":2303,"duration":220},{"tileid":2304,"duration":220},{"tileid":2305,"duration":220},{"tileid":2306,"duration":220}]},{"id":2307,"animation":[{"tileid":2307,"duration":220},{"tileid":2308,"duration":220},{"tileid":2309,"duration":220},{"tileid":2310,"duration":220}]},{"id":2414,"animation":[{"tileid":2414,"duration":220},{"tileid":2415,"duration":220},{"tileid":2416,"duration":220},{"tileid":2417,"duration":220}]},{"id":2418,"animation":[{"tileid":2418,"duration":220},{"tileid":2419,"duration":220},{"tileid":2420,"duration":220},{"tileid":2421,"duration":220}]},{"id":2422,"animation":[{"tileid":2422,"duration":220},{"tileid":2423,"duration":220},{"tileid":2424,"duration":220},{"tileid":2425,"duration":220}]},{"id":2426,"animation":[{"tileid":2426,"duration":220},{"tileid":2427,"duration":220},{"tileid":2428,"duration":220},{"tileid":2429,"duration":220}]},{"id":2430,"animation":[{"tileid":2430,"duration":220},{"tileid":2431,"duration":220},{"tileid":2432,"duration":220},{"tileid":2433,"duration":220}]},{"id":2434,"animation":[{"tileid":2434,"duration":220},{"tileid":2435,"duration":220},{"tileid":2436,"duration":220},{"tileid":2437,"duration":220}]},{"id":2438,"animation":[{"tileid":2438,"duration":220},{"tileid":2439,"duration":220},{"tileid":2440,"duration":220},{"tileid":2441,"duration":220}]},{"id":2442,"animation":[{"tileid":2442,"duration":220},{"tileid":2443,"duration":220},{"tileid":2444,"duration":220},{"tileid":2445,"duration":220}]},{"id":2446,"animation":[{"tileid":2446,"duration":220},{"tileid":2447,"duration":220},{"tileid":2448,"duration":220},{"tileid":2449,"duration":220}]},{"id":2453,"animation":[{"tileid":2453,"duration":220},{"tileid":2454,"duration":220},{"tileid":2455,"duration":220},{"tileid":2456,"duration":220}]},{"id":2457,"animation":[{"tileid":2457,"duration":220},{"tileid":2458,"duration":220},{"tileid":2459,"duration":220},{"tileid":2460,"duration":220}]},{"id":2461,"animation":[{"tileid":2461,"duration":220},{"tileid":2462,"duration":220},{"tileid":2463,"duration":220},{"tileid":2464,"duration":220}]},{"id":2468,"animation":[{"tileid":2468,"duration":220},{"tileid":2469,"duration":220},{"tileid":2470,"duration":220},{"tileid":2471,"duration":220}]},{"id":2472,"animation":[{"tileid":2472,"duration":220},{"tileid":2473,"duration":220},{"tileid":2474,"duration":220},{"tileid":2475,"duration":220}]},{"id":2477,"animation":[{"tileid":2477,"duration":220},{"tileid":2478,"duration":220},{"tileid":2479,"duration":220},{"tileid":2480,"duration":220}]},{"id":2481,"animation":[{"tileid":2481,"duration":220},{"tileid":2482,"duration":220},{"tileid":2483,"duration":220},{"tileid":2484,"duration":220}]},{"id":2488,"animation":[{"tileid":2488,"duration":220},{"tileid":2489,"duration":220},{"tileid":2490,"duration":220},{"tileid":2491,"duration":220}]},{"id":2492,"animation":[{"tileid":2492,"duration":220},{"tileid":2493,"duration":220},{"tileid":2494,"duration":220},{"tileid":2495,"duration":220}]},{"id":2496,"animation":[{"tileid":2496,"duration":220},{"tileid":2497,"duration":220},{"tileid":2498,"duration":220},{"tileid":2499,"duration":220}]},{"id":2503,"animation":[{"tileid":2503,"duration":220},{"tileid":2504,"duration":220},{"tileid":2505,"duration":220},{"tileid":2506,"duration":220}]},{"id":2526,"animation":[{"tileid":2526,"duration":220},{"tileid":2527,"duration":220},{"tileid":2528,"duration":220},{"tileid":2529,"duration":220}]},{"id":2530,"animation":[{"tileid":2530,"duration":220},{"tileid":2531,"duration":220},{"tileid":2532,"duration":220},{"tileid":2533,"duration":220}]},{"id":2534,"animation":[{"tileid":2534,"duration":220},{"tileid":2535,"duration":220},{"tileid":2536,"duration":220},{"tileid":2537,"duration":220}]},{"id":2538,"animation":[{"tileid":2538,"duration":220},{"tileid":2539,"duration":220},{"tileid":2540,"duration":220},{"tileid":2541,"duration":220}]},{"id":2542,"animation":[{"tileid":2542,"duration":220},{"tileid":2543,"duration":220},{"tileid":2544,"duration":220},{"tileid":2545,"duration":220}]},{"id":2551,"animation":[{"tileid":2551,"duration":220},{"tileid":2552,"duration":220},{"tileid":2553,"duration":220},{"tileid":2554,"duration":220}]},{"id":2555,"animation":[{"tileid":2555,"duration":220},{"tileid":2556,"duration":220},{"tileid":2557,"duration":220},{"tileid":2558,"duration":220}]},{"id":2559,"animation":[{"tileid":2559,"duration":220},{"tileid":2560,"duration":220},{"tileid":2561,"duration":220},{"tileid":2562,"duration":220}]},{"id":2567,"animation":[{"tileid":2567,"duration":220},{"tileid":2568,"duration":220},{"tileid":2569,"duration":220},{"tileid":2570,"duration":220}]},{"id":2573,"animation":[{"tileid":2573,"duration":220},{"tileid":2574,"duration":220},{"tileid":2575,"duration":220},{"tileid":2576,"duration":220}]},{"id":2581,"animation":[{"tileid":2581,"duration":220},{"tileid":2582,"duration":220},{"tileid":2583,"duration":220},{"tileid":2584,"duration":220}]},{"id":2585,"animation":[{"tileid":2585,"duration":220},{"tileid":2586,"duration":220},{"tileid":2587,"duration":220},{"tileid":2588,"duration":220}]},{"id":2807,"animation":[{"tileid":2807,"duration":220},{"tileid":2808,"duration":220},{"tileid":2809,"duration":220},{"tileid":2810,"duration":220}]},{"id":2811,"animation":[{"tileid":2811,"duration":220},{"tileid":2812,"duration":220},{"tileid":2813,"duration":220},{"tileid":2814,"duration":220}]},{"id":2815,"animation":[{"tileid":2815,"duration":220},{"tileid":2816,"duration":220},{"tileid":2817,"duration":220},{"tileid":2818,"duration":220}]},{"id":2819,"animation":[{"tileid":2819,"duration":220},{"tileid":2820,"duration":220},{"tileid":2821,"duration":220},{"tileid":2822,"duration":220}]},{"id":2823,"animation":[{"tileid":2823,"duration":220},{"tileid":2824,"duration":220},{"tileid":2825,"duration":220},{"tileid":2826,"duration":220}]},{"id":2829,"animation":[{"tileid":2829,"duration":220},{"tileid":2830,"duration":220},{"tileid":2831,"duration":220},{"tileid":2832,"duration":220}]},{"id":2833,"animation":[{"tileid":2833,"duration":220},{"tileid":2834,"duration":220},{"tileid":2835,"duration":220},{"tileid":2836,"duration":220}]},{"id":2839,"animation":[{"tileid":2839,"duration":220},{"tileid":2840,"duration":220},{"tileid":2841,"duration":220},{"tileid":2842,"duration":220}]},{"id":2843,"animation":[{"tileid":2843,"duration":220},{"tileid":2844,"duration":220},{"tileid":2845,"duration":220},{"tileid":2846,"duration":220}]},{"id":2847,"animation":[{"tileid":2847,"duration":220},{"tileid":2848,"duration":220},{"tileid":2849,"duration":220},{"tileid":2850,"duration":220}]},{"id":2851,"animation":[{"tileid":2851,"duration":220},{"tileid":2852,"duration":220},{"tileid":2853,"duration":220},{"tileid":2854,"duration":220}]},{"id":2855,"animation":[{"tileid":2855,"duration":220},{"tileid":2856,"duration":220},{"tileid":2857,"duration":220},{"tileid":2858,"duration":220}]},{"id":2859,"animation":[{"tileid":2859,"duration":220},{"tileid":2860,"duration":220},{"tileid":2861,"duration":220},{"tileid":2862,"duration":220}]},{"id":2863,"animation":[{"tileid":2863,"duration":220},{"tileid":2864,"duration":220},{"tileid":2865,"duration":220},{"tileid":2866,"duration":220}]},{"id":2867,"animation":[{"tileid":2867,"duration":220},{"tileid":2868,"duration":220},{"tileid":2869,"duration":220},{"tileid":2870,"duration":220}]},{"id":2874,"animation":[{"tileid":2874,"duration":220},{"tileid":2875,"duration":220},{"tileid":2876,"duration":220},{"tileid":2877,"duration":220}]},{"id":2883,"animation":[{"tileid":2883,"duration":220},{"tileid":2884,"duration":220},{"tileid":2885,"duration":220},{"tileid":2886,"duration":220}]},{"id":2887,"animation":[{"tileid":2887,"duration":220},{"tileid":2888,"duration":220},{"tileid":2889,"duration":220},{"tileid":2890,"duration":220}]},{"id":2891,"animation":[{"tileid":2891,"duration":220},{"tileid":2892,"duration":220},{"tileid":2893,"duration":220},{"tileid":2894,"duration":220}]},{"id":2895,"animation":[{"tileid":2895,"duration":220},{"tileid":2896,"duration":220},{"tileid":2897,"duration":220},{"tileid":2898,"duration":220}]},{"id":2899,"animation":[{"tileid":2899,"duration":220},{"tileid":2900,"duration":220},{"tileid":2901,"duration":220},{"tileid":2902,"duration":220}]},{"id":2903,"animation":[{"tileid":2903,"duration":220},{"tileid":2904,"duration":220},{"tileid":2905,"duration":220},{"tileid":2906,"duration":220}]},{"id":2907,"animation":[{"tileid":2907,"duration":220},{"tileid":2908,"duration":220},{"tileid":2909,"duration":220},{"tileid":2910,"duration":220}]},{"id":2911,"animation":[{"tileid":2911,"duration":220},{"tileid":2912,"duration":220},{"tileid":2913,"duration":220},{"tileid":2914,"duration":220}]},{"id":2915,"animation":[{"tileid":2915,"duration":220},{"tileid":2916,"duration":220},{"tileid":2917,"duration":220},{"tileid":2918,"duration":220}]},{"id":2919,"animation":[{"tileid":2919,"duration":220},{"tileid":2920,"duration":220},{"tileid":2921,"duration":220},{"tileid":2922,"duration":220}]},{"id":2923,"animation":[{"tileid":2923,"duration":220},{"tileid":2924,"duration":220},{"tileid":2925,"duration":220},{"tileid":2926,"duration":220}]},{"id":2927,"animation":[{"tileid":2927,"duration":220},{"tileid":2928,"duration":220},{"tileid":2929,"duration":220},{"tileid":2930,"duration":220}]},{"id":2931,"animation":[{"tileid":2931,"duration":220},{"tileid":2932,"duration":220},{"tileid":2933,"duration":220},{"tileid":2934,"duration":220}]},{"id":2935,"animation":[{"tileid":2935,"duration":220},{"tileid":2936,"duration":220},{"tileid":2937,"duration":220},{"tileid":2938,"duration":220}]},{"id":2939,"animation":[{"tileid":2939,"duration":220},{"tileid":2940,"duration":220},{"tileid":2941,"duration":220},{"tileid":2942,"duration":220}]},{"id":2943,"animation":[{"tileid":2943,"duration":220},{"tileid":2944,"duration":220},{"tileid":2945,"duration":220},{"tileid":2946,"duration":220}]},{"id":2947,"animation":[{"tileid":2947,"duration":220},{"tileid":2948,"duration":220},{"tileid":2949,"duration":220},{"tileid":2950,"duration":220}]},{"id":2951,"animation":[{"tileid":2951,"duration":220},{"tileid":2952,"duration":220},{"tileid":2953,"duration":220},{"tileid":2954,"duration":220}]},{"id":2955,"animation":[{"tileid":2955,"duration":220},{"tileid":2956,"duration":220},{"tileid":2957,"duration":220},{"tileid":2958,"duration":220}]},{"id":2959,"animation":[{"tileid":2959,"duration":220},{"tileid":2960,"duration":220},{"tileid":2961,"duration":220},{"tileid":2962,"duration":220}]},{"id":2963,"animation":[{"tileid":2963,"duration":220},{"tileid":2964,"duration":220},{"tileid":2965,"duration":220},{"tileid":2966,"duration":220}]},{"id":2967,"animation":[{"tileid":2967,"duration":220},{"tileid":2968,"duration":220},{"tileid":2969,"duration":220},{"tileid":2970,"duration":220}]},{"id":2971,"animation":[{"tileid":2971,"duration":220},{"tileid":2972,"duration":220},{"tileid":2973,"duration":220},{"tileid":2974,"duration":220}]},{"id":2975,"animation":[{"tileid":2975,"duration":220},{"tileid":2976,"duration":220},{"tileid":2977,"duration":220},{"tileid":2978,"duration":220}]},{"id":2979,"animation":[{"tileid":2979,"duration":220},{"tileid":2980,"duration":220},{"tileid":2981,"duration":220},{"tileid":2982,"duration":220}]},{"id":2983,"animation":[{"tileid":2983,"duration":220},{"tileid":2984,"duration":220},{"tileid":2985,"duration":220},{"tileid":2986,"duration":220}]},{"id":2989,"animation":[{"tileid":2989,"duration":220},{"tileid":2990,"duration":220},{"tileid":2991,"duration":220},{"tileid":2992,"duration":220}]},{"id":2994,"animation":[{"tileid":2994,"duration":220},{"tileid":2995,"duration":220},{"tileid":2996,"duration":220},{"tileid":2997,"duration":220}]},{"id":2998,"animation":[{"tileid":2998,"duration":220},{"tileid":2999,"duration":220},{"tileid":3000,"duration":220},{"tileid":3001,"duration":220}]},{"id":3003,"animation":[{"tileid":3003,"duration":220},{"tileid":3004,"duration":220},{"tileid":3005,"duration":220},{"tileid":3006,"duration":220}]},{"id":3007,"animation":[{"tileid":3007,"duration":220},{"tileid":3008,"duration":220},{"tileid":3009,"duration":220},{"tileid":3010,"duration":220}]},{"id":3011,"animation":[{"tileid":3011,"duration":220},{"tileid":3012,"duration":220},{"tileid":3013,"duration":220},{"tileid":3014,"duration":220}]},{"id":3015,"animation":[{"tileid":3015,"duration":220},{"tileid":3016,"duration":220},{"tileid":3017,"duration":220},{"tileid":3018,"duration":220}]},{"id":3019,"animation":[{"tileid":3019,"duration":220},{"tileid":3020,"duration":220},{"tileid":3021,"duration":220},{"tileid":3022,"duration":220}]},{"id":3023,"animation":[{"tileid":3023,"duration":220},{"tileid":3024,"duration":220},{"tileid":3025,"duration":220},{"tileid":3026,"duration":220}]},{"id":3027,"animation":[{"tileid":3027,"duration":220},{"tileid":3028,"duration":220},{"tileid":3029,"duration":220},{"tileid":3030,"duration":220}]},{"id":3031,"animation":[{"tileid":3031,"duration":220},{"tileid":3032,"duration":220},{"tileid":3033,"duration":220},{"tileid":3034,"duration":220}]},{"id":3035,"animation":[{"tileid":3035,"duration":220},{"tileid":3036,"duration":220},{"tileid":3037,"duration":220},{"tileid":3038,"duration":220}]},{"id":3039,"animation":[{"tileid":3039,"duration":220},{"tileid":3040,"duration":220},{"tileid":3041,"duration":220},{"tileid":3042,"duration":220}]}]},{"firstgid":3102,"name":"meta","image":"../tilesets/meta.png","imagewidth":176,"imageheight":16,"tilewidth":16,"tileheight":16,"tilecount":11,"columns":11,"margin":0,"spacing":0,"tiles":[{"id":0,"properties":[{"name":"behavior","type":"string","value":"none"}]},{"id":1,"properties":[{"name":"behavior","type":"string","value":"solid"}]},{"id":2,"properties":[{"name":"behavior","type":"string","value":"water"}]},{"id":3,"properties":[{"name":"behavior","type":"string","value":"grass"}]},{"id":4,"properties":[{"name":"behavior","type":"string","value":"ledge_down"}]},{"id":5,"properties":[{"name":"behavior","type":"string","value":"ledge_left"}]},{"id":6,"properties":[{"name":"behavior","type":"string","value":"ledge_right"}]},{"id":7,"properties":[{"name":"behavior","type":"string","value":"counter"}]},{"id":8,"properties":[{"name":"behavior","type":"string","value":"door"}]},{"id":9,"properties":[{"name":"behavior","type":"string","value":"bridge"}]},{"id":10,"properties":[{"name":"behavior","type":"string","value":"noenc"}]}]}]}