{"type":"map","version":"1.10","tiledversion":"1.10.2","orientation":"orthogonal","renderorder":"right-down","width":48,"height":38,"tilewidth":16,"tileheight":16,"infinite":false,"nextlayerid":6,"nextobjectid":72,"properties":[{"name":"kind","type":"string","value":"town"},{"name":"name","type":"string","value":"Riftgate"},{"name":"base","type":"string","value":"ash"},{"name":"music","type":"string","value":"riftgate"},{"name":"battle","type":"string","value":"rift"},{"name":"west","type":"string","value":"route6 -4"},{"name":"fly","type":"string","value":"11,10"}],"layers":[{"id":1,"name":"ground","type":"tilelayer","width":48,"height":38,"x":0,"y":0,"opacity":1,"visible":true,"data":[1258,1258,1261,1258,1261,1261,1262,1263,1261,1263,1262,1258,1262,1262,1262,1261,1261,1263,1263,1258,1261,1261,1258,1263,1262,1261,1258,1262,1261,1261,1258,1262,1262,1262,1262,1258,1258,1261,1264,47,47,67,67,67,51,67,67,51,1263,1261,1262,1258,1261,1262,1261,1261,1262,1261,1262,1262,1263,1258,1263,1263,1263,1263,1262,1258,1258,1261,1262,1262,1262,1258,1261,1258,1262,1262,1262,1263,1262,1263,1258,1262,1258,1263,1272,51,51,55,55,51,67,55,55,47,1262,1262,1263,1263,1263,1263,1263,1258,1258,1258,1262,1258,1261,1261,1262,1263,1261,1263,1261,1263,1261,1261,1258,1262,1258,1262,1262,1262,1263,1261,1261,1263,1258,1263,1258,1262,1258,1261,1278,67,55,47,67,67,51,47,51,67,1258,1258,1263,1262,1258,1263,1262,1262,1261,1258,1262,1263,1258,1262,1262,1263,1258,1261,1258,1262,1263,1262,1263,1263,1262,1263,1263,1261,1263,1263,1261,1262,1262,1262,1261,1261,1263,1262,1264,67,67,67,47,47,51,47,55,51,1263,1263,1263,1263,1262,1262,1258,1261,1258,1258,1261,1261,1263,1263,1258,1262,1262,1262,1262,1263,1261,1261,1258,1262,1262,1258,1262,1263,1262,1258,1263,1258,1262,1258,1258,1258,1262,1258,1264,55,51,51,67,67,51,51,47,67,1258,1262,1261,1263,1261,1263,1258,1262,1261,1262,1263,1261,1262,1258,1263,1262,1262,1262,1262,1261,1261,1261,1263,1263,1262,1262,1263,1263,1258,1261,1263,1262,1258,1263,1262,1262,1258,1261,1264,67,51,47,47,55,51,67,51,51,1258,1258,1262,1262,1258,1263,1263,1263,1262,1258,1263,1261,1258,1258,1261,1263,1262,1258,1258,1261,1258,1262,1263,1261,1258,1263,1263,1262,1262,1261,1263,1262,1258,1263,1261,1258,1263,1263,1318,55,67,47,51,55,47,55,47,51,1261,1261,1263,1261,1262,1263,1261,1263,1261,1263,1262,1258,1263,1262,1258,1263,1258,1258,1263,1258,1262,1262,1261,1261,1261,1258,1262,1258,1261,1261,1263,1263,1262,1263,1261,1261,1261,1261,1278,47,55,67,67,67,47,67,67,55,1258,1261,1261,1258,1258,1261,1261,1261,1262,1261,1262,1262,1262,1263,1262,1261,1261,1258,1261,1263,1262,1261,1258,1328,1261,1258,1262,1258,1261,1263,1261,1258,1261,1261,1261,1263,1258,1258,1278,51,47,51,51,67,51,51,47,67,1262,1261,1263,1261,1263,1258,1262,1262,1262,1263,1261,1333,1261,1258,1261,1261,1262,1261,1262,1262,1262,1263,1334,1335,1336,1261,1258,1261,1258,1263,1261,1262,1328,1340,1262,1258,1261,1262,1272,51,67,55,51,67,47,55,47,47,1258,1262,1262,1258,1262,1263,1258,1262,1262,1258,1343,1344,1345,1258,1261,1261,1328,1346,1347,1346,1340,1347,1348,1349,1350,1346,1351,1351,1258,1258,1261,1352,1353,1354,1355,1263,1261,1261,1264,55,51,67,51,55,47,51,51,67,1263,1263,1263,1262,1263,1261,1261,1262,1262,1258,1352,1356,1345,1261,1262,1357,1358,1359,1359,1359,1360,1361,1362,1363,1360,1364,1361,1354,1355,1258,1258,1334,1365,1366,1345,1261,1263,1261,1272,55,51,51,67,67,55,47,47,51,1262,1263,1263,1258,1263,1258,1262,1262,1263,1261,1352,1367,1336,1258,1262,1343,1368,1363,1369,1370,1370,1363,1371,1369,1370,1363,1370,1372,1373,1258,1263,1357,1365,1372,1336,1258,1263,1262,1272,67,51,55,51,55,67,47,47,51,1263,1261,1258,1258,1262,1263,1262,1258,1258,1261,1357,1374,1336,1262,1261,1334,1375,1370,1369,1363,1370,1370,1370,1363,1370,1369,1363,1376,1355,1262,1258,1334,1365,1376,1355,1263,1258,1258,1318,47,55,51,55,47,51,51,55,55,1262,1262,1263,1261,1262,1258,1263,1262,1262,1262,1334,1367,1355,1262,1258,1352,1377,1363,1369,1369,1371,1369,1369,1370,1369,1370,1363,1372,1336,1263,1263,1334,1365,1376,1373,1258,1261,1261,1264,47,67,51,55,47,55,47,51,47,1258,1263,1263,1262,1262,1258,1261,1262,1263,1258,1343,1367,1336,1261,1261,1357,1368,1363,1369,1363,1369,1363,1371,1371,1369,1371,1371,1366,1336,1262,1261,1357,1377,1376,1336,1262,1262,1263,1272,67,55,47,55,67,51,67,47,55,1261,1258,1263,1261,1263,1261,1262,1258,1258,1261,1334,1356,1373,1262,1258,1343,1365,1370,1369,1369,1369,1369,1371,1369,1363,1363,1369,1366,1345,1261,1262,1334,1377,1378,1373,1262,1258,1262,1318,51,51,67,51,51,67,67,55,47,1351,1340,1347,1347,1347,1347,1347,1340,1340,1346,1379,1380,1381,1340,1351,1348,1382,1363,1371,1371,1371,1363,1370,1370,1371,1370,1371,1383,1384,1346,1346,1379,1385,1386,1387,1347,1261,1263,1272,47,55,51,55,47,51,55,51,51,1359,1361,1359,1361,1364,1360,1364,1360,1360,1359,1362,1369,1359,1359,1361,1388,1371,1369,1370,1363,1369,1370,1371,1371,1369,1363,1370,1369,1360,1359,1360,1389,1371,1371,1361,1390,1355,1262,1318,55,51,51,47,67,67,67,55,67,1391,1391,1391,1392,1393,1392,1393,1391,1394,1393,1393,1392,1394,1391,1393,1393,1394,1395,1369,1370,1396,1393,1392,1394,1394,1393,1394,1393,1393,1394,1394,1392,1391,1392,1391,1397,1336,1258,1272,55,51,67,55,47,67,47,67,67,1398,1399,1398,1399,1399,1399,1398,1400,1399,1401,1399,1400,1400,1399,1399,1398,1399,1402,1365,1403,1404,1400,1401,1399,1398,1398,1398,1401,1398,1399,1400,1401,1401,1401,1400,1399,1258,1263,1278,51,51,67,51,47,67,55,47,67,1258,1262,1261,1258,1263,1262,1258,1258,1258,1261,1262,1262,1263,1262,1263,1263,1263,1357,1368,1366,1336,1261,1263,1258,1263,1261,1261,1261,1262,1261,1263,1258,1261,1258,1263,1261,1262,1258,1264,47,55,47,67,51,67,47,55,67,1262,1262,1262,1261,1263,1261,1262,1258,1261,1258,1262,1263,1263,1258,1263,1262,1258,1334,1375,1366,1373,1262,1261,1262,1262,1263,1263,1258,1262,1262,1258,1263,1258,1258,1263,1258,1258,1261,1264,67,55,51,55,67,67,55,67,47,1263,1262,1263,1258,1263,1261,1258,1258,1258,1262,1262,1262,1258,1258,1263,1262,1258,1334,1375,1372,1345,1261,1258,1261,1263,1258,1262,1263,1262,1263,1263,1263,1258,1258,1262,1262,1258,1262,1318,67,67,47,47,51,51,55,47,51,1263,1263,1263,1262,1258,1258,1261,1261,1263,1263,1262,1262,1263,1258,1261,1258,1263,1334,1365,1366,1373,1263,1263,1262,1258,1258,1263,1261,1261,1261,1261,1262,1261,1258,1262,1261,1261,1258,1272,55,67,51,47,55,67,47,55,51,1258,1262,1263,1261,1258,1258,1262,1261,1263,1262,1261,1258,1258,1262,1258,1261,1258,1352,1368,1378,1345,1261,1263,1262,1263,1258,1262,1258,1261,1261,1262,1261,1263,1261,1258,1262,1262,1258,1278,67,51,67,55,67,55,55,55,67,1262,1258,1258,1261,1258,1258,1263,1263,1258,1263,1258,1258,1258,1262,1261,1262,1263,1343,1368,1366,1336,1263,1263,1258,1261,1262,1262,1263,1262,1258,1263,1261,1261,1263,1258,1261,1262,1258,1272,67,67,51,67,67,67,55,47,67,1261,1262,1262,1263,1261,1262,1262,1258,1262,1263,1439,1261,1258,1262,1261,1261,1262,1352,1375,1376,1373,1262,1263,1262,1262,1261,1261,1262,1262,1261,1262,1262,1262,1263,1261,1261,1258,1263,1272,47,67,55,51,47,51,55,47,55,1258,1261,1263,1262,1261,1261,1261,1258,1261,1357,1335,1373,1262,1258,1263,1258,1262,1352,1375,1378,1336,1262,1261,1262,1263,1261,1263,1261,1263,1439,1258,1263,1261,1261,1258,1263,1262,1263,1278,51,67,55,51,67,47,47,51,51,1258,1263,1261,1258,1439,1340,1346,1340,1351,1448,1380,1384,1347,1347,1351,1340,1347,1348,1385,1449,1350,1340,1346,1351,1351,1347,1351,1351,1379,1450,1384,1347,1347,1347,1261,1263,1258,1263,1278,51,51,67,55,67,51,51,47,51,1261,1258,1262,1343,1451,1360,1364,1360,1360,1388,1363,1361,1364,1360,1361,1360,1361,1362,1371,1363,1361,1364,1364,1361,1359,1361,1360,1364,1452,1371,1360,1364,1361,1354,1336,1263,1263,1261,1278,67,51,67,55,51,55,47,67,55,1261,1258,1262,1343,1453,1391,1392,1394,1393,1391,1391,1393,1394,1393,1392,1392,1392,1391,1391,1393,1392,1391,1394,1393,1394,1394,1393,1393,1391,1394,1393,1392,1394,1397,1345,1263,1261,1258,1278,51,67,51,67,51,67,47,47,67,1261,1261,1262,1258,1398,1401,1398,1401,1398,1400,1401,1401,1399,1398,1398,1398,1401,1399,1400,1399,1398,1399,1400,1401,1400,1401,1400,1398,1401,1400,1400,1400,1399,1400,1263,1262,1262,1261,1272,51,67,67,47,47,51,67,55,47,1261,1263,1263,1262,1258,1263,1262,1263,1261,1258,1261,1262,1262,1261,1262,1261,1261,1258,1261,1258,1261,1261,1258,1262,1263,1261,1262,1262,1261,1263,1258,1261,1262,1258,1261,1262,1261,1258,1264,51,55,51,55,47,55,51,51,51,1263,1262,1261,1258,1258,1261,1262,1263,1258,1258,1263,1262,1258,1258,1262,1258,1258,1261,1262,1261,1258,1258,1258,1263,1262,1258,1263,1258,1258,1261,1258,1261,1262,1262,1258,1261,1261,1262,1278,51,55,55,47,67,55,51,47,55,1261,1258,1258,1263,1258,1263,1262,1261,1262,1262,1261,1262,1261,1261,1258,1258,1258,1263,1263,1263,1261,1261,1258,1262,1258,1261,1263,1263,1262,1263,1258,1263,1261,1258,1262,1262,1263,1262,1272,47,67,55,55,55,47,55,67,51,1263,1262,1263,1262,1262,1262,1258,1258,1263,1263,1258,1262,1261,1262,1263,1258,1258,1261,1262,1261,1262,1258,1262,1258,1258,1258,1258,1258,1263,1261,1261,1261,1261,1258,1263,1258,1258,1261,1278,55,67,67,51,51,67,55,47,55,1262,1263,1263,1263,1261,1263,1258,1261,1262,1258,1258,1258,1261,1258,1263,1261,1262,1258,1263,1262,1262,1258,1262,1263,1262,1258,1258,1258,1262,1261,1258,1258,1261,1258,1262,1258,1262,1262,1318,67,55,51,51,55,51,51,55,67]},{"id":2,"name":"decor","type":"tilelayer","width":48,"height":38,"x":0,"y":0,"opacity":1,"visible":true,"data":[1259,1260,1259,1260,1259,1260,1259,1260,1259,1260,1259,1260,1259,1260,1259,1260,1259,1260,1259,1260,1259,1260,1259,1260,1259,1260,1259,1260,1259,1260,1259,1260,1259,1260,1259,1260,744,753,0,0,0,0,0,0,0,0,0,0,1268,1270,1268,1270,1268,1270,1268,1270,1268,1270,1268,1270,1268,1270,1268,1270,1268,1270,1268,1270,1268,1270,1268,1270,1268,1270,1268,1270,1268,1270,1268,1270,1268,1270,1268,1270,744,753,0,0,0,0,0,0,0,0,0,0,1259,1260,0,0,0,0,0,0,0,0,0,0,0,0,0,0,0,0,0,0,0,0,0,0,0,0,0,0,0,0,0,0,0,0,0,0,744,753,0,0,0,0,0,0,0,0,0,0,1268,1270,0,0,0,0,0,0,0,0,0,0,0,0,0,1282,0,0,0,0,0,0,0,0,0,0,0,0,0,0,1289,1289,1289,1289,1289,1290,744,753,0,0,0,0,0,0,0,0,0,0,1259,1260,0,0,0,0,0,0,0,0,0,0,0,0,0,0,0,0,0,0,210,1291,1292,1293,1294,1295,1296,0,0,0,1297,1297,1297,1297,1297,1298,744,753,0,0,0,0,0,0,0,0,0,0,1268,1270,0,0,0,0,0,0,0,0,0,0,0,0,0,0,0,0,0,0,1299,1300,1301,1302,1303,1304,1305,0,0,0,1306,1307,1308,1309,1310,1311,744,753,0,0,0,0,0,0,0,0,0,0,1259,1260,0,0,0,0,0,0,210,211,212,213,214,215,0,0,0,0,0,0,1312,1307,1313,1314,1315,1311,1312,0,0,0,611,1316,1317,611,1316,1317,744,753,0,0,0,0,0,0,0,0,0,0,1268,1270,0,0,0,0,0,0,222,223,224,225,226,227,0,0,0,0,0,0,611,612,1322,1323,1324,616,611,0,0,0,1325,1326,1327,1325,1326,1327,744,753,0,0,0,0,0,0,0,0,0,0,1259,1260,0,0,0,0,0,0,230,231,232,233,234,235,0,0,0,0,0,0,617,618,619,179,620,621,617,0,0,0,1329,1330,1331,1332,1330,1331,744,753,0,0,0,0,0,0,0,0,0,0,1268,1270,0,0,0,0,0,0,239,240,241,242,243,244,0,0,0,0,0,0,0,0,0,0,0,0,187,0,0,0,1337,1338,1339,242,1341,1342,744,753,0,0,0,0,0,0,0,0,0,0,1259,1260,0,0,0,0,0,0,0,0,0,0,0,0,0,0,0,0,0,0,0,0,0,0,0,0,0,0,0,0,0,0,0,0,0,0,744,753,0,0,0,0,0,0,0,0,0,0,1268,1270,0,0,0,0,0,0,0,0,0,0,0,0,0,0,0,0,0,0,0,0,0,0,0,0,0,0,0,0,0,0,0,0,0,0,744,753,0,0,0,0,0,0,0,0,0,0,1259,1260,0,0,1282,0,0,0,0,0,0,0,0,0,0,0,0,0,12,0,0,0,0,0,0,12,0,0,0,0,0,0,0,0,0,0,744,753,0,0,0,0,0,0,0,0,0,0,1268,1270,0,0,0,0,0,0,0,0,0,0,0,0,0,0,0,0,0,0,0,0,0,0,0,0,0,0,0,0,0,0,0,0,0,0,744,753,0,0,0,0,0,0,0,0,0,0,1259,1260,0,0,0,0,0,0,0,0,0,0,0,0,0,0,0,0,0,0,0,207,0,0,0,0,0,0,0,0,0,0,0,0,0,0,744,753,0,0,0,0,0,0,0,0,0,0,1268,1270,0,0,0,0,0,0,0,0,0,0,0,0,0,0,0,0,0,0,0,0,0,0,0,0,0,0,0,0,0,0,0,0,0,0,744,753,0,0,0,0,0,0,0,0,0,0,1259,1260,0,0,0,0,0,0,0,0,0,0,0,0,0,0,0,0,12,0,0,0,0,0,0,12,0,0,0,0,0,0,0,0,0,0,744,753,0,0,0,0,0,0,0,0,0,0,1268,1270,0,0,0,187,0,245,0,0,0,0,0,0,0,245,0,0,0,0,0,0,0,0,0,0,0,0,245,0,0,0,0,0,0,0,744,753,0,0,0,0,0,0,0,0,0,0,0,0,0,0,0,0,0,0,0,0,0,0,0,0,0,0,0,0,0,0,0,0,0,0,0,0,0,0,0,0,0,0,0,0,0,187,744,753,0,0,0,0,0,0,0,0,0,0,0,0,0,0,0,0,0,0,0,0,0,0,0,0,0,0,0,0,0,0,0,0,0,0,0,0,0,0,0,0,0,0,0,0,0,0,744,753,0,0,0,0,0,0,0,0,0,0,1259,1260,0,0,0,0,0,0,0,0,0,0,0,0,0,0,0,0,0,0,0,0,0,0,0,0,0,0,0,0,0,0,0,0,0,0,744,753,0,0,0,0,0,0,0,0,0,0,1268,1270,0,0,0,0,0,0,0,0,0,0,0,0,0,0,0,0,0,0,0,0,0,0,0,0,0,0,0,0,0,0,0,0,1282,0,744,753,0,0,0,0,0,0,0,0,0,0,1259,1260,0,0,0,0,0,0,0,0,0,0,0,0,1282,0,0,0,0,0,0,0,0,0,0,0,0,0,0,0,0,0,0,0,0,0,744,753,0,0,0,0,0,0,0,0,0,0,1268,1270,0,0,0,0,0,0,0,0,0,0,0,0,0,0,0,0,0,0,0,0,0,0,0,0,0,0,0,0,0,0,0,0,0,0,744,753,0,0,0,0,0,0,0,0,0,0,1259,1260,0,0,0,0,0,854,855,856,857,858,0,0,0,0,0,0,0,0,0,0,0,0,0,1414,1415,1416,1417,1418,1419,1420,1421,0,0,0,744,753,0,0,0,0,0,0,0,0,0,0,1268,1270,0,0,0,0,0,861,862,863,864,865,0,0,0,0,0,0,0,0,0,0,0,0,0,1422,1423,1424,1425,1426,1427,1428,1429,0,0,0,744,753,0,0,0,0,0,0,0,0,0,0,1259,1260,0,0,0,0,0,1430,1431,1432,1430,1431,0,0,0,0,0,0,0,0,0,0,0,0,0,1013,1014,1432,1433,1434,1435,1013,1014,0,0,0,744,753,0,0,0,0,0,0,0,0,0,0,1268,1270,0,0,0,0,0,1436,1437,1438,1436,1437,0,0,0,0,0,0,0,0,0,0,0,0,0,1027,1028,1032,1440,1441,1032,1440,1442,0,0,0,744,753,0,0,0,0,0,0,0,0,0,0,1259,1260,0,0,0,0,0,0,0,0,0,0,0,0,0,0,0,0,0,0,0,0,0,0,0,1042,1043,1046,1443,1444,1445,1446,1447,0,0,0,744,753,0,0,0,0,0,0,0,0,0,0,1268,1270,0,0,0,0,0,0,0,0,0,0,0,0,0,0,0,0,0,0,0,245,0,0,0,0,0,0,0,0,0,0,0,245,0,0,744,753,0,0,0,0,0,0,0,0,0,0,1259,1260,0,0,0,0,0,0,0,0,0,0,0,0,0,0,0,0,0,0,0,0,0,0,0,0,0,0,0,0,0,0,0,0,0,0,744,753,0,0,0,0,0,0,0,0,0,0,1268,1270,0,0,0,0,0,0,0,0,0,0,0,0,0,0,0,0,0,0,0,0,0,0,0,0,0,0,0,0,0,0,0,0,0,0,744,753,0,0,0,0,0,0,0,0,0,0,1259,1260,0,0,0,0,0,0,0,0,0,0,0,0,0,0,0,0,0,0,0,0,0,0,0,0,0,0,0,0,0,0,0,0,0,0,744,753,0,0,0,0,0,0,0,0,0,0,1268,1270,0,0,0,0,0,0,0,0,0,0,0,0,0,0,0,0,0,0,0,0,0,0,0,0,0,0,0,0,0,0,0,0,0,0,744,753,0,0,0,0,0,0,0,0,0,0,1259,1260,0,1282,0,0,0,0,0,0,0,0,0,0,0,0,0,0,0,0,0,0,1282,0,0,0,0,0,0,0,0,0,0,0,0,0,744,753,0,0,0,0,0,0,0,0,0,0,1268,1270,0,0,0,0,0,0,0,0,0,0,0,0,0,0,0,0,0,0,0,0,0,0,0,0,0,0,0,0,0,0,0,0,0,0,744,753,0,0,0,0,0,0,0,0,0,0,1259,1260,1259,1260,1259,1260,1259,1260,1259,1260,1259,1260,1259,1260,1259,1260,1259,1260,1259,1260,1259,1260,1259,1260,1259,1260,1259,1260,1259,1260,1259,1260,1259,1260,1259,1260,744,753,0,0,0,0,0,0,0,0,0,0,1268,1270,1268,1270,1268,1270,1268,1270,1268,1270,1268,1270,1268,1270,1268,1270,1268,1270,1268,1270,1268,1270,1268,1270,1268,1270,1268,1270,1268,1270,1268,1270,1268,1270,1268,1270,744,753,0,0,0,0,0,0,0,0,0,0]},{"id":3,"name":"above","type":"tilelayer","width":48,"height":38,"x":0,"y":0,"opacity":1,"visible":true,"data":[0,0,0,0,0,0,0,0,0,0,0,0,0,0,0,0,0,0,0,0,0,0,0,0,0,0,0,0,0,0,0,0,0,0,0,0,0,0,0,0,0,0,0,0,0,0,0,0,1269,1271,0,0,0,0,0,0,0,0,0,0,0,0,0,0,0,0,0,0,0,0,0,0,0,0,0,0,0,0,0,0,0,0,0,0,0,0,0,0,0,0,0,0,0,0,0,0,0,0,0,0,0,0,0,0,0,0,0,0,0,0,0,0,0,0,0,0,0,0,0,0,0,0,0,0,0,0,1276,1276,1276,1276,1276,1277,0,0,0,0,0,0,0,0,0,0,0,0,1269,1271,0,0,0,0,0,0,0,0,0,0,0,0,0,0,0,0,0,0,199,1283,1284,1285,1286,1287,1288,0,0,0,0,0,0,0,0,0,0,0,0,0,0,0,0,0,0,0,0,0,0,0,0,0,0,0,0,0,0,0,0,0,0,0,0,0,0,0,0,0,0,0,0,0,0,0,0,0,0,0,0,0,0,0,0,0,0,0,0,0,0,0,0,0,0,0,0,0,1269,1271,0,0,0,0,0,0,199,200,201,202,203,204,0,0,0,0,0,0,0,0,0,0,0,0,0,0,0,0,0,0,0,0,0,0,0,0,0,0,0,0,0,0,0,0,0,0,0,0,0,0,0,0,0,0,0,0,0,0,0,0,0,0,0,0,0,0,0,0,0,0,0,0,0,0,0,0,0,0,0,0,0,0,0,0,0,0,0,0,0,0,0,0,0,0,1269,1271,0,0,0,0,0,0,0,0,0,0,0,0,0,0,0,0,0,0,0,0,0,0,0,0,0,0,0,0,0,0,0,0,0,0,0,0,0,0,0,0,0,0,0,0,0,0,0,0,0,0,0,0,0,0,0,0,0,0,0,0,0,0,0,0,0,0,0,0,0,0,0,0,181,0,0,0,0,0,0,0,0,0,0,0,0,0,0,0,0,0,0,0,0,0,1269,1271,0,0,0,0,0,0,0,0,0,0,0,0,0,0,0,0,0,0,0,0,0,0,0,0,0,0,0,0,0,0,0,0,0,0,0,0,0,0,0,0,0,0,0,0,0,0,0,0,0,0,0,0,0,0,0,0,0,0,0,0,0,0,0,0,0,0,0,0,0,0,0,0,0,0,0,0,0,0,0,0,0,0,0,0,0,0,0,0,0,0,0,0,0,0,1269,1271,0,0,0,0,0,0,0,0,0,0,0,0,0,0,0,0,11,0,0,0,0,0,0,11,0,0,0,0,0,0,0,0,0,0,0,0,0,0,0,0,0,0,0,0,0,0,0,0,0,0,0,0,0,0,0,0,0,0,0,0,0,0,0,0,0,0,0,0,0,0,0,0,0,0,0,0,0,0,0,0,0,0,0,0,0,0,0,0,0,0,0,0,0,0,1269,1271,0,0,0,0,0,0,0,0,0,0,0,0,0,0,0,0,0,0,0,196,0,0,0,0,0,0,0,0,0,0,0,0,0,0,0,0,0,0,0,0,0,0,0,0,0,0,0,0,0,0,0,0,0,0,0,0,0,0,0,0,0,0,0,0,0,0,0,0,0,0,0,0,0,0,0,0,0,0,0,0,0,0,0,0,0,0,0,0,0,0,0,0,0,0,1269,1271,0,0,0,0,0,228,0,0,0,0,0,0,0,228,0,0,11,0,0,0,0,0,0,11,0,0,228,0,0,0,0,0,0,0,0,0,0,0,0,0,0,0,0,0,0,0,0,0,0,0,0,181,0,236,0,0,0,0,0,0,0,236,0,0,0,0,0,0,0,0,0,0,0,0,236,0,0,0,0,0,0,0,0,0,0,0,0,0,0,0,0,0,0,0,0,0,0,0,0,0,0,0,0,0,0,0,0,0,0,0,0,0,0,0,0,0,0,0,0,0,0,0,0,0,0,0,0,0,0,181,0,0,0,0,0,0,0,0,0,0,0,0,0,0,0,0,0,0,0,0,0,0,0,0,0,0,0,0,0,0,0,0,0,0,0,0,0,0,0,0,0,0,0,0,0,0,0,0,0,0,0,0,0,0,0,0,0,0,0,0,1269,1271,0,0,0,0,0,0,0,0,0,0,0,0,0,0,0,0,0,0,0,0,0,0,0,0,0,0,0,0,0,0,0,0,0,0,0,0,0,0,0,0,0,0,0,0,0,0,0,0,0,0,0,0,0,0,0,0,0,0,0,0,0,0,0,0,0,0,0,0,0,0,0,0,0,0,0,0,0,0,0,0,0,0,0,0,0,0,0,0,0,0,0,0,0,0,1269,1271,0,0,0,0,0,0,0,0,0,0,0,0,0,0,0,0,0,0,0,0,0,0,0,0,0,0,0,0,0,0,0,0,0,0,0,0,0,0,0,0,0,0,0,0,0,0,0,0,0,0,0,0,0,0,0,0,0,0,0,0,0,0,0,0,0,0,0,0,0,0,0,0,0,0,0,0,0,0,0,0,0,0,0,0,0,0,0,0,0,0,0,0,0,0,1269,1271,0,0,0,0,0,1122,847,848,849,1405,0,0,0,0,0,0,0,0,0,0,0,0,0,1406,1407,1408,1409,1410,1411,1412,1413,0,0,0,0,0,0,0,0,0,0,0,0,0,0,0,0,0,0,0,0,0,0,0,0,0,0,0,0,0,0,0,0,0,0,0,0,0,0,0,0,0,0,0,0,0,0,0,0,0,0,0,0,0,0,0,0,0,0,0,0,0,0,0,1269,1271,0,0,0,0,0,0,0,0,0,0,0,0,0,0,0,0,0,0,0,0,0,0,0,0,0,0,0,0,0,0,0,0,0,0,0,0,0,0,0,0,0,0,0,0,0,0,0,0,0,0,0,0,0,0,0,0,0,0,0,0,0,0,0,0,0,0,0,0,0,0,0,0,0,0,0,0,0,0,0,0,0,0,0,0,0,0,0,0,0,0,0,0,0,0,1269,1271,0,0,0,0,0,0,0,0,0,0,0,0,0,0,0,0,0,0,0,228,0,0,0,0,0,0,0,0,0,0,0,228,0,0,0,0,0,0,0,0,0,0,0,0,0,0,0,0,0,0,0,0,0,0,0,0,0,0,0,0,0,0,0,0,0,0,0,236,0,0,0,0,0,0,0,0,0,0,0,236,0,0,0,0,0,0,0,0,0,0,0,0,0,0,1269,1271,0,0,0,0,0,0,0,0,0,0,0,0,0,0,0,0,0,0,0,0,0,0,0,0,0,0,0,0,0,0,0,0,0,0,0,0,0,0,0,0,0,0,0,0,0,0,0,0,0,0,0,0,0,0,0,0,0,0,0,0,0,0,0,0,0,0,0,0,0,0,0,0,0,0,0,0,0,0,0,0,0,0,0,0,0,0,0,0,0,0,0,0,0,0,1269,1271,0,0,0,0,0,0,0,0,0,0,0,0,0,0,0,0,0,0,0,0,0,0,0,0,0,0,0,0,0,0,0,0,0,0,0,0,0,0,0,0,0,0,0,0,0,0,0,0,0,0,0,0,0,0,0,0,0,0,0,0,0,0,0,0,0,0,0,0,0,0,0,0,0,0,0,0,0,0,0,0,0,0,0,0,0,0,0,0,0,0,0,0,0,0,1269,1271,0,0,0,0,0,0,0,0,0,0,0,0,0,0,0,0,0,0,0,0,0,0,0,0,0,0,0,0,0,0,0,0,0,0,0,0,0,0,0,0,0,0,0,0,0,0,0,0,0,0,0,0,0,0,0,0,0,0,0,0,0,0,0,0,0,0,0,0,0,0,0,0,0,0,0,0,0,0,0,0,0,0,0,0,0,0,0,0,0,0,0,0,0,0,1269,1271,1269,1271,1269,1271,1269,1271,1269,1271,1269,1271,1269,1271,1269,1271,1269,1271,1269,1271,1269,1271,1269,1271,1269,1271,1269,1271,1269,1271,1269,1271,1269,1271,1269,1271,0,0,0,0,0,0,0,0,0,0,0,0,0,0,0,0,0,0,0,0,0,0,0,0,0,0,0,0,0,0,0,0,0,0,0,0,0,0,0,0,0,0,0,0,0,0,0,0,0,0,0,0,0,0,0,0,0,0,0,0,0,0,0,0,0,0,0,0,0,0,0,0,0,0,0,0,0,0,0,0,0,0,0,0,0,0,0,0,0,0,0,0,0,0,0,0,0,0,0,0,0,0,0,0,0,0,0,0]},{"id":4,"name":"meta","type":"tilelayer","width":48,"height":38,"x":0,"y":0,"opacity":0.6,"visible":false,"data":[3128,3128,3128,3128,3128,3128,3128,3128,3128,3128,3128,3128,3128,3128,3128,3128,3128,3128,3128,3128,3128,3128,3128,3128,3128,3128,3128,3128,3128,3128,3128,3128,3128,3128,3128,3128,3128,3128,3129,3129,3129,3129,3129,3129,3129,3129,3129,3129,3128,3128,3128,3128,3128,3128,3128,3128,3128,3128,3128,3128,3128,3128,3128,3128,3128,3128,3128,3128,3128,3128,3128,3128,3128,3128,3128,3128,3128,3128,3128,3128,3128,3128,3128,3128,3128,3128,3129,3129,3129,3129,3129,3129,3129,3129,3129,3129,3128,3128,0,0,0,0,0,0,0,0,0,0,0,0,0,0,0,0,0,0,0,0,0,0,0,0,0,0,0,0,0,0,0,0,0,0,3128,3128,3129,3129,3129,3129,3129,3129,3129,3129,3129,3129,3128,3128,0,0,0,0,0,0,0,0,0,0,0,0,0,3128,0,0,0,0,0,0,0,0,0,0,0,0,0,0,3128,3128,3128,3128,3128,3128,3128,3128,3129,3129,3129,3129,3129,3129,3129,3129,3129,3129,3128,3128,0,0,0,0,0,0,0,0,0,0,0,0,0,0,0,0,0,0,3128,3128,3128,3128,3128,3128,3128,0,0,0,3128,3128,3128,3128,3128,3128,3128,3128,3129,3129,3129,3129,3129,3129,3129,3129,3129,3129,3128,3128,0,0,0,0,0,0,0,0,0,0,0,0,0,0,0,0,0,0,3128,3128,3128,3128,3128,3128,3128,0,0,0,3128,3128,3128,3128,3128,3128,3128,3128,3129,3129,3129,3129,3129,3129,3129,3129,3129,3129,3128,3128,0,0,0,0,0,0,3128,3128,3128,3128,3128,3128,0,0,0,0,0,0,3128,3128,3128,3128,3128,3128,3128,0,0,0,3128,3128,3128,3128,3128,3128,3128,3128,3129,3129,3129,3129,3129,3129,3129,3129,3129,3129,3128,3128,0,0,0,0,0,0,3128,3128,3128,3128,3128,3128,0,0,0,0,0,0,3128,3128,3128,3128,3128,3128,3128,0,0,0,3128,3128,3128,3128,3128,3128,3128,3128,3129,3129,3129,3129,3129,3129,3129,3129,3129,3129,3128,3128,0,0,0,0,0,0,3128,3128,3128,3128,3128,3128,0,0,0,0,0,0,3128,3128,3128,3135,3128,3128,3128,0,0,0,3128,3128,3128,3128,3128,3128,3128,3128,3129,3129,3129,3129,3129,3129,3129,3129,3129,3129,3128,3128,0,0,0,0,0,0,3128,3128,3128,3135,3128,3128,0,0,0,0,0,0,0,0,0,0,0,0,3128,0,0,0,3128,3128,3128,3135,3128,3128,3128,3128,3129,3129,3129,3129,3129,3129,3129,3129,3129,3129,3128,3128,0,0,0,0,0,0,0,0,0,0,0,0,0,0,0,0,0,0,0,0,0,0,0,0,0,0,0,0,0,0,0,0,0,0,3128,3128,3129,3129,3129,3129,3129,3129,3129,3129,3129,3129,3128,3128,0,0,0,0,0,0,0,0,0,0,0,0,0,0,0,0,0,0,0,0,0,0,0,0,0,0,0,0,0,0,0,0,0,0,3128,3128,3129,3129,3129,3129,3129,3129,3129,3129,3129,3129,3128,3128,0,0,3128,0,0,0,0,0,0,0,0,0,0,0,0,0,3128,0,0,0,0,0,0,3128,0,0,0,0,0,0,0,0,0,0,3128,3128,3129,3129,3129,3129,3129,3129,3129,3129,3129,3129,3128,3128,0,0,0,0,0,0,0,0,0,0,0,0,0,0,0,0,0,0,0,0,0,0,0,0,0,0,0,0,0,0,0,0,0,0,3128,3128,3129,3129,3129,3129,3129,3129,3129,3129,3129,3129,3128,3128,0,0,0,0,0,0,0,0,0,0,0,0,0,0,0,0,0,0,0,3128,0,0,0,0,0,0,0,0,0,0,0,0,0,0,3128,3128,3129,3129,3129,3129,3129,3129,3129,3129,3129,3129,3128,3128,0,0,0,0,0,0,0,0,0,0,0,0,0,0,0,0,0,0,0,0,0,0,0,0,0,0,0,0,0,0,0,0,0,0,3128,3128,3129,3129,3129,3129,3129,3129,3129,3129,3129,3129,3128,3128,0,0,0,0,0,0,0,0,0,0,0,0,0,0,0,0,3128,0,0,0,0,0,0,3128,0,0,0,0,0,0,0,0,0,0,3128,3128,3129,3129,3129,3129,3129,3129,3129,3129,3129,3129,3128,3128,0,0,0,3128,0,3128,0,0,0,0,0,0,0,3128,0,0,0,0,0,0,0,0,0,0,0,0,3128,0,0,0,0,0,0,0,3128,3128,3129,3129,3129,3129,3129,3129,3129,3129,3129,3129,0,0,0,0,0,0,0,0,0,0,0,0,0,0,0,0,0,0,0,0,0,0,0,0,0,0,0,0,0,0,0,0,0,0,0,3128,3128,3128,3129,3129,3129,3129,3129,3129,3129,3129,3129,3129,0,0,0,0,0,0,0,0,0,0,0,0,0,0,0,0,0,0,0,0,0,0,0,0,0,0,0,0,0,0,0,0,0,0,0,0,3128,3128,3129,3129,3129,3129,3129,3129,3129,3129,3129,3129,3128,3128,0,0,0,0,0,0,0,0,0,0,0,0,0,0,0,0,0,0,0,0,0,0,0,0,0,0,0,0,0,0,0,0,0,0,3128,3128,3129,3129,3129,3129,3129,3129,3129,3129,3129,3129,3128,3128,0,0,0,0,0,0,0,0,0,0,0,0,0,0,0,0,0,0,0,0,0,0,0,0,0,0,0,0,0,0,0,0,3128,0,3128,3128,3129,3129,3129,3129,3129,3129,3129,3129,3129,3129,3128,3128,0,0,0,0,0,0,0,0,0,0,0,0,3128,0,0,0,0,0,0,0,0,0,0,0,0,0,0,0,0,0,0,0,0,0,3128,3128,3129,3129,3129,3129,3129,3129,3129,3129,3129,3129,3128,3128,0,0,0,0,0,0,0,0,0,0,0,0,0,0,0,0,0,0,0,0,0,0,0,0,0,0,0,0,0,0,0,0,0,0,3128,3128,3129,3129,3129,3129,3129,3129,3129,3129,3129,3129,3128,3128,0,0,0,0,0,3128,3128,3128,3128,3128,0,0,0,0,0,0,0,0,0,0,0,0,0,3128,3128,3128,3128,3128,3128,3128,3128,0,0,0,3128,3128,3129,3129,3129,3129,3129,3129,3129,3129,3129,3129,3128,3128,0,0,0,0,0,3128,3128,3128,3128,3128,0,0,0,0,0,0,0,0,0,0,0,0,0,3128,3128,3128,3128,3128,3128,3128,3128,0,0,0,3128,3128,3129,3129,3129,3129,3129,3129,3129,3129,3129,3129,3128,3128,0,0,0,0,0,3128,3128,3128,3128,3128,0,0,0,0,0,0,0,0,0,0,0,0,0,3128,3128,3128,3128,3128,3128,3128,3128,0,0,0,3128,3128,3129,3129,3129,3129,3129,3129,3129,3129,3129,3129,3128,3128,0,0,0,0,0,3128,3128,3135,3128,3128,0,0,0,0,0,0,0,0,0,0,0,0,0,3128,3128,3128,3128,3128,3128,3128,3128,0,0,0,3128,3128,3129,3129,3129,3129,3129,3129,3129,3129,3129,3129,3128,3128,0,0,0,0,0,0,0,0,0,0,0,0,0,0,0,0,0,0,0,0,0,0,0,3128,3128,3128,3128,3135,3128,3128,3128,0,0,0,3128,3128,3129,3129,3129,3129,3129,3129,3129,3129,3129,3129,3128,3128,0,0,0,0,0,0,0,0,0,0,0,0,0,0,0,0,0,0,0,3128,0,0,0,0,0,0,0,0,0,0,0,3128,0,0,3128,3128,3129,3129,3129,3129,3129,3129,3129,3129,3129,3129,3128,3128,0,0,0,0,0,0,0,0,0,0,0,0,0,0,0,0,0,0,0,0,0,0,0,0,0,0,0,0,0,0,0,0,0,0,3128,3128,3129,3129,3129,3129,3129,3129,3129,3129,3129,3129,3128,3128,0,0,0,0,0,0,0,0,0,0,0,0,0,0,0,0,0,0,0,0,0,0,0,0,0,0,0,0,0,0,0,0,0,0,3128,3128,3129,3129,3129,3129,3129,3129,3129,3129,3129,3129,3128,3128,0,0,0,0,0,0,0,0,0,0,0,0,0,0,0,0,0,0,0,0,0,0,0,0,0,0,0,0,0,0,0,0,0,0,3128,3128,3129,3129,3129,3129,3129,3129,3129,3129,3129,3129,3128,3128,0,0,0,0,0,0,0,0,0,0,0,0,0,0,0,0,0,0,0,0,0,0,0,0,0,0,0,0,0,0,0,0,0,0,3128,3128,3129,3129,3129,3129,3129,3129,3129,3129,3129,3129,3128,3128,0,3128,0,0,0,0,0,0,0,0,0,0,0,0,0,0,0,0,0,0,3128,0,0,0,0,0,0,0,0,0,0,0,0,0,3128,3128,3129,3129,3129,3129,3129,3129,3129,3129,3129,3129,3128,3128,0,0,0,0,0,0,0,0,0,0,0,0,0,0,0,0,0,0,0,0,0,0,0,0,0,0,0,0,0,0,0,0,0,0,3128,3128,3129,3129,3129,3129,3129,3129,3129,3129,3129,3129,3128,3128,3128,3128,3128,3128,3128,3128,3128,3128,3128,3128,3128,3128,3128,3128,3128,3128,3128,3128,3128,3128,3128,3128,3128,3128,3128,3128,3128,3128,3128,3128,3128,3128,3128,3128,3128,3128,3129,3129,3129,3129,3129,3129,3129,3129,3129,3129,3128,3128,3128,3128,3128,3128,3128,3128,3128,3128,3128,3128,3128,3128,3128,3128,3128,3128,3128,3128,3128,3128,3128,3128,3128,3128,3128,3128,3128,3128,3128,3128,3128,3128,3128,3128,3128,3128,3129,3129,3129,3129,3129,3129,3129,3129,3129,3129]},{"id":5,"name":"objects","type":"objectgroup","draworder":"topdown","x":0,"y":0,"opacity":1,"visible":true,"objects":[{"id":1,"name":"","type":"warp","x":176,"y":144,"width":16,"height":16,"rotation":0,"visible":true,"properties":[{"name":"to","type":"string","value":"riftgate_haven:7,9"},{"name":"door","type":"string","value":"1"},{"name":"face","type":"string","value":"up"}]},{"id":2,"name":"","type":"warp","x":368,"y":128,"width":16,"height":16,"rotation":0,"visible":true,"properties":[{"name":"to","type":"string","value":"riftgate_trial:6,16"},{"name":"door","type":"string","value":"1"},{"name":"face","type":"string","value":"up"}]},{"id":3,"name":"","type":"warp","x":528,"y":144,"width":16,"height":16,"rotation":0,"visible":true,"properties":[{"name":"to","type":"string","value":"spire_crown:8,12"},{"name":"door","type":"string","value":"1"},{"name":"cond","type":"string","value":"cradle_done"},{"name":"locked","type":"string","value":"The Spire door is barred. Only Wardens may climb to the Crown."},{"name":"face","type":"string","value":"up"}]},{"id":4,"name":"","type":"warp","x":144,"y":432,"width":16,"height":16,"rotation":0,"visible":true,"properties":[{"name":"to","type":"string","value":"riftgate_house:5,7"},{"name":"door","type":"string","value":"1"},{"name":"face","type":"string","value":"up"}]},{"id":5,"name":"","type":"warp","x":464,"y":448,"width":16,"height":16,"rotation":0,"visible":true,"properties":[{"name":"to","type":"string","value":"sunken_chapel:10,24"},{"name":"door","type":"string","value":"1"},{"name":"cond","type":"string","value":"has:rift_key"},{"name":"locked","type":"string","value":"The chapel doors are locked with a heavy iron lock shaped like a wave."},{"name":"face","type":"string","value":"up"}]},{"id":6,"name":"","type":"sign","x":336,"y":224,"width":16,"height":16,"rotation":0,"visible":true,"properties":[{"name":"script","type":"string","value":"riftgate.seal"}]},{"id":7,"name":"","type":"sign","x":80,"y":272,"width":16,"height":16,"rotation":0,"visible":true,"properties":[{"name":"text","type":"string","value":"RIFTGATE|City on the lip of the Riven."}]},{"id":8,"name":"","type":"sign","x":560,"y":288,"width":16,"height":16,"rotation":0,"visible":true,"properties":[{"name":"text","type":"string","value":"THE RIVEN|Do not climb the railings."}]},{"id":9,"name":"","type":"sign","x":416,"y":144,"width":16,"height":16,"rotation":0,"visible":true,"properties":[{"name":"text","type":"string","value":"WYRM TRIAL \u00b7 Warden Seren|\"Stand at the edge. Do not flinch.\""}]},{"id":10,"name":"rg_spireguard","type":"npc","x":528,"y":176,"width":16,"height":16,"rotation":0,"visible":true,"properties":[{"name":"id","type":"string","value":"rg_spireguard"},{"name":"sprite","type":"string","value":"guard"},{"name":"face","type":"string","value":"down"},{"name":"move","type":"string","value":"still"},{"name":"script","type":"string","value":"riftgate.spireguard"},{"name":"hide","type":"string","value":"cradle_done"}]},{"id":11,"name":"rg_chapelguard","type":"npc","x":480,"y":480,"width":16,"height":16,"rotation":0,"visible":true,"properties":[{"name":"id","type":"string","value":"rg_chapelguard"},{"name":"sprite","type":"string","value":"guard"},{"name":"face","type":"string","value":"up"},{"name":"move","type":"string","value":"still"},{"name":"script","type":"string","value":"riftgate.chapelguard"},{"name":"hide","type":"string","value":"oriel_reveal"}]},{"id":12,"name":"rg_man","type":"npc","x":432,"y":320,"width":16,"height":16,"rotation":0,"visible":true,"properties":[{"name":"id","type":"string","value":"rg_man"},{"name":"sprite","type":"string","value":"man"},{"name":"face","type":"string","value":"down"},{"name":"move","type":"string","value":"wander"},{"name":"text","type":"string","value":"On a still night you can hear the sea at the bottom of the Riven, breathing in and out. My kids think it's snoring."},{"name":"radius","type":"string","value":"2"}]},{"id":13,"name":"rg_woman","type":"npc","x":192,"y":336,"width":16,"height":16,"rotation":0,"visible":true,"properties":[{"name":"id","type":"string","value":"rg_woman"},{"name":"sprite","type":"string","value":"woman_b"},{"name":"face","type":"string","value":"down"},{"name":"move","type":"string","value":"wander"},{"name":"text","type":"string","value":"The Deepcall used to hold services at the old chapel. Then they started locking the doors."},{"name":"radius","type":"string","value":"2"}]},{"id":14,"name":"rg_oriel","type":"npc","x":336,"y":160,"width":16,"height":16,"rotation":0,"visible":true,"properties":[{"name":"id","type":"string","value":"rg_oriel"},{"name":"sprite","type":"string","value":"oriel"},{"name":"face","type":"string","value":"down"},{"name":"move","type":"string","value":"still"},{"name":"show","type":"string","value":"never"}]},{"id":15,"name":"rg_acolyte_a","type":"npc","x":320,"y":176,"width":16,"height":16,"rotation":0,"visible":true,"properties":[{"name":"id","type":"string","value":"rg_acolyte_a"},{"name":"sprite","type":"string","value":"acolyte"},{"name":"face","type":"string","value":"down"},{"name":"move","type":"string","value":"still"},{"name":"show","type":"string","value":"never"}]},{"id":16,"name":"rg_acolyte_b","type":"npc","x":352,"y":176,"width":16,"height":16,"rotation":0,"visible":true,"properties":[{"name":"id","type":"string","value":"rg_acolyte_b"},{"name":"sprite","type":"string","value":"acolyte_b"},{"name":"face","type":"string","value":"down"},{"name":"move","type":"string","value":"still"},{"name":"show","type":"string","value":"never"}]},{"id":17,"name":"rg_wren","type":"npc","x":320,"y":352,"width":16,"height":16,"rotation":0,"visible":true,"properties":[{"name":"id","type":"string","value":"rg_wren"},{"name":"sprite","type":"string","value":"wren_dark"},{"name":"face","type":"string","value":"up"},{"name":"move","type":"string","value":"still"},{"name":"show","type":"string","value":"never"}]},{"id":18,"name":"rg_seren","type":"npc","x":384,"y":208,"width":16,"height":16,"rotation":0,"visible":true,"properties":[{"name":"id","type":"string","value":"rg_seren"},{"name":"sprite","type":"string","value":"seren"},{"name":"face","type":"string","value":"down"},{"name":"move","type":"string","value":"still"},{"name":"show","type":"string","value":"never"}]},{"id":19,"name":"","type":"trigger","x":304,"y":144,"width":144,"height":32,"rotation":0,"visible":true,"properties":[{"name":"script","type":"string","value":"riftgate.oriel"},{"name":"w","type":"string","value":"9"},{"name":"h","type":"string","value":"2"},{"name":"once","type":"string","value":"oriel_reveal"},{"name":"cond","type":"string","value":"sigil_wyrm"}]},{"id":20,"name":"","type":"item","x":48,"y":48,"width":16,"height":16,"rotation":0,"visible":true,"properties":[{"name":"item","type":"string","value":"full_tonic"},{"name":"qty","type":"string","value":"1"},{"name":"flag","type":"string","value":"item_riftgate_3_3"},{"name":"hidden","type":"string","value":"1"}]},{"id":21,"name":"","type":"item","x":544,"y":560,"width":16,"height":16,"rotation":0,"visible":true,"properties":[{"name":"item","type":"string","value":"apex_capsule"},{"name":"qty","type":"string","value":"1"},{"name":"flag","type":"string","value":"item_riftgate_34_35"}]},{"id":22,"name":"","type":"light","x":120,"y":262,"width":0,"height":0,"rotation":0,"visible":true,"point":true,"properties":[{"name":"r","type":"int","value":44},{"name":"color","type":"string","value":"#ffd98a"},{"name":"window","type":"bool","value":false}]},{"id":23,"name":"","type":"light","x":248,"y":262,"width":0,"height":0,"rotation":0,"visible":true,"point":true,"properties":[{"name":"r","type":"int","value":44},{"name":"color","type":"string","value":"#ffd98a"},{"name":"window","type":"bool","value":false}]},{"id":24,"name":"","type":"light","x":456,"y":262,"width":0,"height":0,"rotation":0,"visible":true,"point":true,"properties":[{"name":"r","type":"int","value":44},{"name":"color","type":"string","value":"#ffd98a"},{"name":"window","type":"bool","value":false}]},{"id":25,"name":"","type":"light","x":344,"y":454,"width":0,"height":0,"rotation":0,"visible":true,"point":true,"properties":[{"name":"r","type":"int","value":44},{"name":"color","type":"string","value":"#ffd98a"},{"name":"window","type":"bool","value":false}]},{"id":26,"name":"","type":"light","x":536,"y":454,"width":0,"height":0,"rotation":0,"visible":true,"point":true,"properties":[{"name":"r","type":"int","value":44},{"name":"color","type":"string","value":"#ffd98a"},{"name":"window","type":"bool","value":false}]},{"id":27,"name":"","type":"light","x":136,"y":147,"width":0,"height":0,"rotation":0,"visible":true,"point":true,"properties":[{"name":"r","type":"int","value":22},{"name":"color","type":"string","value":"#ffe7a8"},{"name":"window","type":"bool","value":true}]},{"id":28,"name":"","type":"light","x":152,"y":147,"width":0,"height":0,"rotation":0,"visible":true,"point":true,"properties":[{"name":"r","type":"int","value":22},{"name":"color","type":"string","value":"#ffe7a8"},{"name":"window","type":"bool","value":true}]},{"id":29,"name":"","type":"light","x":216,"y":147,"width":0,"height":0,"rotation":0,"visible":true,"point":true,"properties":[{"name":"r","type":"int","value":22},{"name":"color","type":"string","value":"#ffe7a8"},{"name":"window","type":"bool","value":true}]},{"id":30,"name":"","type":"light","x":344,"y":131,"width":0,"height":0,"rotation":0,"visible":true,"point":true,"properties":[{"name":"r","type":"int","value":22},{"name":"color","type":"string","value":"#ffe7a8"},{"name":"window","type":"bool","value":true}]},{"id":31,"name":"","type":"light","x":360,"y":131,"width":0,"height":0,"rotation":0,"visible":true,"point":true,"properties":[{"name":"r","type":"int","value":22},{"name":"color","type":"string","value":"#ffe7a8"},{"name":"window","type":"bool","value":true}]},{"id":32,"name":"","type":"light","x":392,"y":131,"width":0,"height":0,"rotation":0,"visible":true,"point":true,"properties":[{"name":"r","type":"int","value":22},{"name":"color","type":"string","value":"#ffe7a8"},{"name":"window","type":"bool","value":true}]},{"id":33,"name":"","type":"light","x":408,"y":131,"width":0,"height":0,"rotation":0,"visible":true,"point":true,"properties":[{"name":"r","type":"int","value":22},{"name":"color","type":"string","value":"#ffe7a8"},{"name":"window","type":"bool","value":true}]},{"id":34,"name":"","type":"light","x":344,"y":104,"width":0,"height":0,"rotation":0,"visible":true,"point":true,"properties":[{"name":"r","type":"int","value":22},{"name":"color","type":"string","value":"#ffe7a8"},{"name":"window","type":"bool","value":true}]},{"id":35,"name":"","type":"light","x":376,"y":104,"width":0,"height":0,"rotation":0,"visible":true,"point":true,"properties":[{"name":"r","type":"int","value":22},{"name":"color","type":"string","value":"#ffe7a8"},{"name":"window","type":"bool","value":true}]},{"id":36,"name":"","type":"light","x":408,"y":104,"width":0,"height":0,"rotation":0,"visible":true,"point":true,"properties":[{"name":"r","type":"int","value":22},{"name":"color","type":"string","value":"#ffe7a8"},{"name":"window","type":"bool","value":true}]},{"id":37,"name":"","type":"light","x":488,"y":147,"width":0,"height":0,"rotation":0,"visible":true,"point":true,"properties":[{"name":"r","type":"int","value":22},{"name":"color","type":"string","value":"#ffe7a8"},{"name":"window","type":"bool","value":true}]},{"id":38,"name":"","type":"light","x":504,"y":147,"width":0,"height":0,"rotation":0,"visible":true,"point":true,"properties":[{"name":"r","type":"int","value":22},{"name":"color","type":"string","value":"#ffe7a8"},{"name":"window","type":"bool","value":true}]},{"id":39,"name":"","type":"light","x":520,"y":147,"width":0,"height":0,"rotation":0,"visible":true,"point":true,"properties":[{"name":"r","type":"int","value":22},{"name":"color","type":"string","value":"#ffe7a8"},{"name":"window","type":"bool","value":true}]},{"id":40,"name":"","type":"light","x":552,"y":147,"width":0,"height":0,"rotation":0,"visible":true,"point":true,"properties":[{"name":"r","type":"int","value":22},{"name":"color","type":"string","value":"#ffe7a8"},{"name":"window","type":"bool","value":true}]},{"id":41,"name":"","type":"light","x":568,"y":147,"width":0,"height":0,"rotation":0,"visible":true,"point":true,"properties":[{"name":"r","type":"int","value":22},{"name":"color","type":"string","value":"#ffe7a8"},{"name":"window","type":"bool","value":true}]},{"id":42,"name":"","type":"light","x":488,"y":88,"width":0,"height":0,"rotation":0,"visible":true,"point":true,"properties":[{"name":"r","type":"int","value":22},{"name":"color","type":"string","value":"#ffe7a8"},{"name":"window","type":"bool","value":true}]},{"id":43,"name":"","type":"light","x":504,"y":88,"width":0,"height":0,"rotation":0,"visible":true,"point":true,"properties":[{"name":"r","type":"int","value":22},{"name":"color","type":"string","value":"#ffe7a8"},{"name":"window","type":"bool","value":true}]},{"id":44,"name":"","type":"light","x":520,"y":88,"width":0,"height":0,"rotation":0,"visible":true,"point":true,"properties":[{"name":"r","type":"int","value":22},{"name":"color","type":"string","value":"#ffe7a8"},{"name":"window","type":"bool","value":true}]},{"id":45,"name":"","type":"light","x":536,"y":88,"width":0,"height":0,"rotation":0,"visible":true,"point":true,"properties":[{"name":"r","type":"int","value":22},{"name":"color","type":"string","value":"#ffe7a8"},{"name":"window","type":"bool","value":true}]},{"id":46,"name":"","type":"light","x":552,"y":88,"width":0,"height":0,"rotation":0,"visible":true,"point":true,"properties":[{"name":"r","type":"int","value":22},{"name":"color","type":"string","value":"#ffe7a8"},{"name":"window","type":"bool","value":true}]},{"id":47,"name":"","type":"light","x":568,"y":88,"width":0,"height":0,"rotation":0,"visible":true,"point":true,"properties":[{"name":"r","type":"int","value":22},{"name":"color","type":"string","value":"#ffe7a8"},{"name":"window","type":"bool","value":true}]},{"id":48,"name":"","type":"light","x":120,"y":435,"width":0,"height":0,"rotation":0,"visible":true,"point":true,"properties":[{"name":"r","type":"int","value":22},{"name":"color","type":"string","value":"#ffe7a8"},{"name":"window","type":"bool","value":true}]},{"id":49,"name":"","type":"light","x":136,"y":435,"width":0,"height":0,"rotation":0,"visible":true,"point":true,"properties":[{"name":"r","type":"int","value":22},{"name":"color","type":"string","value":"#ffe7a8"},{"name":"window","type":"bool","value":true}]},{"id":50,"name":"","type":"light","x":168,"y":435,"width":0,"height":0,"rotation":0,"visible":true,"point":true,"properties":[{"name":"r","type":"int","value":22},{"name":"color","type":"string","value":"#ffe7a8"},{"name":"window","type":"bool","value":true}]},{"id":51,"name":"","type":"light","x":184,"y":435,"width":0,"height":0,"rotation":0,"visible":true,"point":true,"properties":[{"name":"r","type":"int","value":22},{"name":"color","type":"string","value":"#ffe7a8"},{"name":"window","type":"bool","value":true}]},{"id":52,"name":"","type":"light","x":424,"y":451,"width":0,"height":0,"rotation":0,"visible":true,"point":true,"properties":[{"name":"r","type":"int","value":22},{"name":"color","type":"string","value":"#ffe7a8"},{"name":"window","type":"bool","value":true}]},{"id":53,"name":"","type":"light","x":440,"y":451,"width":0,"height":0,"rotation":0,"visible":true,"point":true,"properties":[{"name":"r","type":"int","value":22},{"name":"color","type":"string","value":"#ffe7a8"},{"name":"window","type":"bool","value":true}]},{"id":54,"name":"","type":"light","x":456,"y":451,"width":0,"height":0,"rotation":0,"visible":true,"point":true,"properties":[{"name":"r","type":"int","value":22},{"name":"color","type":"string","value":"#ffe7a8"},{"name":"window","type":"bool","value":true}]},{"id":55,"name":"","type":"light","x":488,"y":451,"width":0,"height":0,"rotation":0,"visible":true,"point":true,"properties":[{"name":"r","type":"int","value":22},{"name":"color","type":"string","value":"#ffe7a8"},{"name":"window","type":"bool","value":true}]},{"id":56,"name":"","type":"light","x":504,"y":451,"width":0,"height":0,"rotation":0,"visible":true,"point":true,"properties":[{"name":"r","type":"int","value":22},{"name":"color","type":"string","value":"#ffe7a8"},{"name":"window","type":"bool","value":true}]},{"id":57,"name":"","type":"light","x":424,"y":424,"width":0,"height":0,"rotation":0,"visible":true,"point":true,"properties":[{"name":"r","type":"int","value":22},{"name":"color","type":"string","value":"#ffe7a8"},{"name":"window","type":"bool","value":true}]},{"id":58,"name":"","type":"light","x":456,"y":424,"width":0,"height":0,"rotation":0,"visible":true,"point":true,"properties":[{"name":"r","type":"int","value":22},{"name":"color","type":"string","value":"#ffe7a8"},{"name":"window","type":"bool","value":true}]},{"id":59,"name":"","type":"light","x":488,"y":424,"width":0,"height":0,"rotation":0,"visible":true,"point":true,"properties":[{"name":"r","type":"int","value":22},{"name":"color","type":"string","value":"#ffe7a8"},{"name":"window","type":"bool","value":true}]},{"id":60,"name":"","type":"light","x":520,"y":424,"width":0,"height":0,"rotation":0,"visible":true,"point":true,"properties":[{"name":"r","type":"int","value":22},{"name":"color","type":"string","value":"#ffe7a8"},{"name":"window","type":"bool","value":true}]},{"id":61,"name":"","type":"light","x":344,"y":224,"width":0,"height":0,"rotation":0,"visible":true,"point":true,"properties":[{"name":"r","type":"int","value":18},{"name":"color","type":"string","value":"#8ae8ff"},{"name":"window","type":"bool","value":false}]},{"id":62,"name":"","type":"light","x":296,"y":192,"width":0,"height":0,"rotation":0,"visible":true,"point":true,"properties":[{"name":"r","type":"int","value":18},{"name":"color","type":"string","value":"#b89aff"},{"name":"window","type":"bool","value":false}]},{"id":63,"name":"","type":"light","x":408,"y":192,"width":0,"height":0,"rotation":0,"visible":true,"point":true,"properties":[{"name":"r","type":"int","value":18},{"name":"color","type":"string","value":"#b89aff"},{"name":"window","type":"bool","value":false}]},{"id":64,"name":"","type":"light","x":296,"y":256,"width":0,"height":0,"rotation":0,"visible":true,"point":true,"properties":[{"name":"r","type":"int","value":18},{"name":"color","type":"string","value":"#b89aff"},{"name":"window","type":"bool","value":false}]},{"id":65,"name":"","type":"light","x":408,"y":256,"width":0,"height":0,"rotation":0,"visible":true,"point":true,"properties":[{"name":"r","type":"int","value":18},{"name":"color","type":"string","value":"#b89aff"},{"name":"window","type":"bool","value":false}]},{"id":66,"name":"","type":"light","x":232,"y":352,"width":0,"height":0,"rotation":0,"visible":true,"point":true,"properties":[{"name":"r","type":"int","value":18},{"name":"color","type":"string","value":"#8ae8ff"},{"name":"window","type":"bool","value":false}]},{"id":67,"name":"","type":"light","x":72,"y":192,"width":0,"height":0,"rotation":0,"visible":true,"point":true,"properties":[{"name":"r","type":"int","value":18},{"name":"color","type":"string","value":"#8ae8ff"},{"name":"window","type":"bool","value":false}]},{"id":68,"name":"","type":"light","x":552,"y":336,"width":0,"height":0,"rotation":0,"visible":true,"point":true,"properties":[{"name":"r","type":"int","value":18},{"name":"color","type":"string","value":"#8ae8ff"},{"name":"window","type":"bool","value":false}]},{"id":69,"name":"","type":"light","x":360,"y":544,"width":0,"height":0,"rotation":0,"visible":true,"point":true,"properties":[{"name":"r","type":"int","value":18},{"name":"color","type":"string","value":"#8ae8ff"},{"name":"window","type":"bool","value":false}]},{"id":70,"name":"","type":"light","x":56,"y":544,"width":0,"height":0,"rotation":0,"visible":true,"point":true,"properties":[{"name":"r","type":"int","value":18},{"name":"color","type":"string","value":"#8ae8ff"},{"name":"window","type":"bool","value":false}]},{"id":71,"name":"","type":"light","x":248,"y":48,"width":0,"height":0,"rotation":0,"visible":true,"point":true,"properties":[{"name":"r","type":"int","value":18},{"name":"color","type":"string","value":"#8ae8ff"},{"name":"window","type":"bool","value":false}]}]}],"tilesets":[{"firstgid":1,"name":"world","image":"../tilesets/world.png","imagewidth":1024,"imageheight":784,"tilewidth":16,"tileheight":16,"tilecount":3126,"columns":64,"margin":0,"spacing":0,"tiles":[{"id":18,"animation":[{"tileid":18,"duration":220},{"tileid":19,"duration":220},{"tileid":20,"duration":220},{"tileid":21,"duration":220}]},{"id":22,"animation":[{"tileid":22,"duration":220},{"tileid":23,"duration":220},{"tileid":24,"duration":220},{"tileid":25,"duration":220}]},{"id":26,"animation":[{"tileid":26,"duration":220},{"tileid":27,"duration":220},{"tileid":28,"duration":220},{"tileid":29,"duration":220}]},{"id":30,"animation":[{"tileid":30,"duration":220},{"tileid":31,"duration":220},{"tileid":32,"duration":220},{"tileid":33,"duration":220}]},{"id":34,"animation":[{"tileid":34,"duration":220},{"tileid":35,"duration":220},{"tileid":36,"duration":220},{"tileid":37,"duration":220}]},{"id":38,"animation":[{"tileid":38,"duration":220},{"tileid":39,"duration":220},{"tileid":40,"duration":220},{"tileid":41,"duration":220}]},{"id":42,"animation":[{"tileid":42,"duration":220},{"tileid":43,"duration":220},{"tileid":44,"duration":220},{"tileid":45,"duration":220}]},{"id":46,"animation":[{"tileid":46,"duration":220},{"tileid":47,"duration":220},{"tileid":48,"duration":220},{"tileid":49,"duration":220}]},{"id":50,"animation":[{"tileid":50,"duration":220},{"tileid":51,"duration":220},{"tileid":52,"duration":220},{"tileid":53,"duration":220}]},{"id":54,"animation":[{"tileid":54,"duration":220},{"tileid":55,"duration":220},{"tileid":56,"duration":220},{"tileid":57,"duration":220}]},{"id":58,"animation":[{"tileid":58,"duration":220},{"tileid":59,"duration":220},{"tileid":60,"duration":220},{"tileid":61,"duration":220}]},{"id":62,"animation":[{"tileid":62,"duration":220},{"tileid":63,"duration":220},{"tileid":64,"duration":220},{"tileid":65,"duration":220}]},{"id":66,"animation":[{"tileid":66,"duration":220},{"tileid":67,"duration":220},{"tileid":68,"duration":220},{"tileid":69,"duration":220}]},{"id":70,"animation":[{"tileid":70,"duration":220},{"tileid":71,"duration":220},{"tileid":72,"duration":220},{"tileid":73,"duration":220}]},{"id":74,"animation":[{"tileid":74,"duration":220},{"tileid":75,"duration":220},{"tileid":76,"duration":220},{"tileid":77,"duration":220}]},{"id":78,"animation":[{"tileid":78,"duration":220},{"tileid":79,"duration":220},{"tileid":80,"duration":220},{"tileid":81,"duration":220}]},{"id":82,"animation":[{"tileid":82,"duration":220},{"tileid":83,"duration":220},{"tileid":84,"duration":220},{"tileid":85,"duration":220}]},{"id":86,"animation":[{"tileid":86,"duration":220},{"tileid":87,"duration":220},{"tileid":88,"duration":220},{"tileid":89,"duration":220}]},{"id":90,"animation":[{"tileid":90,"duration":220},{"tileid":91,"duration":220},{"tileid":92,"duration":220},{"tileid":93,"duration":220}]},{"id":94,"animation":[{"tileid":94,"duration":220},{"tileid":95,"duration":220},{"tileid":96,"duration":220},{"tileid":97,"duration":220}]},{"id":98,"animation":[{"tileid":98,"duration":220},{"tileid":99,"duration":220},{"tileid":100,"duration":220},{"tileid":101,"duration":220}]},{"id":102,"animation":[{"tileid":102,"duration":220},{"tileid":103,"duration":220},{"tileid":104,"duration":220},{"tileid":105,"duration":220}]},{"id":106,"animation":[{"tileid":106,"duration":220},{"tileid":107,"duration":220},{"tileid":108,"duration":220},{"tileid":109,"duration":220}]},{"id":269,"animation":[{"tileid":269,"duration":220},{"tileid":270,"duration":220},{"tileid":271,"duration":220},{"tileid":272,"duration":220}]},{"id":273,"animation":[{"tileid":273,"duration":220},{"tileid":274,"duration":220},{"tileid":275,"duration":220},{"tileid":276,"duration":220}]},{"id":282,"animation":[{"tileid":282,"duration":220},{"tileid":283,"duration":220},{"tileid":284,"duration":220},{"tileid":285,"duration":220}]},{"id":286,"animation":[{"tileid":286,"duration":220},{"tileid":287,"duration":220},{"tileid":288,"duration":220},{"tileid":289,"duration":220}]},{"id":290,"animation":[{"tileid":290,"duration":220},{"tileid":291,"duration":220},{"tileid":292,"duration":220},{"tileid":293,"duration":220}]},{"id":294,"animation":[{"tileid":294,"duration":220},{"tileid":295,"duration":220},{"tileid":296,"duration":220},{"tileid":297,"duration":220}]},{"id":298,"animation":[{"tileid":298,"duration":220},{"tileid":299,"duration":220},{"tileid":300,"duration":220},{"tileid":301,"duration":220}]},{"id":302,"animation":[{"tileid":302,"duration":220},{"tileid":303,"duration":220},{"tileid":304,"duration":220},{"tileid":305,"duration":220}]},{"id":312,"animation":[{"tileid":312,"duration":220},{"tileid":313,"duration":220},{"tileid":314,"duration":220},{"tileid":315,"duration":220}]},{"id":316,"animation":[{"tileid":316,"duration":220},{"tileid":317,"duration":220},{"tileid":318,"duration":220},{"tileid":319,"duration":220}]},{"id":320,"animation":[{"tileid":320,"duration":220},{"tileid":321,"duration":220},{"tileid":322,"duration":220},{"tileid":323,"duration":220}]},{"id":324,"animation":[{"tileid":324,"duration":220},{"tileid":325,"duration":220},{"tileid":326,"duration":220},{"tileid":327,"duration":220}]},{"id":328,"animation":[{"tileid":328,"duration":220},{"tileid":329,"duration":220},{"tileid":330,"duration":220},{"tileid":331,"duration":220}]},{"id":332,"animation":[{"tileid":332,"duration":220},{"tileid":333,"duration":220},{"tileid":334,"duration":220},{"tileid":335,"duration":220}]},{"id":340,"animation":[{"tileid":340,"duration":220},{"tileid":341,"duration":220},{"tileid":342,"duration":220},{"tileid":343,"duration":220}]},{"id":344,"animation":[{"tileid":344,"duration":220},{"tileid":345,"duration":220},{"tileid":346,"duration":220},{"tileid":347,"duration":220}]},{"id":502,"animation":[{"tileid":502,"duration":220},{"tileid":503,"duration":220},{"tileid":504,"duration":220},{"tileid":505,"duration":220}]},{"id":506,"animation":[{"tileid":506,"duration":220},{"tileid":507,"duration":220},{"tileid":508,"duration":220},{"tileid":509,"duration":220}]},{"id":545,"animation":[{"tileid":545,"duration":220},{"tileid":546,"duration":220},{"tileid":547,"duration":220},{"tileid":548,"duration":220}]},{"id":549,"animation":[{"tileid":549,"duration":220},{"tileid":550,"duration":220},{"tileid":551,"duration":220},{"tileid":552,"duration":220}]},{"id":553,"animation":[{"tileid":553,"duration":220},{"tileid":554,"duration":220},{"tileid":555,"duration":220},{"tileid":556,"duration":220}]},{"id":557,"animation":[{"tileid":557,"duration":220},{"tileid":558,"duration":220},{"tileid":559,"duration":220},{"tileid":560,"duration":220}]},{"id":563,"animation":[{"tileid":563,"duration":220},{"tileid":564,"duration":220},{"tileid":565,"duration":220},{"tileid":566,"duration":220}]},{"id":567,"animation":[{"tileid":567,"duration":220},{"tileid":568,"duration":220},{"tileid":569,"duration":220},{"tileid":570,"duration":220}]},{"id":571,"animation":[{"tileid":571,"duration":220},{"tileid":572,"duration":220},{"tileid":573,"duration":220},{"tileid":574,"duration":220}]},{"id":575,"animation":[{"tileid":575,"duration":220},{"tileid":576,"duration":220},{"tileid":577,"duration":220},{"tileid":578,"duration":220}]},{"id":945,"animation":[{"tileid":945,"duration":220},{"tileid":946,"duration":220},{"tileid":947,"duration":220},{"tileid":948,"duration":220}]},{"id":949,"animation":[{"tileid":949,"duration":220},{"tileid":950,"duration":220},{"tileid":951,"duration":220},{"tileid":952,"duration":220}]},{"id":953,"animation":[{"tileid":953,"duration":220},{"tileid":954,"duration":220},{"tileid":955,"duration":220},{"tileid":956,"duration":220}]},{"id":957,"animation":[{"tileid":957,"duration":220},{"tileid":958,"duration":220},{"tileid":959,"duration":220},{"tileid":960,"duration":220}]},{"id":962,"animation":[{"tileid":962,"duration":220},{"tileid":963,"duration":220},{"tileid":964,"duration":220},{"tileid":965,"duration":220}]},{"id":966,"animation":[{"tileid":966,"duration":220},{"tileid":967,"duration":220},{"tileid":968,"duration":220},{"tileid":969,"duration":220}]},{"id":972,"animation":[{"tileid":972,"duration":220},{"tileid":973,"duration":220},{"tileid":974,"duration":220},{"tileid":975,"duration":220}]},{"id":977,"animation":[{"tileid":977,"duration":220},{"tileid":978,"duration":220},{"tileid":979,"duration":220},{"tileid":980,"duration":220}]},{"id":981,"animation":[{"tileid":981,"duration":220},{"tileid":982,"duration":220},{"tileid":983,"duration":220},{"tileid":984,"duration":220}]},{"id":993,"animation":[{"tileid":993,"duration":220},{"tileid":994,"duration":220},{"tileid":995,"duration":220},{"tileid":996,"duration":220}]},{"id":1018,"animation":[{"tileid":1018,"duration":220},{"tileid":1019,"duration":220},{"tileid":1020,"duration":220},{"tileid":1021,"duration":220}]},{"id":1022,"animation":[{"tileid":1022,"duration":220},{"tileid":1023,"duration":220},{"tileid":1024,"duration":220},{"tileid":1025,"duration":220}]},{"id":1032,"animation":[{"tileid":1032,"duration":220},{"tileid":1033,"duration":220},{"tileid":1034,"duration":220},{"tileid":1035,"duration":220}]},{"id":1036,"animation":[{"tileid":1036,"duration":220},{"tileid":1037,"duration":220},{"tileid":1038,"duration":220},{"tileid":1039,"duration":220}]},{"id":1062,"animation":[{"tileid":1062,"duration":220},{"tileid":1063,"duration":220},{"tileid":1064,"duration":220},{"tileid":1065,"duration":220}]},{"id":1066,"animation":[{"tileid":1066,"duration":220},{"tileid":1067,"duration":220},{"tileid":1068,"duration":220},{"tileid":1069,"duration":220}]},{"id":1070,"animation":[{"tileid":1070,"duration":220},{"tileid":1071,"duration":220},{"tileid":1072,"duration":220},{"tileid":1073,"duration":220}]},{"id":1074,"animation":[{"tileid":1074,"duration":220},{"tileid":1075,"duration":220},{"tileid":1076,"duration":220},{"tileid":1077,"duration":220}]},{"id":1078,"animation":[{"tileid":1078,"duration":220},{"tileid":1079,"duration":220},{"tileid":1080,"duration":220},{"tileid":1081,"duration":220}]},{"id":1082,"animation":[{"tileid":1082,"duration":220},{"tileid":1083,"duration":220},{"tileid":1084,"duration":220},{"tileid":1085,"duration":220}]},{"id":1095,"animation":[{"tileid":1095,"duration":220},{"tileid":1096,"duration":220},{"tileid":1097,"duration":220},{"tileid":1098,"duration":220}]},{"id":1106,"animation":[{"tileid":1106,"duration":220},{"tileid":1107,"duration":220},{"tileid":1108,"duration":220},{"tileid":1109,"duration":220}]},{"id":1125,"animation":[{"tileid":1125,"duration":220},{"tileid":1126,"duration":220},{"tileid":1127,"duration":220},{"tileid":1128,"duration":220}]},{"id":1129,"animation":[{"tileid":1129,"duration":220},{"tileid":1130,"duration":220},{"tileid":1131,"duration":220},{"tileid":1132,"duration":220}]},{"id":1133,"animation":[{"tileid":1133,"duration":220},{"tileid":1134,"duration":220},{"tileid":1135,"duration":220},{"tileid":1136,"duration":220}]},{"id":1137,"animation":[{"tileid":1137,"duration":220},{"tileid":1138,"duration":220},{"tileid":1139,"duration":220},{"tileid":1140,"duration":220}]},{"id":1152,"animation":[{"tileid":1152,"duration":220},{"tileid":1153,"duration":220},{"tileid":1154,"duration":220},{"tileid":1155,"duration":220}]},{"id":1156,"animation":[{"tileid":1156,"duration":220},{"tileid":1157,"duration":220},{"tileid":1158,"duration":220},{"tileid":1159,"duration":220}]},{"id":1160,"animation":[{"tileid":1160,"duration":220},{"tileid":1161,"duration":220},{"tileid":1162,"duration":220},{"tileid":1163,"duration":220}]},{"id":1174,"animation":[{"tileid":1174,"duration":220},{"tileid":1175,"duration":220},{"tileid":1176,"duration":220},{"tileid":1177,"duration":220}]},{"id":1180,"animation":[{"tileid":1180,"duration":220},{"tileid":1181,"duration":220},{"tileid":1182,"duration":220},{"tileid":1183,"duration":220}]},{"id":1201,"animation":[{"tileid":1201,"duration":220},{"tileid":1202,"duration":220},{"tileid":1203,"duration":220},{"tileid":1204,"duration":220}]},{"id":1205,"animation":[{"tileid":1205,"duration":220},{"tileid":1206,"duration":220},{"tileid":1207,"duration":220},{"tileid":1208,"duration":220}]},{"id":1209,"animation":[{"tileid":1209,"duration":220},{"tileid":1210,"duration":220},{"tileid":1211,"duration":220},{"tileid":1212,"duration":220}]},{"id":1213,"animation":[{"tileid":1213,"duration":220},{"tileid":1214,"duration":220},{"tileid":1215,"duration":220},{"tileid":1216,"duration":220}]},{"id":1217,"animation":[{"tileid":1217,"duration":220},{"tileid":1218,"duration":220},{"tileid":1219,"duration":220},{"tileid":1220,"duration":220}]},{"id":1263,"animation":[{"tileid":1263,"duration":220},{"tileid":1264,"duration":220},{"tileid":1265,"duration":220},{"tileid":1266,"duration":220}]},{"id":1271,"animation":[{"tileid":1271,"duration":220},{"tileid":1272,"duration":220},{"tileid":1273,"duration":220},{"tileid":1274,"duration":220}]},{"id":1277,"animation":[{"tileid":1277,"duration":220},{"tileid":1278,"duration":220},{"tileid":1279,"duration":220},{"tileid":1280,"duration":220}]},{"id":1317,"animation":[{"tileid":1317,"duration":220},{"tileid":1318,"duration":220},{"tileid":1319,"duration":220},{"tileid":1320,"duration":220}]},{"id":1562,"animation":[{"tileid":1562,"duration":220},{"tileid":1563,"duration":220},{"tileid":1564,"duration":220},{"tileid":1565,"duration":220}]},{"id":1566,"animation":[{"tileid":1566,"duration":220},{"tileid":1567,"duration":220},{"tileid":1568,"duration":220},{"tileid":1569,"duration":220}]},{"id":1570,"animation":[{"tileid":1570,"duration":220},{"tileid":1571,"duration":220},{"tileid":1572,"duration":220},{"tileid":1573,"duration":220}]},{"id":1574,"animation":[{"tileid":1574,"duration":220},{"tileid":1575,"duration":220},{"tileid":1576,"duration":220},{"tileid":1577,"duration":220}]},{"id":1581,"animation":[{"tileid":1581,"duration":220},{"tileid":1582,"duration":220},{"tileid":1583,"duration":220},{"tileid":1584,"duration":220}]},{"id":1585,"animation":[{"tileid":1585,"duration":220},{"tileid":1586,"duration":220},{"tileid":1587,"duration":220},{"tileid":1588,"duration":220}]},{"id":1589,"animation":[{"tileid":1589,"duration":220},{"tileid":1590,"duration":220},{"tileid":1591,"duration":220},{"tileid":1592,"duration":220}]},{"id":1593,"animation":[{"tileid":1593,"duration":220},{"tileid":1594,"duration":220},{"tileid":1595,"duration":220},{"tileid":1596,"duration":220}]},{"id":1598,"animation":[{"tileid":1598,"duration":220},{"tileid":1599,"duration":220},{"tileid":1600,"duration":220},{"tileid":1601,"duration":220}]},{"id":1602,"animation":[{"tileid":1602,"duration":220},{"tileid":1603,"duration":220},{"tileid":1604,"duration":220},{"tileid":1605,"duration":220}]},{"id":1606,"animation":[{"tileid":1606,"duration":220},{"tileid":1607,"duration":220},{"tileid":1608,"duration":220},{"tileid":1609,"duration":220}]},{"id":1610,"animation":[{"tileid":1610,"duration":220},{"tileid":1611,"duration":220},{"tileid":1612,"duration":220},{"tileid":1613,"duration":220}]},{"id":1614,"animation":[{"tileid":1614,"duration":220},{"tileid":1615,"duration":220},{"tileid":1616,"duration":220},{"tileid":1617,"duration":220}]},{"id":1620,"animation":[{"tileid":1620,"duration":220},{"tileid":1621,"duration":220},{"tileid":1622,"duration":220},{"tileid":1623,"duration":220}]},{"id":1624,"animation":[{"tileid":1624,"duration":220},{"tileid":1625,"duration":220},{"tileid":1626,"duration":220},{"tileid":1627,"duration":220}]},{"id":1630,"animation":[{"tileid":1630,"duration":220},{"tileid":1631,"duration":220},{"tileid":1632,"duration":220},{"tileid":1633,"duration":220},{"tileid":1634,"duration":220},{"tileid":1635,"duration":220},{"tileid":1636,"duration":220},{"tileid":1637,"duration":220}]},{"id":1638,"animation":[{"tileid":1638,"duration":220},{"tileid":1639,"duration":220},{"tileid":1640,"duration":220},{"tileid":1641,"duration":220},{"tileid":1642,"duration":220},{"tileid":1643,"duration":220},{"tileid":1644,"duration":220},{"tileid":1645,"duration":220}]},{"id":1646,"animation":[{"tileid":1646,"duration":220},{"tileid":1647,"duration":220},{"tileid":1648,"duration":220},{"tileid":1649,"duration":220},{"tileid":1650,"duration":220},{"tileid":1651,"duration":220},{"tileid":1652,"duration":220},{"tileid":1653,"duration":220}]},{"id":1654,"animation":[{"tileid":1654,"duration":220},{"tileid":1655,"duration":220},{"tileid":1656,"duration":220},{"tileid":1657,"duration":220},{"tileid":1658,"duration":220},{"tileid":1659,"duration":220},{"tileid":1660,"duration":220},{"tileid":1661,"duration":220}]},{"id":1662,"animation":[{"tileid":1662,"duration":220},{"tileid":1663,"duration":220},{"tileid":1664,"duration":220},{"tileid":1665,"duration":220},{"tileid":1666,"duration":220},{"tileid":1667,"duration":220},{"tileid":1668,"duration":220},{"tileid":1669,"duration":220}]},{"id":1670,"animation":[{"tileid":1670,"duration":220},{"tileid":1671,"duration":220},{"tileid":1672,"duration":220},{"tileid":1673,"duration":220},{"tileid":1674,"duration":220},{"tileid":1675,"duration":220},{"tileid":1676,"duration":220},{"tileid":1677,"duration":220}]},{"id":1678,"animation":[{"tileid":1678,"duration":220},{"tileid":1679,"duration":220},{"tileid":1680,"duration":220},{"tileid":1681,"duration":220},{"tileid":1682,"duration":220},{"tileid":1683,"duration":220},{"tileid":1684,"duration":220},{"tileid":1685,"duration":220}]},{"id":1686,"animation":[{"tileid":1686,"duration":220},{"tileid":1687,"duration":220},{"tileid":1688,"duration":220},{"tileid":1689,"duration":220},{"tileid":1690,"duration":220},{"tileid":1691,"duration":220},{"tileid":1692,"duration":220},{"tileid":1693,"duration":220}]},{"id":1694,"animation":[{"tileid":1694,"duration":220},{"tileid":1695,"duration":220},{"tileid":1696,"duration":220},{"tileid":1697,"duration":220},{"tileid":1698,"duration":220},{"tileid":1699,"duration":220},{"tileid":1700,"duration":220},{"tileid":1701,"duration":220}]},{"id":1702,"animation":[{"tileid":1702,"duration":220},{"tileid":1703,"duration":220},{"tileid":1704,"duration":220},{"tileid":1705,"duration":220},{"tileid":1706,"duration":220},{"tileid":1707,"duration":220},{"tileid":1708,"duration":220},{"tileid":1709,"duration":220}]},{"id":1710,"animation":[{"tileid":1710,"duration":220},{"tileid":1711,"duration":220},{"tileid":1712,"duration":220},{"tileid":1713,"duration":220},{"tileid":1714,"duration":220},{"tileid":1715,"duration":220},{"tileid":1716,"duration":220},{"tileid":1717,"duration":220}]},{"id":1718,"animation":[{"tileid":1718,"duration":220},{"tileid":1719,"duration":220},{"tileid":1720,"duration":220},{"tileid":1721,"duration":220},{"tileid":1722,"duration":220},{"tileid":1723,"duration":220},{"tileid":1724,"duration":220},{"tileid":1725,"duration":220}]},{"id":1726,"animation":[{"tileid":1726,"duration":220},{"tileid":1727,"duration":220},{"tileid":1728,"duration":220},{"tileid":1729,"duration":220},{"tileid":1730,"duration":220},{"tileid":1731,"duration":220},{"tileid":1732,"duration":220},{"tileid":1733,"duration":220}]},{"id":1734,"animation":[{"tileid":1734,"duration":220},{"tileid":1735,"duration":220},{"tileid":1736,"duration":220},{"tileid":1737,"duration":220},{"tileid":1738,"duration":220},{"tileid":1739,"duration":220},{"tileid":1740,"duration":220},{"tileid":1741,"duration":220}]},{"id":1742,"animation":[{"tileid":1742,"duration":220},{"tileid":1743,"duration":220},{"tileid":1744,"duration":220},{"tileid":1745,"duration":220},{"tileid":1746,"duration":220},{"tileid":1747,"duration":220},{"tileid":1748,"duration":220},{"tileid":1749,"duration":220}]},{"id":1750,"animation":[{"tileid":1750,"duration":220},{"tileid":1751,"duration":220},{"tileid":1752,"duration":220},{"tileid":1753,"duration":220},{"tileid":1754,"duration":220},{"tileid":1755,"duration":220},{"tileid":1756,"duration":220},{"tileid":1757,"duration":220}]},{"id":1758,"animation":[{"tileid":1758,"duration":220},{"tileid":1759,"duration":220},{"tileid":1760,"duration":220},{"tileid":1761,"duration":220},{"tileid":1762,"duration":220},{"tileid":1763,"duration":220},{"tileid":1764,"duration":220},{"tileid":1765,"duration":220}]},{"id":1766,"animation":[{"tileid":1766,"duration":220},{"tileid":1767,"duration":220},{"tileid":1768,"duration":220},{"tileid":1769,"duration":220},{"tileid":1770,"duration":220},{"tileid":1771,"duration":220},{"tileid":1772,"duration":220},{"tileid":1773,"duration":220}]},{"id":1774,"animation":[{"tileid":1774,"duration":220},{"tileid":1775,"duration":220},{"tileid":1776,"duration":220},{"tileid":1777,"duration":220},{"tileid":1778,"duration":220},{"tileid":1779,"duration":220},{"tileid":1780,"duration":220},{"tileid":1781,"duration":220}]},{"id":1782,"animation":[{"tileid":1782,"duration":220},{"tileid":1783,"duration":220},{"tileid":1784,"duration":220},{"tileid":1785,"duration":220},{"tileid":1786,"duration":220},{"tileid":1787,"duration":220},{"tileid":1788,"duration":220},{"tileid":1789,"duration":220}]},{"id":1790,"animation":[{"tileid":1790,"duration":220},{"tileid":1791,"duration":220},{"tileid":1792,"duration":220},{"tileid":1793,"duration":220},{"tileid":1794,"duration":220},{"tileid":1795,"duration":220},{"tileid":1796,"duration":220},{"tileid":1797,"duration":220}]},{"id":1798,"animation":[{"tileid":1798,"duration":220},{"tileid":1799,"duration":220},{"tileid":1800,"duration":220},{"tileid":1801,"duration":220},{"tileid":1802,"duration":220},{"tileid":1803,"duration":220},{"tileid":1804,"duration":220},{"tileid":1805,"duration":220}]},{"id":1806,"animation":[{"tileid":1806,"duration":220},{"tileid":1807,"duration":220},{"tileid":1808,"duration":220},{"tileid":1809,"duration":220},{"tileid":1810,"duration":220},{"tileid":1811,"duration":220},{"tileid":1812,"duration":220},{"tileid":1813,"duration":220}]},{"id":1814,"animation":[{"tileid":1814,"duration":220},{"tileid":1815,"duration":220},{"tileid":1816,"duration":220},{"tileid":1817,"duration":220},{"tileid":1818,"duration":220},{"tileid":1819,"duration":220},{"tileid":1820,"duration":220},{"tileid":1821,"duration":220}]},{"id":1825,"animation":[{"tileid":1825,"duration":220},{"tileid":1826,"duration":220},{"tileid":1827,"duration":220},{"tileid":1828,"duration":220},{"tileid":1829,"duration":220},{"tileid":1830,"duration":220},{"tileid":1831,"duration":220},{"tileid":1832,"duration":220}]},{"id":1833,"animation":[{"tileid":1833,"duration":220},{"tileid":1834,"duration":220},{"tileid":1835,"duration":220},{"tileid":1836,"duration":220},{"tileid":1837,"duration":220},{"tileid":1838,"duration":220},{"tileid":1839,"duration":220},{"tileid":1840,"duration":220}]},{"id":1841,"animation":[{"tileid":1841,"duration":220},{"tileid":1842,"duration":220},{"tileid":1843,"duration":220},{"tileid":1844,"duration":220},{"tileid":1845,"duration":220},{"tileid":1846,"duration":220},{"tileid":1847,"duration":220},{"tileid":1848,"duration":220}]},{"id":1849,"animation":[{"tileid":1849,"duration":220},{"tileid":1850,"duration":220},{"tileid":1851,"duration":220},{"tileid":1852,"duration":220},{"tileid":1853,"duration":220},{"tileid":1854,"duration":220},{"tileid":1855,"duration":220},{"tileid":1856,"duration":220}]},{"id":1857,"animation":[{"tileid":1857,"duration":220},{"tileid":1858,"duration":220},{"tileid":1859,"duration":220},{"tileid":1860,"duration":220},{"tileid":1861,"duration":220},{"tileid":1862,"duration":220},{"tileid":1863,"duration":220},{"tileid":1864,"duration":220}]},{"id":1865,"animation":[{"tileid":1865,"duration":220},{"tileid":1866,"duration":220},{"tileid":1867,"duration":220},{"tileid":1868,"duration":220},{"tileid":1869,"duration":220},{"tileid":1870,"duration":220},{"tileid":1871,"duration":220},{"tileid":1872,"duration":220}]},{"id":1873,"animation":[{"tileid":1873,"duration":220},{"tileid":1874,"duration":220},{"tileid":1875,"duration":220},{"tileid":1876,"duration":220},{"tileid":1877,"duration":220},{"tileid":1878,"duration":220},{"tileid":1879,"duration":220},{"tileid":1880,"duration":220}]},{"id":1881,"animation":[{"tileid":1881,"duration":220},{"tileid":1882,"duration":220},{"tileid":1883,"duration":220},{"tileid":1884,"duration":220},{"tileid":1885,"duration":220},{"tileid":1886,"duration":220},{"tileid":1887,"duration":220},{"tileid":1888,"duration":220}]},{"id":1903,"animation":[{"tileid":1903,"duration":220},{"tileid":1904,"duration":220},{"tileid":1905,"duration":220},{"tileid":1906,"duration":220}]},{"id":1907,"animation":[{"tileid":1907,"duration":220},{"tileid":1908,"duration":220},{"tileid":1909,"duration":220},{"tileid":1910,"duration":220}]},{"id":1914,"animation":[{"tileid":1914,"duration":220},{"tileid":1915,"duration":220},{"tileid":1916,"duration":220},{"tileid":1917,"duration":220}]},{"id":1918,"animation":[{"tileid":1918,"duration":220},{"tileid":1919,"duration":220},{"tileid":1920,"duration":220},{"tileid":1921,"duration":220}]},{"id":1922,"animation":[{"tileid":1922,"duration":220},{"tileid":1923,"duration":220},{"tileid":1924,"duration":220},{"tileid":1925,"duration":220}]},{"id":1926,"animation":[{"tileid":1926,"duration":220},{"tileid":1927,"duration":220},{"tileid":1928,"duration":220},{"tileid":1929,"duration":220}]},{"id":1931,"animation":[{"tileid":1931,"duration":220},{"tileid":1932,"duration":220},{"tileid":1933,"duration":220},{"tileid":1934,"duration":220}]},{"id":1935,"animation":[{"tileid":1935,"duration":220},{"tileid":1936,"duration":220},{"tileid":1937,"duration":220},{"tileid":1938,"duration":220}]},{"id":1939,"animation":[{"tileid":1939,"duration":220},{"tileid":1940,"duration":220},{"tileid":1941,"duration":220},{"tileid":1942,"duration":220}]},{"id":1945,"animation":[{"tileid":1945,"duration":220},{"tileid":1946,"duration":220},{"tileid":1947,"duration":220},{"tileid":1948,"duration":220}]},{"id":1949,"animation":[{"tileid":1949,"duration":220},{"tileid":1950,"duration":220},{"tileid":1951,"duration":220},{"tileid":1952,"duration":220}]},{"id":1958,"animation":[{"tileid":1958,"duration":220},{"tileid":1959,"duration":220},{"tileid":1960,"duration":220},{"tileid":1961,"duration":220},{"tileid":1962,"duration":220},{"tileid":1963,"duration":220},{"tileid":1964,"duration":220},{"tileid":1965,"duration":220}]},{"id":1967,"animation":[{"tileid":1967,"duration":220},{"tileid":1968,"duration":220},{"tileid":1969,"duration":220},{"tileid":1970,"duration":220}]},{"id":1973,"animation":[{"tileid":1973,"duration":220},{"tileid":1974,"duration":220},{"tileid":1975,"duration":220},{"tileid":1976,"duration":220}]},{"id":1979,"animation":[{"tileid":1979,"duration":220},{"tileid":1980,"duration":220},{"tileid":1981,"duration":220},{"tileid":1982,"duration":220}]},{"id":1984,"animation":[{"tileid":1984,"duration":220},{"tileid":1985,"duration":220},{"tileid":1986,"duration":220},{"tileid":1987,"duration":220}]},{"id":1988,"animation":[{"tileid":1988,"duration":220},{"tileid":1989,"duration":220},{"tileid":1990,"duration":220},{"tileid":1991,"duration":220}]},{"id":1993,"animation":[{"tileid":1993,"duration":220},{"tileid":1994,"duration":220},{"tileid":1995,"duration":220},{"tileid":1996,"duration":220}]},{"id":1998,"animation":[{"tileid":1998,"duration":220},{"tileid":1999,"duration":220},{"tileid":2000,"duration":220},{"tileid":2001,"duration":220}]},{"id":2002,"animation":[{"tileid":2002,"duration":220},{"tileid":2003,"duration":220},{"tileid":2004,"duration":220},{"tileid":2005,"duration":220}]},{"id":2006,"animation":[{"tileid":2006,"duration":220},{"tileid":2007,"duration":220},{"tileid":2008,"duration":220},{"tileid":2009,"duration":220}]},{"id":2011,"animation":[{"tileid":2011,"duration":220},{"tileid":2012,"duration":220},{"tileid":2013,"duration":220},{"tileid":2014,"duration":220}]},{"id":2015,"animation":[{"tileid":2015,"duration":220},{"tileid":2016,"duration":220},{"tileid":2017,"duration":220},{"tileid":2018,"duration":220}]},{"id":2019,"animation":[{"tileid":2019,"duration":220},{"tileid":2020,"duration":220},{"tileid":2021,"duration":220},{"tileid":2022,"duration":220}]},{"id":2023,"animation":[{"tileid":2023,"duration":220},{"tileid":2024,"duration":220},{"tileid":2025,"duration":220},{"tileid":2026,"duration":220}]},{"id":2027,"animation":[{"tileid":2027,"duration":220},{"tileid":2028,"duration":220},{"tileid":2029,"duration":220},{"tileid":2030,"duration":220}]},{"id":2031,"animation":[{"tileid":2031,"duration":220},{"tileid":2032,"duration":220},{"tileid":2033,"duration":220},{"tileid":2034,"duration":220}]},{"id":2036,"animation":[{"tileid":2036,"duration":220},{"tileid":2037,"duration":220},{"tileid":2038,"duration":220},{"tileid":2039,"duration":220}]},{"id":2068,"animation":[{"tileid":2068,"duration":220},{"tileid":2069,"duration":220},{"tileid":2070,"duration":220},{"tileid":2071,"duration":220}]},{"id":2072,"animation":[{"tileid":2072,"duration":220},{"tileid":2073,"duration":220},{"tileid":2074,"duration":220},{"tileid":2075,"duration":220}]},{"id":2076,"animation":[{"tileid":2076,"duration":220},{"tileid":2077,"duration":220},{"tileid":2078,"duration":220},{"tileid":2079,"duration":220}]},{"id":2080,"animation":[{"tileid":2080,"duration":220},{"tileid":2081,"duration":220},{"tileid":2082,"duration":220},{"tileid":2083,"duration":220}]},{"id":2084,"animation":[{"tileid":2084,"duration":220},{"tileid":2085,"duration":220},{"tileid":2086,"duration":220},{"tileid":2087,"duration":220}]},{"id":2088,"animation":[{"tileid":2088,"duration":220},{"tileid":2089,"duration":220},{"tileid":2090,"duration":220},{"tileid":2091,"duration":220}]},{"id":2092,"animation":[{"tileid":2092,"duration":220},{"tileid":2093,"duration":220},{"tileid":2094,"duration":220},{"tileid":2095,"duration":220}]},{"id":2096,"animation":[{"tileid":2096,"duration":220},{"tileid":2097,"duration":220},{"tileid":2098,"duration":220},{"tileid":2099,"duration":220}]},{"id":2100,"animation":[{"tileid":2100,"duration":220},{"tileid":2101,"duration":220},{"tileid":2102,"duration":220},{"tileid":2103,"duration":220}]},{"id":2104,"animation":[{"tileid":2104,"duration":220},{"tileid":2105,"duration":220},{"tileid":2106,"duration":220},{"tileid":2107,"duration":220}]},{"id":2108,"animation":[{"tileid":2108,"duration":220},{"tileid":2109,"duration":220},{"tileid":2110,"duration":220},{"tileid":2111,"duration":220}]},{"id":2112,"animation":[{"tileid":2112,"duration":220},{"tileid":2113,"duration":220},{"tileid":2114,"duration":220},{"tileid":2115,"duration":220}]},{"id":2116,"animation":[{"tileid":2116,"duration":220},{"tileid":2117,"duration":220},{"tileid":2118,"duration":220},{"tileid":2119,"duration":220}]},{"id":2120,"animation":[{"tileid":2120,"duration":220},{"tileid":2121,"duration":220},{"tileid":2122,"duration":220},{"tileid":2123,"duration":220}]},{"id":2124,"animation":[{"tileid":2124,"duration":220},{"tileid":2125,"duration":220},{"tileid":2126,"duration":220},{"tileid":2127,"duration":220}]},{"id":2128,"animation":[{"tileid":2128,"duration":220},{"tileid":2129,"duration":220},{"tileid":2130,"duration":220},{"tileid":2131,"duration":220}]},{"id":2133,"animation":[{"tileid":2133,"duration":220},{"tileid":2134,"duration":220},{"tileid":2135,"duration":220},{"tileid":2136,"duration":220}]},{"id":2137,"animation":[{"tileid":2137,"duration":220},{"tileid":2138,"duration":220},{"tileid":2139,"duration":220},{"tileid":2140,"duration":220}]},{"id":2141,"animation":[{"tileid":2141,"duration":220},{"tileid":2142,"duration":220},{"tileid":2143,"duration":220},{"tileid":2144,"duration":220}]},{"id":2145,"animation":[{"tileid":2145,"duration":220},{"tileid":2146,"duration":220},{"tileid":2147,"duration":220},{"tileid":2148,"duration":220}]},{"id":2151,"animation":[{"tileid":2151,"duration":220},{"tileid":2152,"duration":220},{"tileid":2153,"duration":220},{"tileid":2154,"duration":220}]},{"id":2155,"animation":[{"tileid":2155,"duration":220},{"tileid":2156,"duration":220},{"tileid":2157,"duration":220},{"tileid":2158,"duration":220}]},{"id":2159,"animation":[{"tileid":2159,"duration":220},{"tileid":2160,"duration":220},{"tileid":2161,"duration":220},{"tileid":2162,"duration":220}]},{"id":2163,"animation":[{"tileid":2163,"duration":220},{"tileid":2164,"duration":220},{"tileid":2165,"duration":220},{"tileid":2166,"duration":220}]},{"id":2167,"animation":[{"tileid":2167,"duration":220},{"tileid":2168,"duration":220},{"tileid":2169,"duration":220},{"tileid":2170,"duration":220}]},{"id":2173,"animation":[{"tileid":2173,"duration":220},{"tileid":2174,"duration":220},{"tileid":2175,"duration":220},{"tileid":2176,"duration":220}]},{"id":2177,"animation":[{"tileid":2177,"duration":220},{"tileid":2178,"duration":220},{"tileid":2179,"duration":220},{"tileid":2180,"duration":220}]},{"id":2249,"animation":[{"tileid":2249,"duration":220},{"tileid":2250,"duration":220},{"tileid":2251,"duration":220},{"tileid":2252,"duration":220}]},{"id":2253,"animation":[{"tileid":2253,"duration":220},{"tileid":2254,"duration":220},{"tileid":2255,"duration":220},{"tileid":2256,"duration":220}]},{"id":2260,"animation":[{"tileid":2260,"duration":220},{"tileid":2261,"duration":220},{"tileid":2262,"duration":220},{"tileid":2263,"duration":220}]},{"id":2264,"animation":[{"tileid":2264,"duration":220},{"tileid":2265,"duration":220},{"tileid":2266,"duration":220},{"tileid":2267,"duration":220}]},{"id":2268,"animation":[{"tileid":2268,"duration":220},{"tileid":2269,"duration":220},{"tileid":2270,"duration":220},{"tileid":2271,"duration":220}]},{"id":2272,"animation":[{"tileid":2272,"duration":220},{"tileid":2273,"duration":220},{"tileid":2274,"duration":220},{"tileid":2275,"duration":220}]},{"id":2279,"animation":[{"tileid":2279,"duration":220},{"tileid":2280,"duration":220},{"tileid":2281,"duration":220},{"tileid":2282,"duration":220}]},{"id":2283,"animation":[{"tileid":2283,"duration":220},{"tileid":2284,"duration":220},{"tileid":2285,"duration":220},{"tileid":2286,"duration":220}]},{"id":2399,"animation":[{"tileid":2399,"duration":220},{"tileid":2400,"duration":220},{"tileid":2401,"duration":220},{"tileid":2402,"duration":220}]},{"id":2403,"animation":[{"tileid":2403,"duration":220},{"tileid":2404,"duration":220},{"tileid":2405,"duration":220},{"tileid":2406,"duration":220}]},{"id":2407,"animation":[{"tileid":2407,"duration":220},{"tileid":2408,"duration":220},{"tileid":2409,"duration":220},{"tileid":2410,"duration":220}]},{"id":2411,"animation":[{"tileid":2411,"duration":220},{"tileid":2412,"duration":220},{"tileid":2413,"duration":220},{"tileid":2414,"duration":220}]},{"id":2415,"animation":[{"tileid":2415,"duration":220},{"tileid":2416,"duration":220},{"tileid":2417,"duration":220},{"tileid":2418,"duration":220}]},{"id":2419,"animation":[{"tileid":2419,"duration":220},{"tileid":2420,"duration":220},{"tileid":2421,"duration":220},{"tileid":2422,"duration":220}]},{"id":2423,"animation":[{"tileid":2423,"duration":220},{"tileid":2424,"duration":220},{"tileid":2425,"duration":220},{"tileid":2426,"duration":220}]},{"id":2427,"animation":[{"tileid":2427,"duration":220},{"tileid":2428,"duration":220},{"tileid":2429,"duration":220},{"tileid":2430,"duration":220}]},{"id":2431,"animation":[{"tileid":2431,"duration":220},{"tileid":2432,"duration":220},{"tileid":2433,"duration":220},{"tileid":2434,"duration":220}]},{"id":2438,"animation":[{"tileid":2438,"duration":220},{"tileid":2439,"duration":220},{"tileid":2440,"duration":220},{"tileid":2441,"duration":220}]},{"id":2442,"animation":[{"tileid":2442,"duration":220},{"tileid":2443,"duration":220},{"tileid":2444,"duration":220},{"tileid":2445,"duration":220}]},{"id":2446,"animation":[{"tileid":2446,"duration":220},{"tileid":2447,"duration":220},{"tileid":2448,"duration":220},{"tileid":2449,"duration":220}]},{"id":2453,"animation":[{"tileid":2453,"duration":220},{"tileid":2454,"duration":220},{"tileid":2455,"duration":220},{"tileid":2456,"duration":220}]},{"id":2457,"animation":[{"tileid":2457,"duration":220},{"tileid":2458,"duration":220},{"tileid":2459,"duration":220},{"tileid":2460,"duration":220}]},{"id":2462,"animation":[{"tileid":2462,"duration":220},{"tileid":2463,"duration":220},{"tileid":2464,"duration":220},{"tileid":2465,"duration":220}]},{"id":2466,"animation":[{"tileid":2466,"duration":220},{"tileid":2467,"duration":220},{"tileid":2468,"duration":220},{"tileid":2469,"duration":220}]},{"id":2473,"animation":[{"tileid":2473,"duration":220},{"tileid":2474,"duration":220},{"tileid":2475,"duration":220},{"tileid":2476,"duration":220}]},{"id":2477,"animation":[{"tileid":2477,"duration":220},{"tileid":2478,"duration":220},{"tileid":2479,"duration":220},{"tileid":2480,"duration":220}]},{"id":2481,"animation":[{"tileid":2481,"duration":220},{"tileid":2482,"duration":220},{"tileid":2483,"duration":220},{"tileid":2484,"duration":220}]},{"id":2488,"animation":[{"tileid":2488,"duration":220},{"tileid":2489,"duration":220},{"tileid":2490,"duration":220},{"tileid":2491,"duration":220}]},{"id":2511,"animation":[{"tileid":2511,"duration":220},{"tileid":2512,"duration":220},{"tileid":2513,"duration":220},{"tileid":2514,"duration":220}]},{"id":2515,"animation":[{"tileid":2515,"duration":220},{"tileid":2516,"duration":220},{"tileid":2517,"duration":220},{"tileid":2518,"duration":220}]},{"id":2519,"animation":[{"tileid":2519,"duration":220},{"tileid":2520,"duration":220},{"tileid":2521,"duration":220},{"tileid":2522,"duration":220}]},{"id":2523,"animation":[{"tileid":2523,"duration":220},{"tileid":2524,"duration":220},{"tileid":2525,"duration":220},{"tileid":2526,"duration":220}]},{"id":2527,"animation":[{"tileid":2527,"duration":220},{"tileid":2528,"duration":220},{"tileid":2529,"duration":220},{"tileid":2530,"duration":220}]},{"id":2536,"animation":[{"tileid":2536,"duration":220},{"tileid":2537,"duration":220},{"tileid":2538,"duration":220},{"tileid":2539,"duration":220}]},{"id":2540,"animation":[{"tileid":2540,"duration":220},{"tileid":2541,"duration":220},{"tileid":2542,"duration":220},{"tileid":2543,"duration":220}]},{"id":2544,"animation":[{"tileid":2544,"duration":220},{"tileid":2545,"duration":220},{"tileid":2546,"duration":220},{"tileid":2547,"duration":220}]},{"id":2552,"animation":[{"tileid":2552,"duration":220},{"tileid":2553,"duration":220},{"tileid":2554,"duration":220},{"tileid":2555,"duration":220}]},{"id":2558,"animation":[{"tileid":2558,"duration":220},{"tileid":2559,"duration":220},{"tileid":2560,"duration":220},{"tileid":2561,"duration":220}]},{"id":2566,"animation":[{"tileid":2566,"duration":220},{"tileid":2567,"duration":220},{"tileid":2568,"duration":220},{"tileid":2569,"duration":220}]},{"id":2570,"animation":[{"tileid":2570,"duration":220},{"tileid":2571,"duration":220},{"tileid":2572,"duration":220},{"tileid":2573,"duration":220}]},{"id":2825,"animation":[{"tileid":2825,"duration":220},{"tileid":2826,"duration":220},{"tileid":2827,"duration":220},{"tileid":2828,"duration":220}]},{"id":2829,"animation":[{"tileid":2829,"duration":220},{"tileid":2830,"duration":220},{"tileid":2831,"duration":220},{"tileid":2832,"duration":220}]},{"id":2833,"animation":[{"tileid":2833,"duration":220},{"tileid":2834,"duration":220},{"tileid":2835,"duration":220},{"tileid":2836,"duration":220}]},{"id":2837,"animation":[{"tileid":2837,"duration":220},{"tileid":2838,"duration":220},{"tileid":2839,"duration":220},{"tileid":2840,"duration":220}]},{"id":2841,"animation":[{"tileid":2841,"duration":220},{"tileid":2842,"duration":220},{"tileid":2843,"duration":220},{"tileid":2844,"duration":220}]},{"id":2847,"animation":[{"tileid":2847,"duration":220},{"tileid":2848,"duration":220},{"tileid":2849,"duration":220},{"tileid":2850,"duration":220}]},{"id":2851,"animation":[{"tileid":2851,"duration":220},{"tileid":2852,"duration":220},{"tileid":2853,"duration":220},{"tileid":2854,"duration":220}]},{"id":2857,"animation":[{"tileid":2857,"duration":220},{"tileid":2858,"duration":220},{"tileid":2859,"duration":220},{"tileid":2860,"duration":220}]},{"id":2861,"animation":[{"tileid":2861,"duration":220},{"tileid":2862,"duration":220},{"tileid":2863,"duration":220},{"tileid":2864,"duration":220}]},{"id":2865,"animation":[{"tileid":2865,"duration":220},{"tileid":2866,"duration":220},{"tileid":2867,"duration":220},{"tileid":2868,"duration":220}]},{"id":2869,"animation":[{"tileid":2869,"duration":220},{"tileid":2870,"duration":220},{"tileid":2871,"duration":220},{"tileid":2872,"duration":220}]},{"id":2873,"animation":[{"tileid":2873,"duration":220},{"tileid":2874,"duration":220},{"tileid":2875,"duration":220},{"tileid":2876,"duration":220}]},{"id":2877,"animation":[{"tileid":2877,"duration":220},{"tileid":2878,"duration":220},{"tileid":2879,"duration":220},{"tileid":2880,"duration":220}]},{"id":2881,"animation":[{"tileid":2881,"duration":220},{"tileid":2882,"duration":220},{"tileid":2883,"duration":220},{"tileid":2884,"duration":220}]},{"id":2885,"animation":[{"tileid":2885,"duration":220},{"tileid":2886,"duration":220},{"tileid":2887,"duration":220},{"tileid":2888,"duration":220}]},{"id":2892,"animation":[{"tileid":2892,"duration":220},{"tileid":2893,"duration":220},{"tileid":2894,"duration":220},{"tileid":2895,"duration":220}]},{"id":2901,"animation":[{"tileid":2901,"duration":220},{"tileid":2902,"duration":220},{"tileid":2903,"duration":220},{"tileid":2904,"duration":220}]},{"id":2905,"animation":[{"tileid":2905,"duration":220},{"tileid":2906,"duration":220},{"tileid":2907,"duration":220},{"tileid":2908,"duration":220}]},{"id":2909,"animation":[{"tileid":2909,"duration":220},{"tileid":2910,"duration":220},{"tileid":2911,"duration":220},{"tileid":2912,"duration":220}]},{"id":2913,"animation":[{"tileid":2913,"duration":220},{"tileid":2914,"duration":220},{"tileid":2915,"duration":220},{"tileid":2916,"duration":220}]},{"id":2917,"animation":[{"tileid":2917,"duration":220},{"tileid":2918,"duration":220},{"tileid":2919,"duration":220},{"tileid":2920,"duration":220}]},{"id":2921,"animation":[{"tileid":2921,"duration":220},{"tileid":2922,"duration":220},{"tileid":2923,"duration":220},{"tileid":2924,"duration":220}]},{"id":2925,"animation":[{"tileid":2925,"duration":220},{"tileid":2926,"duration":220},{"tileid":2927,"duration":220},{"tileid":2928,"duration":220}]},{"id":2929,"animation":[{"tileid":2929,"duration":220},{"tileid":2930,"duration":220},{"tileid":2931,"duration":220},{"tileid":2932,"duration":220}]},{"id":2933,"animation":[{"tileid":2933,"duration":220},{"tileid":2934,"duration":220},{"tileid":2935,"duration":220},{"tileid":2936,"duration":220}]},{"id":2937,"animation":[{"tileid":2937,"duration":220},{"tileid":2938,"duration":220},{"tileid":2939,"duration":220},{"tileid":2940,"duration":220}]},{"id":2941,"animation":[{"tileid":2941,"duration":220},{"tileid":2942,"duration":220},{"tileid":2943,"duration":220},{"tileid":2944,"duration":220}]},{"id":2945,"animation":[{"tileid":2945,"duration":220},{"tileid":2946,"duration":220},{"tileid":2947,"duration":220},{"tileid":2948,"duration":220}]},{"id":2949,"animation":[{"tileid":2949,"duration":220},{"tileid":2950,"duration":220},{"tileid":2951,"duration":220},{"tileid":2952,"duration":220}]},{"id":2953,"animation":[{"tileid":2953,"duration":220},{"tileid":2954,"duration":220},{"tileid":2955,"duration":220},{"tileid":2956,"duration":220}]},{"id":2957,"animation":[{"tileid":2957,"duration":220},{"tileid":2958,"duration":220},{"tileid":2959,"duration":220},{"tileid":2960,"duration":220}]},{"id":2961,"animation":[{"tileid":2961,"duration":220},{"tileid":2962,"duration":220},{"tileid":2963,"duration":220},{"tileid":2964,"duration":220}]},{"id":2965,"animation":[{"tileid":2965,"duration":220},{"tileid":2966,"duration":220},{"tileid":2967,"duration":220},{"tileid":2968,"duration":220}]},{"id":2969,"animation":[{"tileid":2969,"duration":220},{"tileid":2970,"duration":220},{"tileid":2971,"duration":220},{"tileid":2972,"duration":220}]},{"id":2973,"animation":[{"tileid":2973,"duration":220},{"tileid":2974,"duration":220},{"tileid":2975,"duration":220},{"tileid":2976,"duration":220}]},{"id":2977,"animation":[{"tileid":2977,"duration":220},{"tileid":2978,"duration":220},{"tileid":2979,"duration":220},{"tileid":2980,"duration":220}]},{"id":2981,"animation":[{"tileid":2981,"duration":220},{"tileid":2982,"duration":220},{"tileid":2983,"duration":220},{"tileid":2984,"duration":220}]},{"id":2985,"animation":[{"tileid":2985,"duration":220},{"tileid":2986,"duration":220},{"tileid":2987,"duration":220},{"tileid":2988,"duration":220}]},{"id":2989,"animation":[{"tileid":2989,"duration":220},{"tileid":2990,"duration":220},{"tileid":2991,"duration":220},{"tileid":2992,"duration":220}]},{"id":2993,"animation":[{"tileid":2993,"duration":220},{"tileid":2994,"duration":220},{"tileid":2995,"duration":220},{"tileid":2996,"duration":220}]},{"id":2997,"animation":[{"tileid":2997,"duration":220},{"tileid":2998,"duration":220},{"tileid":2999,"duration":220},{"tileid":3000,"duration":220}]},{"id":3001,"animation":[{"tileid":3001,"duration":220},{"tileid":3002,"duration":220},{"tileid":3003,"duration":220},{"tileid":3004,"duration":220}]},{"id":3007,"animation":[{"tileid":3007,"duration":220},{"tileid":3008,"duration":220},{"tileid":3009,"duration":220},{"tileid":3010,"duration":220}]},{"id":3012,"animation":[{"tileid":3012,"duration":220},{"tileid":3013,"duration":220},{"tileid":3014,"duration":220},{"tileid":3015,"duration":220}]},{"id":3016,"animation":[{"tileid":3016,"duration":220},{"tileid":3017,"duration":220},{"tileid":3018,"duration":220},{"tileid":3019,"duration":220}]},{"id":3021,"animation":[{"tileid":3021,"duration":220},{"tileid":3022,"duration":220},{"tileid":3023,"duration":220},{"tileid":3024,"duration":220}]},{"id":3025,"animation":[{"tileid":3025,"duration":220},{"tileid":3026,"duration":220},{"tileid":3027,"duration":220},{"tileid":3028,"duration":220}]},{"id":3029,"animation":[{"tileid":3029,"duration":220},{"tileid":3030,"duration":220},{"tileid":3031,"duration":220},{"tileid":3032,"duration":220}]},{"id":3033,"animation":[{"tileid":3033,"duration":220},{"tileid":3034,"duration":220},{"tileid":3035,"duration":220},{"tileid":3036,"duration":220}]},{"id":3037,"animation":[{"tileid":3037,"duration":220},{"tileid":3038,"duration":220},{"tileid":3039,"duration":220},{"tileid":3040,"duration":220}]},{"id":3041,"animation":[{"tileid":3041,"duration":220},{"tileid":3042,"duration":220},{"tileid":3043,"duration":220},{"tileid":3044,"duration":220}]},{"id":3045,"animation":[{"tileid":3045,"duration":220},{"tileid":3046,"duration":220},{"tileid":3047,"duration":220},{"tileid":3048,"duration":220}]},{"id":3049,"animation":[{"tileid":3049,"duration":220},{"tileid":3050,"duration":220},{"tileid":3051,"duration":220},{"tileid":3052,"duration":220}]},{"id":3053,"animation":[{"tileid":3053,"duration":220},{"tileid":3054,"duration":220},{"tileid":3055,"duration":220},{"tileid":3056,"duration":220}]},{"id":3057,"animation":[{"tileid":3057,"duration":220},{"tileid":3058,"duration":220},{"tileid":3059,"duration":220},{"tileid":3060,"duration":220}]}]},{"firstgid":3127,"name":"meta","image":"../tilesets/meta.png","imagewidth":176,"imageheight":16,"tilewidth":16,"tileheight":16,"tilecount":11,"columns":11,"margin":0,"spacing":0,"tiles":[{"id":0,"properties":[{"name":"behavior","type":"string","value":"none"}]},{"id":1,"properties":[{"name":"behavior","type":"string","value":"solid"}]},{"id":2,"properties":[{"name":"behavior","type":"string","value":"water"}]},{"id":3,"properties":[{"name":"behavior","type":"string","value":"grass"}]},{"id":4,"properties":[{"name":"behavior","type":"string","value":"ledge_down"}]},{"id":5,"properties":[{"name":"behavior","type":"string","value":"ledge_left"}]},{"id":6,"properties":[{"name":"behavior","type":"string","value":"ledge_right"}]},{"id":7,"properties":[{"name":"behavior","type":"string","value":"counter"}]},{"id":8,"properties":[{"name":"behavior","type":"string","value":"door"}]},{"id":9,"properties":[{"name":"behavior","type":"string","value":"bridge"}]},{"id":10,"properties":[{"name":"behavior","type":"string","value":"noenc"}]}]}]}