{"type":"map","version":"1.10","tiledversion":"1.10.2","orientation":"orthogonal","renderorder":"right-down","width":44,"height":40,"tilewidth":16,"tileheight":16,"infinite":false,"nextlayerid":6,"nextobjectid":26,"properties":[{"name":"kind","type":"string","value":"route"},{"name":"name","type":"string","value":"Thornwild"},{"name":"base","type":"string","value":"forest"},{"name":"music","type":"string","value":"forest"},{"name":"battle","type":"string","value":"forest"},{"name":"west","type":"string","value":"route2 0"},{"name":"south","type":"string","value":"saltreach 0"}],"layers":[{"id":1,"name":"ground","type":"tilelayer","width":44,"height":40,"x":0,"y":0,"opacity":1,"visible":true,"data":[3126,3126,3129,3126,3129,3129,3130,3131,3129,3131,3130,3126,3130,3130,3130,3129,3129,3131,3131,3126,3129,3129,3126,3131,3130,3129,3126,3130,3129,3129,3126,3130,3130,3130,3130,3126,3126,3129,3129,3126,3126,3129,3129,3129,3131,3129,3130,3126,3129,3130,3129,3129,3130,3129,3130,3130,3131,3126,3131,3131,3131,3131,3130,3126,3126,3129,3130,3130,3130,3126,3129,3126,3130,3130,3130,3131,3130,3131,3126,3130,3126,3131,3131,3131,3131,3130,3130,3131,3130,3130,3131,3131,3131,3131,3131,3126,3126,3126,3130,3126,3129,3129,3130,3131,3129,3131,3129,3131,3129,3129,3126,3130,3126,3130,3130,3130,3131,3129,3129,3131,3126,3131,3126,3130,3126,3129,3130,3129,3130,3126,3129,3129,3126,3126,3131,3130,3126,3131,3130,3130,3129,3126,3130,3131,3126,3130,3130,3131,3126,3129,3126,3130,3131,3130,3131,3131,3130,3131,3131,3129,3131,3131,3129,3130,3130,3130,3129,3129,3131,3130,3129,3129,3129,3129,3126,3126,3131,3131,3131,3131,3130,3130,3126,3129,3126,3126,3129,3129,3131,3131,3126,3130,3130,3130,3130,3131,3129,3129,3126,3130,3130,3126,3130,3131,3130,3126,3131,3126,3130,3126,3126,3126,3130,3126,3129,3130,3131,3131,3129,3129,3126,3130,3129,3131,3129,3131,3126,3130,3129,3130,3131,3129,3130,3126,3131,3130,3130,3130,3130,3129,3129,3129,3131,3131,3130,3130,3131,3131,3126,3129,3131,3130,3126,3131,3130,3130,3126,3129,3129,3129,3131,3126,3126,3130,3126,3126,3130,3130,3126,3131,3131,3131,3130,3126,3131,3129,3126,3126,3129,3131,3130,3126,3126,3129,3126,3130,3131,3129,3126,3131,3131,3130,3130,3129,3131,3130,3126,3131,3129,3126,3131,3131,3126,3130,3129,3126,3131,3130,3129,3129,3131,3129,3130,3131,3129,3131,3129,3131,3130,3126,3131,3130,3126,3131,3126,3126,3131,3126,3130,3130,3129,3129,3129,3126,3130,3126,3129,3129,3131,3131,3130,3131,3129,3129,3129,3129,3130,3126,3130,3129,3129,3129,3126,3129,3129,3126,3126,3129,3129,3129,3130,3129,3130,3130,3130,3131,3130,3129,3129,3126,3129,3131,3130,3129,3126,3130,3129,3126,3130,3126,3129,3131,3129,3126,3129,3129,3129,3131,3126,3126,3130,3131,3126,3131,3131,3129,3130,3129,3131,3129,3131,3126,3130,3130,3130,3131,3129,3129,3129,3126,3129,3129,3130,3129,3130,3130,3130,3131,3130,3129,3131,3129,3126,3129,3126,3131,3129,3130,3130,3129,3130,3126,3129,3130,3131,3131,3129,3130,3131,3129,3148,3149,3149,3148,3149,3150,3148,3149,3149,3148,3148,3149,3148,3151,3129,3129,3130,3130,3131,3130,3129,3131,3126,3129,3126,3130,3126,3126,3126,3126,3129,3131,3130,3131,3130,3131,3129,3129,3129,3130,3131,3129,3131,3130,3152,3152,3152,3153,3152,3154,3154,3153,3153,3155,3152,3155,3156,3157,3130,3129,3126,3131,3131,3131,3129,3130,3129,3126,3129,3126,3130,3131,3130,3126,3126,3130,3130,3131,3126,3129,3131,3129,3131,3130,3131,3131,3129,3129,3130,3131,3131,3126,3131,3126,3130,3130,3131,3129,3131,3130,3158,3159,3130,3126,3131,3126,3129,3131,3131,3126,3130,3129,3131,3126,3131,3129,3129,3126,3131,3129,3130,3129,3131,3126,3131,3130,3131,3129,3131,3130,3131,3130,3131,3129,3126,3126,3130,3131,3130,3126,3126,3129,3129,3129,3158,3160,3129,3130,3126,3131,3129,3126,3131,3131,3131,3126,3131,3129,3126,3130,3130,3130,3126,3130,3130,3130,3130,3131,3126,3126,3126,3126,3130,3131,3130,3126,3130,3130,3131,3129,3130,3126,3131,3130,3130,3130,3130,3130,3161,3160,3126,3131,3129,3126,3129,3129,3130,3129,3129,3131,3129,3131,3126,3129,3131,3131,3131,3130,3130,3130,3129,3126,3129,3129,3129,3126,3129,3131,3130,3126,3126,3131,3131,3130,3130,3126,3129,3130,3131,3126,3126,3130,3158,3157,3129,3129,3131,3126,3129,3126,3129,3126,3130,3130,3129,3130,3130,3131,3131,3130,3129,3129,3129,3130,3131,3130,3130,3131,3131,3129,3130,3126,3130,3129,3129,3126,3131,3129,3131,3129,3130,3126,3126,3129,3130,3126,3162,3160,3126,3126,3130,3131,3129,3129,3129,3129,3130,3129,3126,3126,3129,3131,3126,3129,3130,3130,3129,3126,3129,3130,3126,3130,3126,3131,3131,3129,3131,3131,3126,3129,3131,3131,3131,3131,3131,3129,3129,3130,3129,3126,3158,3157,3126,3126,3131,3126,3130,3130,3130,3126,3131,3131,3130,3131,3130,3131,3129,3130,3130,3129,3130,3129,3130,3131,3129,3131,3131,3126,3130,3131,3130,3126,3131,3130,3131,3130,3126,3129,3126,3129,3129,3131,3129,3129,3158,3163,3130,3126,3130,3129,3131,3126,3129,3131,3130,3130,3129,3126,3131,3129,3129,3131,3129,3130,3130,3130,3130,3130,3130,3130,3126,3130,3131,3131,3126,3129,3131,3131,3131,3126,3129,3126,3129,3131,3130,3129,3129,3126,3161,3163,3129,3129,3130,3126,3129,3131,3126,3129,3126,3130,3130,3129,3130,3129,3129,3130,3130,3126,3131,3126,3131,3129,3131,3126,3131,3130,3131,3129,3130,3126,3126,3131,3126,3131,3131,3131,3126,3130,3131,3129,3131,3130,3161,3163,3131,3126,3131,3126,3130,3126,3131,3130,3129,3131,3126,3126,3126,3129,3126,3131,3130,3129,3129,3129,3130,3131,3126,3131,3130,3131,3131,3129,3131,3126,3126,3130,3129,3126,3131,3130,3126,3126,3126,3129,3130,3130,3158,3160,3131,3131,3131,3129,3131,3131,3131,3129,3131,3126,3131,3129,3129,3129,3130,3129,3131,3126,3129,3126,3131,3129,3130,3126,3129,3126,3130,3126,3129,3131,3130,3130,3130,3129,3131,3129,3130,3126,3129,3126,3130,3131,3158,3164,3131,3130,3126,3130,3126,3131,3129,3130,3129,3130,3130,3131,3131,3126,3130,3130,3126,3131,3126,3126,3131,3126,3126,3129,3129,3129,3130,3131,3130,3129,3131,3130,3131,3126,3131,3129,3126,3126,3126,3130,3130,3130,3165,3166,3167,3149,3148,3149,3148,3168,3148,3168,3151,3129,3131,3126,3130,3131,3130,3131,3131,3131,3126,3126,3130,3130,3126,3130,3126,3129,3129,3126,3126,3131,3131,3131,3131,3130,3126,3126,3129,3129,3131,3131,3130,3130,3169,3155,3154,3155,3152,3153,3153,3152,3154,3170,3163,3130,3126,3126,3131,3129,3129,3129,3129,3130,3129,3126,3130,3129,3129,3126,3131,3130,3129,3131,3126,3130,3126,3130,3131,3129,3126,3126,3130,3129,3131,3130,3129,3126,3126,3130,3126,3129,3126,3131,3131,3126,3126,3162,3163,3130,3131,3126,3130,3126,3129,3129,3130,3129,3131,3129,3126,3130,3130,3126,3130,3129,3131,3129,3130,3129,3130,3126,3126,3129,3126,3126,3131,3131,3126,3131,3126,3126,3126,3130,3129,3130,3131,3126,3131,3131,3131,3158,3163,3126,3129,3130,3130,3131,3130,3126,3131,3129,3129,3131,3126,3129,3130,3126,3131,3129,3129,3131,3129,3129,3129,3130,3130,3131,3129,3130,3130,3126,3130,3131,3126,3129,3126,3130,3129,3129,3130,3131,3126,3130,3129,3161,3163,3130,3130,3129,3129,3130,3130,3129,3130,3130,3130,3131,3129,3129,3126,3131,3131,3126,3129,3130,3131,3126,3126,3129,3131,3130,3129,3129,3129,3126,3129,3129,3129,3129,3130,3126,3131,3126,3130,3131,3126,3126,3131,3161,3171,3130,3131,3129,3131,3129,3131,3126,3126,3131,3129,3129,3126,3131,3130,3131,3130,3131,3129,3130,3131,3129,3126,3131,3129,3126,3126,3129,3130,3129,3126,3130,3126,3129,3131,3131,3126,3129,3131,3126,3130,3126,3126,3162,3172,3173,3148,3150,3148,3148,3168,3168,3168,3174,3131,3131,3129,3131,3126,3131,3130,3131,3131,3129,3130,3129,3129,3126,3130,3126,3129,3129,3126,3129,3129,3126,3126,3130,3126,3129,3130,3129,3130,3129,3130,3126,3130,3175,3155,3153,3152,3153,3154,3155,3152,3153,3176,3159,3130,3131,3131,3131,3131,3129,3130,3129,3131,3129,3130,3131,3129,3126,3130,3126,3131,3131,3126,3130,3129,3131,3131,3129,3130,3129,3126,3126,3126,3131,3131,3129,3126,3131,3130,3129,3130,3130,3129,3129,3131,3130,3162,3159,3130,3129,3126,3131,3129,3126,3130,3131,3129,3131,3129,3131,3129,3129,3130,3126,3126,3129,3126,3129,3126,3130,3129,3129,3131,3126,3126,3126,3129,3131,3130,3131,3126,3131,3130,3129,3130,3129,3130,3126,3129,3130,3161,3160,3131,3130,3131,3130,3130,3129,3131,3131,3129,3129,3126,3126,3129,3131,3131,3130,3126,3131,3130,3131,3129,3126,3129,3130,3130,3129,3130,3129,3129,3126,3129,3126,3129,3129,3126,3130,3131,3129,3130,3130,3129,3131,3165,3157,3130,3126,3129,3130,3129,3126,3129,3131,3130,3131,3130,3126,3131,3130,3129,3126,3126,3129,3130,3131,3126,3126,3131,3130,3126,3126,3130,3126,3126,3129,3130,3129,3126,3126,3126,3131,3130,3126,3131,3126,3126,3129,3165,3157,3130,3130,3126,3129,3129,3130,3130,3131,3130,3130,3126,3129,3129,3126,3126,3131,3126,3131,3130,3129,3130,3130,3129,3130,3129,3129,3126,3126,3126,3131,3131,3131,3129,3129,3126,3130,3126,3129,3131,3131,3130,3131,3165,3163,3129,3126,3130,3130,3131,3130,3131,3126,3129,3130,3130,3130,3131,3130,3131,3130,3130,3130,3126,3126,3131,3131,3126,3130,3129,3130,3131,3126,3126,3129,3130,3129,3130,3126,3130,3126,3126,3126,3126,3126,3131,3129,3162,3157,3129,3126,3131,3126,3126,3129,3130,3130,3129,3129,3131,3131,3130,3131,3131,3131,3129,3131,3126,3129,3130,3126,3126,3126,3129,3126,3131,3129,3130,3126,3131,3130,3130,3126,3130,3131,3130,3126,3126,3126,3130,3129,3165,3159,3129,3126,3130,3126,3130,3130,3126,3129,3130,3131,3131,3130,3130,3130,3130,3129,3129,3130,3130,3130,3130,3129,3126,3131,3126,3129,3131,3129,3130,3130,3131,3126,3129,3129,3130,3130,3130,3126,3129,3126,3130,3126,3165,3160,3129,3129,3126,3130,3129,3131,3126,3126,3129,3126,3126,3131,3131,3131,3126,3131,3126,3126,3131,3130,3129,3126,3129,3131,3126,3126,3130,3129,3131,3131,3129,3129,3131,3126,3126,3130,3131,3130,3131,3131,3131,3131,3161,3177,3129,3129,3131,3131,3126,3126,3130,3131,3130,3131,3126,3126]},{"id":2,"name":"decor","type":"tilelayer","width":44,"height":40,"x":0,"y":0,"opacity":1,"visible":true,"data":[3127,3128,3127,3128,3127,3128,3127,3128,3127,3128,3127,3128,3127,3128,3127,3128,3127,3128,3127,3128,3127,3128,3127,3128,3127,3128,3127,3128,3127,3128,3127,3128,3127,3128,3127,3128,3127,3128,3127,3128,3127,3128,3127,3128,3132,3134,3132,3134,3132,3134,3132,3134,3132,3134,3132,3134,3132,3134,3132,3134,3132,3134,3132,3134,3132,3134,3132,3134,3132,3134,3132,3134,3132,3134,3132,3134,3132,3134,3132,3134,3132,3134,3132,3134,3132,3134,3132,3134,3136,3137,3136,3137,1753,1761,1769,1777,1785,1793,0,0,0,0,3136,3137,3136,3137,3136,3137,3136,3137,3136,3137,3136,3137,3136,3137,3136,3137,3136,3137,3136,3137,3136,3137,3136,3137,3136,3137,3136,3137,3136,3137,3138,3140,3138,3140,1817,1825,1833,1841,1849,1857,0,0,0,0,3138,3140,3138,3140,3138,3140,3138,3140,3138,3140,3138,3140,3138,3140,3138,3140,3138,3140,3138,3140,3138,3140,3138,3140,3138,3140,3138,3140,3138,3140,3142,3143,3142,3143,0,0,0,0,0,0,0,0,0,0,3142,3143,0,0,2276,2284,2292,2300,2308,2316,2324,2332,0,0,0,0,0,0,0,0,0,0,0,0,0,0,3142,3143,3142,3143,3144,3146,3144,3146,0,0,0,0,0,0,0,0,0,0,3144,3146,0,0,1801,1809,1817,1825,1833,1841,1849,1857,0,0,0,0,0,0,0,0,0,0,0,0,396,0,3144,3146,3144,3146,3127,3128,3127,3128,0,0,0,0,3127,3128,3127,3128,3127,3128,3127,3128,0,0,0,0,0,0,0,0,0,0,247,0,0,0,1785,1793,1737,1745,1753,1761,1769,1777,0,0,3127,3128,3127,3128,3132,3134,3132,3134,0,0,0,0,3132,3134,3132,3134,3132,3134,3132,3134,0,0,0,0,0,0,0,0,0,0,0,0,0,0,1905,1913,1921,1865,1873,1881,1889,1897,0,0,3132,3134,3132,3134,3136,3137,0,0,0,0,0,0,0,0,0,0,0,0,0,0,0,0,0,0,0,0,0,0,0,0,0,0,0,0,1841,1849,1857,1801,395,396,1825,1833,0,0,3136,3137,3136,3137,3138,3140,0,229,0,0,0,0,0,0,0,0,0,0,0,0,0,269,0,0,0,0,0,0,0,0,0,0,0,0,1849,1857,1801,1809,1761,1769,1833,1841,0,0,3138,3140,3138,3140,0,0,0,0,0,0,0,0,0,0,0,0,0,0,0,0,0,0,0,0,0,0,0,0,0,0,0,0,0,0,1913,1921,1865,1873,1881,1889,1897,1905,0,0,3142,3143,3142,3143,0,0,0,0,0,0,0,0,0,0,0,0,0,0,0,0,0,0,0,0,0,0,0,0,0,0,0,0,0,0,1849,1857,1801,1809,1817,1825,1833,1841,0,0,3144,3146,3144,3146,3127,3128,3127,3128,3127,3128,3127,3128,3127,3128,3127,3128,0,0,1737,1745,3127,3128,3127,3128,3127,3128,3127,3128,3127,3128,3127,3128,0,0,0,0,0,0,0,0,0,0,0,0,3127,3128,3127,3128,3132,3134,3132,3134,3132,3134,3132,3134,3132,3134,3132,3134,0,0,1921,1865,3132,3134,3132,3134,3132,3134,3132,3134,3132,3134,3132,3134,0,0,0,0,0,0,0,0,0,0,0,0,3132,3134,3132,3134,3136,3137,3136,3137,3136,3137,3136,3137,3136,3137,3136,3137,0,0,1857,1801,3136,3137,3136,3137,3136,3137,3136,3137,3136,3137,3136,3137,3136,3137,3136,3137,3136,3137,3136,3137,3136,3137,3136,3137,3136,3137,3136,3137,3138,3140,3138,3140,3138,3140,3138,3140,3138,3140,3138,3140,0,0,1801,1809,3138,3140,3138,3140,3138,3140,3138,3140,3138,3140,3138,3140,3138,3140,3138,3140,3138,3140,3138,3140,3138,3140,3138,3140,3138,3140,3138,3140,3142,3143,3142,3143,3142,3143,3142,3143,3142,3143,3142,3143,0,0,1865,1873,3142,3143,3142,3143,3142,3143,3142,3143,3142,3143,3142,3143,3142,3143,3142,3143,3142,3143,3142,3143,3142,3143,3142,3143,3142,3143,3142,3143,3144,3146,3144,3146,3144,3146,3144,3146,3144,3146,3144,3146,0,0,1801,1809,3144,3146,3144,3146,3144,3146,3144,3146,3144,3146,3144,3146,3144,3146,3144,3146,3144,3146,3144,3146,3144,3146,3144,3146,3144,3146,3144,3146,3127,3128,3127,3128,3127,3128,3127,3128,3127,3128,3127,3128,0,0,1809,1817,3127,3128,3127,3128,3127,3128,3127,3128,3127,3128,3127,3128,3127,3128,3127,3128,3127,3128,3127,3128,3127,3128,3127,3128,3127,3128,3127,3128,3132,3134,3132,3134,3132,3134,3132,3134,3132,3134,3132,3134,0,0,1873,1881,3132,3134,3132,3134,3132,3134,3132,3134,3132,3134,3132,3134,3132,3134,3132,3134,3132,3134,3132,3134,3132,3134,3132,3134,3132,3134,3132,3134,3136,3137,3136,3137,3136,3137,3136,3137,3136,3137,3136,3137,0,0,1809,1817,3136,3137,3136,3137,3136,3137,3136,3137,3136,3137,3136,3137,3136,3137,3136,3137,3136,3137,3136,3137,3136,3137,3136,3137,3136,3137,3136,3137,3138,3140,3138,3140,3138,3140,3138,3140,3138,3140,3138,3140,0,0,1817,1825,3138,3140,3138,3140,3138,3140,3138,3140,3138,3140,3138,3140,3138,3140,3138,3140,3138,3140,3138,3140,3138,3140,3138,3140,3138,3140,3138,3140,3142,3143,3142,3143,3142,3143,3142,3143,3142,3143,3142,3143,0,0,0,0,0,0,0,0,0,0,0,0,3142,3143,3142,3143,3142,3143,3142,3143,3142,3143,3142,3143,3142,3143,3142,3143,3142,3143,3142,3143,3144,3146,3144,3146,3144,3146,3144,3146,3144,3146,3144,3146,0,0,0,0,0,0,0,0,0,0,0,0,3144,3146,3144,3146,3144,3146,3144,3146,3144,3146,3144,3146,3144,3146,3144,3146,3144,3146,3144,3146,3127,3128,3127,3128,3127,3128,3127,3128,3127,3128,3127,3128,0,0,0,0,0,0,0,0,0,0,0,0,3127,3128,3127,3128,3127,3128,3127,3128,3127,3128,3127,3128,0,269,0,0,0,0,3127,3128,3132,3134,3132,3134,3132,3134,3132,3134,3132,3134,3132,3134,0,0,0,0,0,0,0,0,0,0,0,0,3132,3134,3132,3134,3132,3134,3132,3134,3132,3134,3132,3134,0,0,0,0,0,0,3132,3134,3136,3137,3136,3137,0,0,0,0,0,0,0,0,0,0,3136,3137,3136,3137,3136,3137,0,0,0,0,0,0,0,0,0,0,0,0,0,0,0,0,0,0,1769,1777,1785,1793,3136,3137,3138,3140,3138,3140,0,0,0,0,0,0,0,0,0,0,3138,3140,3138,3140,3138,3140,258,0,0,0,0,0,0,529,0,0,0,0,0,0,258,0,0,0,1833,1841,1849,1857,3138,3140,3142,3143,3142,3143,0,0,2308,2316,2324,2332,2276,2284,0,0,3142,3143,3142,3143,3142,3143,0,0,0,133,0,0,0,0,0,0,0,0,133,0,0,0,0,0,1897,1905,1913,1921,3142,3143,3144,3146,3144,3146,0,0,1833,1841,1849,1857,1801,1809,0,0,3144,3146,3144,3146,3144,3146,0,0,0,0,0,0,0,0,0,0,0,0,0,0,0,0,0,0,1833,1841,1849,1857,3144,3146,3127,3128,3127,3128,0,0,1841,1849,1857,1801,1809,1817,0,0,3127,3128,3127,3128,3127,3128,0,0,0,0,0,0,0,0,0,0,0,0,0,0,0,0,0,0,1841,1849,1857,1801,3127,3128,3132,3134,3132,3134,0,0,1905,1913,1921,1865,1873,1881,0,0,3132,3134,3132,3134,3132,3134,0,0,0,133,0,0,0,0,0,0,0,0,133,0,0,0,0,0,1905,1913,1921,1865,3132,3134,3136,3137,3136,3137,0,0,1841,1849,1857,1801,1809,1817,0,0,3136,3137,3136,3137,3136,3137,0,258,0,0,0,0,0,0,0,0,0,0,0,0,258,0,3136,3137,3136,3137,3136,3137,3136,3137,3138,3140,3138,3140,0,0,1849,1857,1801,1809,1817,1825,0,0,3138,3140,3138,3140,3138,3140,0,0,0,0,0,0,0,0,0,0,0,0,0,0,0,0,3138,3140,3138,3140,3138,3140,3138,3140,3142,3143,3142,3143,0,0,0,0,0,269,0,0,0,0,3142,3143,3142,3143,3142,3143,3142,3143,3142,3143,3142,3143,3142,3143,3142,3143,0,0,3142,3143,3142,3143,3142,3143,3142,3143,3142,3143,3142,3143,3144,3146,3144,3146,0,0,0,0,0,0,0,0,0,0,3144,3146,3144,3146,3144,3146,3144,3146,3144,3146,3144,3146,3144,3146,3144,3146,0,0,3144,3146,3144,3146,3144,3146,3144,3146,3144,3146,3144,3146,3127,3128,3127,3128,3127,3128,3127,3128,3127,3128,3127,3128,3127,3128,3127,3128,3127,3128,3127,3128,3127,3128,3127,3128,3127,3128,3127,3128,3127,3128,0,0,3127,3128,3127,3128,3127,3128,3127,3128,3127,3128,3127,3128,3132,3134,3132,3134,3132,3134,3132,3134,3132,3134,3132,3134,3132,3134,3132,3134,3132,3134,3132,3134,3132,3134,3132,3134,3132,3134,3132,3134,3132,3134,0,0,3132,3134,3132,3134,3132,3134,3132,3134,3132,3134,3132,3134,3136,3137,3136,3137,3136,3137,3136,3137,3136,3137,3136,3137,3136,3137,3136,3137,3136,3137,3136,3137,3136,3137,3136,3137,3136,3137,3136,3137,3136,3137,0,0,3136,3137,3136,3137,3136,3137,3136,3137,3136,3137,3136,3137,3138,3140,3138,3140,3138,3140,3138,3140,3138,3140,3138,3140,3138,3140,3138,3140,3138,3140,3138,3140,3138,3140,3138,3140,3138,3140,3138,3140,3138,3140,0,0,3138,3140,3138,3140,3138,3140,3138,3140,3138,3140,3138,3140]},{"id":3,"name":"above","type":"tilelayer","width":44,"height":40,"x":0,"y":0,"opacity":1,"visible":true,"data":[0,0,0,0,0,0,0,0,0,0,0,0,0,0,0,0,0,0,0,0,0,0,0,0,0,0,0,0,0,0,0,0,0,0,0,0,0,0,0,0,0,0,0,0,3133,3135,3133,3135,0,0,0,0,0,0,0,0,0,0,3133,3135,3133,3135,3133,3135,3133,3135,3133,3135,3133,3135,3133,3135,3133,3135,3133,3135,3133,3135,3133,3135,3133,3135,3133,3135,3133,3135,3133,3135,0,0,0,0,0,0,0,0,0,0,0,0,0,0,0,0,0,0,0,0,0,0,0,0,0,0,0,0,0,0,0,0,0,0,0,0,0,0,0,0,0,0,0,0,3139,3141,3139,3141,0,0,0,0,0,0,0,0,0,0,3139,3141,0,0,0,0,0,0,0,0,0,0,0,0,0,0,0,0,0,0,0,0,0,0,0,0,3139,3141,3139,3141,0,0,0,0,0,0,0,0,0,0,0,0,0,0,0,0,0,0,0,0,0,0,0,0,0,0,0,0,0,0,0,0,0,0,0,0,0,0,0,0,0,0,0,0,3145,3147,3145,3147,0,0,0,0,3145,3147,3145,3147,3145,3147,3145,3147,0,0,0,0,0,0,0,0,0,0,0,0,0,0,0,0,0,0,0,0,0,0,0,0,3145,3147,3145,3147,0,0,0,0,0,0,0,0,0,0,0,0,0,0,0,0,0,0,0,0,0,0,0,0,0,0,0,0,0,0,0,0,0,0,0,0,0,0,0,0,0,0,0,0,3133,3135,0,0,0,0,0,0,0,0,0,0,0,0,0,0,0,0,0,0,0,0,0,0,0,0,0,0,0,0,0,0,0,0,0,0,0,0,0,0,3133,3135,3133,3135,0,0,0,223,0,0,0,0,0,0,0,0,0,0,0,0,0,0,0,0,0,0,0,0,0,0,0,0,0,0,0,0,0,0,0,0,0,0,0,0,0,0,0,0,0,0,0,0,0,0,0,0,0,0,0,0,0,0,0,0,0,0,0,0,0,0,0,0,0,0,0,0,0,0,0,0,0,0,0,0,0,0,0,0,3139,3141,3139,3141,0,0,0,0,0,0,0,0,0,0,0,0,0,0,0,0,0,0,0,0,0,0,0,0,0,0,0,0,0,0,0,0,0,0,0,0,0,0,0,0,0,0,0,0,3145,3147,3145,3147,3145,3147,3145,3147,3145,3147,3145,3147,0,0,0,0,3145,3147,3145,3147,3145,3147,3145,3147,3145,3147,3145,3147,0,0,0,0,0,0,0,0,0,0,0,0,3145,3147,3145,3147,0,0,0,0,0,0,0,0,0,0,0,0,0,0,0,0,0,0,0,0,0,0,0,0,0,0,0,0,0,0,0,0,0,0,0,0,0,0,0,0,0,0,0,0,3133,3135,3133,3135,3133,3135,3133,3135,3133,3135,3133,3135,0,0,0,0,3133,3135,3133,3135,3133,3135,3133,3135,3133,3135,3133,3135,3133,3135,3133,3135,3133,3135,3133,3135,3133,3135,3133,3135,3133,3135,3133,3135,0,0,0,0,0,0,0,0,0,0,0,0,0,0,0,0,0,0,0,0,0,0,0,0,0,0,0,0,0,0,0,0,0,0,0,0,0,0,0,0,0,0,0,0,3139,3141,3139,3141,3139,3141,3139,3141,3139,3141,3139,3141,0,0,0,0,3139,3141,3139,3141,3139,3141,3139,3141,3139,3141,3139,3141,3139,3141,3139,3141,3139,3141,3139,3141,3139,3141,3139,3141,3139,3141,3139,3141,0,0,0,0,0,0,0,0,0,0,0,0,0,0,0,0,0,0,0,0,0,0,0,0,0,0,0,0,0,0,0,0,0,0,0,0,0,0,0,0,0,0,0,0,3145,3147,3145,3147,3145,3147,3145,3147,3145,3147,3145,3147,0,0,0,0,3145,3147,3145,3147,3145,3147,3145,3147,3145,3147,3145,3147,3145,3147,3145,3147,3145,3147,3145,3147,3145,3147,3145,3147,3145,3147,3145,3147,0,0,0,0,0,0,0,0,0,0,0,0,0,0,0,0,0,0,0,0,0,0,0,0,0,0,0,0,0,0,0,0,0,0,0,0,0,0,0,0,0,0,0,0,3133,3135,3133,3135,3133,3135,3133,3135,3133,3135,3133,3135,0,0,0,0,3133,3135,3133,3135,3133,3135,3133,3135,3133,3135,3133,3135,3133,3135,3133,3135,3133,3135,3133,3135,3133,3135,3133,3135,3133,3135,3133,3135,0,0,0,0,0,0,0,0,0,0,0,0,0,0,0,0,0,0,0,0,0,0,0,0,0,0,0,0,0,0,0,0,0,0,0,0,0,0,0,0,0,0,0,0,3139,3141,3139,3141,3139,3141,3139,3141,3139,3141,3139,3141,0,0,0,0,0,0,0,0,0,0,0,0,3139,3141,3139,3141,3139,3141,3139,3141,3139,3141,3139,3141,3139,3141,3139,3141,3139,3141,3139,3141,0,0,0,0,0,0,0,0,0,0,0,0,0,0,0,0,0,0,0,0,0,0,0,0,0,0,0,0,0,0,0,0,0,0,0,0,0,0,0,0,0,0,0,0,3145,3147,3145,3147,3145,3147,3145,3147,3145,3147,3145,3147,0,0,0,0,0,0,0,0,0,0,0,0,3145,3147,3145,3147,3145,3147,3145,3147,3145,3147,3145,3147,0,0,0,0,0,0,3145,3147,0,0,0,0,0,0,0,0,0,0,0,0,0,0,0,0,0,0,0,0,0,0,0,0,0,0,0,0,0,0,0,0,0,0,0,0,0,0,0,0,0,0,0,0,3133,3135,3133,3135,0,0,0,0,0,0,0,0,0,0,3133,3135,3133,3135,3133,3135,0,0,0,0,0,0,0,526,0,0,0,0,0,0,0,0,0,0,0,0,0,0,3133,3135,0,0,0,0,0,0,0,0,0,0,0,0,0,0,0,0,0,0,0,0,0,0,0,0,0,0,0,528,0,0,0,0,0,0,0,0,0,0,0,0,0,0,0,0,3139,3141,3139,3141,0,0,0,0,0,0,0,0,0,0,3139,3141,3139,3141,3139,3141,0,0,0,129,0,0,0,0,0,0,0,0,129,0,0,0,0,0,0,0,0,0,3139,3141,0,0,0,0,0,0,0,0,0,0,0,0,0,0,0,0,0,0,0,0,0,0,0,0,0,0,0,0,0,0,0,0,0,0,0,0,0,0,0,0,0,0,0,0,3145,3147,3145,3147,0,0,0,0,0,0,0,0,0,0,3145,3147,3145,3147,3145,3147,0,0,0,0,0,0,0,0,0,0,0,0,0,0,0,0,0,0,0,0,0,0,3145,3147,0,0,0,0,0,0,0,0,0,0,0,0,0,0,0,0,0,0,0,0,0,0,0,129,0,0,0,0,0,0,0,0,129,0,0,0,0,0,0,0,0,0,0,0,3133,3135,3133,3135,0,0,0,0,0,0,0,0,0,0,3133,3135,3133,3135,3133,3135,0,0,0,0,0,0,0,0,0,0,0,0,0,0,0,0,3133,3135,3133,3135,3133,3135,3133,3135,0,0,0,0,0,0,0,0,0,0,0,0,0,0,0,0,0,0,0,0,0,0,0,0,0,0,0,0,0,0,0,0,0,0,0,0,0,0,0,0,0,0,0,0,3139,3141,3139,3141,0,0,0,0,0,0,0,0,0,0,3139,3141,3139,3141,3139,3141,3139,3141,3139,3141,3139,3141,3139,3141,3139,3141,0,0,3139,3141,3139,3141,3139,3141,3139,3141,3139,3141,3139,3141,0,0,0,0,0,0,0,0,0,0,0,0,0,0,0,0,0,0,0,0,0,0,0,0,0,0,0,0,0,0,0,0,0,0,0,0,0,0,0,0,0,0,0,0,3145,3147,3145,3147,3145,3147,3145,3147,3145,3147,3145,3147,3145,3147,3145,3147,3145,3147,3145,3147,3145,3147,3145,3147,3145,3147,3145,3147,3145,3147,0,0,3145,3147,3145,3147,3145,3147,3145,3147,3145,3147,3145,3147,0,0,0,0,0,0,0,0,0,0,0,0,0,0,0,0,0,0,0,0,0,0,0,0,0,0,0,0,0,0,0,0,0,0,0,0,0,0,0,0,0,0,0,0,3133,3135,3133,3135,3133,3135,3133,3135,3133,3135,3133,3135,3133,3135,3133,3135,3133,3135,3133,3135,3133,3135,3133,3135,3133,3135,3133,3135,3133,3135,0,0,3133,3135,3133,3135,3133,3135,3133,3135,3133,3135,3133,3135,0,0,0,0,0,0,0,0,0,0,0,0,0,0,0,0,0,0,0,0,0,0,0,0,0,0,0,0,0,0,0,0,0,0,0,0,0,0,0,0,0,0,0,0,0,0,0,0,0,0,0,0,0,0,0,0,0,0,0,0,0,0,0,0,0,0,0,0,0,0,0,0,0,0,0,0,0,0,0,0,0,0,0,0,0,0,0,0]},{"id":4,"name":"meta","type":"tilelayer","width":44,"height":40,"x":0,"y":0,"opacity":0.6,"visible":false,"data":[3179,3179,3179,3179,3179,3179,3179,3179,3179,3179,3179,3179,3179,3179,3179,3179,3179,3179,3179,3179,3179,3179,3179,3179,3179,3179,3179,3179,3179,3179,3179,3179,3179,3179,3179,3179,3179,3179,3179,3179,3179,3179,3179,3179,3179,3179,3179,3179,3179,3179,3179,3179,3179,3179,3179,3179,3179,3179,3179,3179,3179,3179,3179,3179,3179,3179,3179,3179,3179,3179,3179,3179,3179,3179,3179,3179,3179,3179,3179,3179,3179,3179,3179,3179,3179,3179,3179,3179,3179,3179,3179,3179,3181,3181,3181,3181,3181,3181,0,0,0,0,3179,3179,3179,3179,3179,3179,3179,3179,3179,3179,3179,3179,3179,3179,3179,3179,3179,3179,3179,3179,3179,3179,3179,3179,3179,3179,3179,3179,3179,3179,3179,3179,3179,3179,3181,3181,3181,3181,3181,3181,0,0,0,0,3179,3179,3179,3179,3179,3179,3179,3179,3179,3179,3179,3179,3179,3179,3179,3179,3179,3179,3179,3179,3179,3179,3179,3179,3179,3179,3179,3179,3179,3179,3179,3179,3179,3179,0,0,0,0,0,0,0,0,0,0,3179,3179,0,0,3181,3181,3181,3181,3181,3181,3181,3181,0,0,0,0,0,0,0,0,0,0,0,0,0,0,3179,3179,3179,3179,3179,3179,3179,3179,0,0,0,0,0,0,0,0,0,0,3179,3179,0,0,3181,3181,3181,3181,3181,3181,3181,3181,0,0,0,0,0,0,0,0,0,0,0,0,3179,0,3179,3179,3179,3179,3179,3179,3179,3179,0,0,0,0,3179,3179,3179,3179,3179,3179,3179,3179,0,0,0,0,0,0,0,0,0,0,0,0,0,0,3181,3181,3181,3181,3181,3181,3181,3181,0,0,3179,3179,3179,3179,3179,3179,3179,3179,0,0,0,0,3179,3179,3179,3179,3179,3179,3179,3179,0,0,0,0,0,0,0,0,0,0,0,0,0,0,3181,3181,3181,3181,3181,3181,3181,3181,0,0,3179,3179,3179,3179,3179,3179,0,0,0,0,0,0,0,0,0,0,0,0,0,0,0,0,0,0,0,0,0,0,0,0,0,0,0,0,3181,3181,3181,3181,3179,3179,3181,3181,0,0,3179,3179,3179,3179,3179,3179,0,3179,0,0,0,0,0,0,0,0,0,0,0,0,0,0,0,0,0,0,0,0,0,0,0,0,0,0,3181,3181,3181,3181,3181,3181,3181,3181,0,0,3179,3179,3179,3179,0,0,0,0,0,0,0,0,0,0,0,0,0,0,0,0,0,0,0,0,0,0,0,0,0,0,0,0,0,0,3181,3181,3181,3181,3181,3181,3181,3181,0,0,3179,3179,3179,3179,0,0,0,0,0,0,0,0,0,0,0,0,0,0,0,0,0,0,0,0,0,0,0,0,0,0,0,0,0,0,3181,3181,3181,3181,3181,3181,3181,3181,0,0,3179,3179,3179,3179,3179,3179,3179,3179,3179,3179,3179,3179,3179,3179,3179,3179,0,0,3181,3181,3179,3179,3179,3179,3179,3179,3179,3179,3179,3179,3179,3179,0,0,0,0,0,0,0,0,0,0,0,0,3179,3179,3179,3179,3179,3179,3179,3179,3179,3179,3179,3179,3179,3179,3179,3179,0,0,3181,3181,3179,3179,3179,3179,3179,3179,3179,3179,3179,3179,3179,3179,0,0,0,0,0,0,0,0,0,0,0,0,3179,3179,3179,3179,3179,3179,3179,3179,3179,3179,3179,3179,3179,3179,3179,3179,0,0,3181,3181,3179,3179,3179,3179,3179,3179,3179,3179,3179,3179,3179,3179,3179,3179,3179,3179,3179,3179,3179,3179,3179,3179,3179,3179,3179,3179,3179,3179,3179,3179,3179,3179,3179,3179,3179,3179,3179,3179,3179,3179,0,0,3181,3181,3179,3179,3179,3179,3179,3179,3179,3179,3179,3179,3179,3179,3179,3179,3179,3179,3179,3179,3179,3179,3179,3179,3179,3179,3179,3179,3179,3179,3179,3179,3179,3179,3179,3179,3179,3179,3179,3179,3179,3179,0,0,3181,3181,3179,3179,3179,3179,3179,3179,3179,3179,3179,3179,3179,3179,3179,3179,3179,3179,3179,3179,3179,3179,3179,3179,3179,3179,3179,3179,3179,3179,3179,3179,3179,3179,3179,3179,3179,3179,3179,3179,3179,3179,0,0,3181,3181,3179,3179,3179,3179,3179,3179,3179,3179,3179,3179,3179,3179,3179,3179,3179,3179,3179,3179,3179,3179,3179,3179,3179,3179,3179,3179,3179,3179,3179,3179,3179,3179,3179,3179,3179,3179,3179,3179,3179,3179,0,0,3181,3181,3179,3179,3179,3179,3179,3179,3179,3179,3179,3179,3179,3179,3179,3179,3179,3179,3179,3179,3179,3179,3179,3179,3179,3179,3179,3179,3179,3179,3179,3179,3179,3179,3179,3179,3179,3179,3179,3179,3179,3179,0,0,3181,3181,3179,3179,3179,3179,3179,3179,3179,3179,3179,3179,3179,3179,3179,3179,3179,3179,3179,3179,3179,3179,3179,3179,3179,3179,3179,3179,3179,3179,3179,3179,3179,3179,3179,3179,3179,3179,3179,3179,3179,3179,0,0,3181,3181,3179,3179,3179,3179,3179,3179,3179,3179,3179,3179,3179,3179,3179,3179,3179,3179,3179,3179,3179,3179,3179,3179,3179,3179,3179,3179,3179,3179,3179,3179,3179,3179,3179,3179,3179,3179,3179,3179,3179,3179,0,0,3181,3181,3179,3179,3179,3179,3179,3179,3179,3179,3179,3179,3179,3179,3179,3179,3179,3179,3179,3179,3179,3179,3179,3179,3179,3179,3179,3179,3179,3179,3179,3179,3179,3179,3179,3179,3179,3179,3179,3179,3179,3179,0,0,0,0,0,0,0,0,0,0,0,0,3179,3179,3179,3179,3179,3179,3179,3179,3179,3179,3179,3179,3179,3179,3179,3179,3179,3179,3179,3179,3179,3179,3179,3179,3179,3179,3179,3179,3179,3179,3179,3179,0,0,0,0,0,0,0,0,0,0,0,0,3179,3179,3179,3179,3179,3179,3179,3179,3179,3179,3179,3179,3179,3179,3179,3179,3179,3179,3179,3179,3179,3179,3179,3179,3179,3179,3179,3179,3179,3179,3179,3179,0,0,0,0,0,0,0,0,0,0,0,0,3179,3179,3179,3179,3179,3179,3179,3179,3179,3179,3179,3179,0,0,0,0,0,0,3179,3179,3179,3179,3179,3179,3179,3179,3179,3179,3179,3179,3179,3179,0,0,0,0,0,0,0,0,0,0,0,0,3179,3179,3179,3179,3179,3179,3179,3179,3179,3179,3179,3179,0,0,0,0,0,0,3179,3179,3179,3179,3179,3179,0,3179,0,0,0,0,0,0,0,0,3179,3179,3179,3179,3179,3179,0,0,0,0,0,0,0,0,0,0,0,0,0,0,0,0,0,0,3181,3181,3181,3181,3179,3179,3179,3179,3179,3179,3179,0,0,0,0,0,0,0,0,0,3179,3179,3179,3179,3179,3179,0,0,0,0,0,0,0,3179,0,0,0,0,0,0,0,0,0,0,3181,3181,3181,3181,3179,3179,3179,3179,3179,3179,0,0,3181,3181,3181,3181,3181,3181,0,0,3179,3179,3179,3179,3179,3179,0,0,0,3179,0,0,0,0,0,0,0,0,3179,0,0,0,0,0,3181,3181,3181,3181,3179,3179,3179,3179,3179,3179,0,0,3181,3181,3181,3181,3181,3181,0,0,3179,3179,3179,3179,3179,3179,0,0,0,0,0,0,0,0,0,0,0,0,0,0,0,0,0,0,3181,3181,3181,3181,3179,3179,3179,3179,3179,3179,0,0,3181,3181,3181,3181,3181,3181,0,0,3179,3179,3179,3179,3179,3179,0,0,0,0,0,0,0,0,0,0,0,0,0,0,0,0,0,0,3181,3181,3181,3181,3179,3179,3179,3179,3179,3179,0,0,3181,3181,3181,3181,3181,3181,0,0,3179,3179,3179,3179,3179,3179,0,0,0,3179,0,0,0,0,0,0,0,0,3179,0,0,0,0,0,3181,3181,3181,3181,3179,3179,3179,3179,3179,3179,0,0,3181,3181,3181,3181,3181,3181,0,0,3179,3179,3179,3179,3179,3179,0,0,0,0,0,0,0,0,0,0,0,0,0,0,0,0,3179,3179,3179,3179,3179,3179,3179,3179,3179,3179,3179,3179,0,0,3181,3181,3181,3181,3181,3181,0,0,3179,3179,3179,3179,3179,3179,0,0,0,0,0,0,0,0,0,0,0,0,0,0,0,0,3179,3179,3179,3179,3179,3179,3179,3179,3179,3179,3179,3179,0,0,0,0,0,0,0,0,0,0,3179,3179,3179,3179,3179,3179,3179,3179,3179,3179,3179,3179,3179,3179,3179,3179,0,0,3179,3179,3179,3179,3179,3179,3179,3179,3179,3179,3179,3179,3179,3179,3179,3179,0,0,0,0,0,0,0,0,0,0,3179,3179,3179,3179,3179,3179,3179,3179,3179,3179,3179,3179,3179,3179,3179,3179,0,0,3179,3179,3179,3179,3179,3179,3179,3179,3179,3179,3179,3179,3179,3179,3179,3179,3179,3179,3179,3179,3179,3179,3179,3179,3179,3179,3179,3179,3179,3179,3179,3179,3179,3179,3179,3179,3179,3179,3179,3179,3179,3179,0,0,3179,3179,3179,3179,3179,3179,3179,3179,3179,3179,3179,3179,3179,3179,3179,3179,3179,3179,3179,3179,3179,3179,3179,3179,3179,3179,3179,3179,3179,3179,3179,3179,3179,3179,3179,3179,3179,3179,3179,3179,3179,3179,0,0,3179,3179,3179,3179,3179,3179,3179,3179,3179,3179,3179,3179,3179,3179,3179,3179,3179,3179,3179,3179,3179,3179,3179,3179,3179,3179,3179,3179,3179,3179,3179,3179,3179,3179,3179,3179,3179,3179,3179,3179,3179,3179,0,0,3179,3179,3179,3179,3179,3179,3179,3179,3179,3179,3179,3179,3179,3179,3179,3179,3179,3179,3179,3179,3179,3179,3179,3179,3179,3179,3179,3179,3179,3179,3179,3179,3179,3179,3179,3179,3179,3179,3179,3179,3179,3179,0,0,3179,3179,3179,3179,3179,3179,3179,3179,3179,3179,3179,3179]},{"id":5,"name":"objects","type":"objectgroup","draworder":"topdown","x":0,"y":0,"opacity":1,"visible":true,"objects":[{"id":1,"name":"","type":"sign","x":432,"y":432,"width":16,"height":16,"rotation":0,"visible":true,"properties":[{"name":"script","type":"string","value":"thornwild.shrine"}]},{"id":2,"name":"","type":"sign","x":608,"y":80,"width":16,"height":16,"rotation":0,"visible":true,"properties":[{"name":"script","type":"string","value":"thornwild.pip"}]},{"id":3,"name":"","type":"sign","x":48,"y":144,"width":16,"height":16,"rotation":0,"visible":true,"properties":[{"name":"text","type":"string","value":"THORNWILD|Stay on the trail. The trees remember."}]},{"id":4,"name":"tw_bugs","type":"npc","x":128,"y":128,"width":16,"height":16,"rotation":0,"visible":true,"properties":[{"name":"id","type":"string","value":"tw_bugs"},{"name":"sprite","type":"string","value":"kid"},{"name":"face","type":"string","value":"down"},{"name":"move","type":"string","value":"still"},{"name":"trainer","type":"string","value":"tw_bugs"},{"name":"sight","type":"string","value":"4"}]},{"id":5,"name":"tw_ranger","type":"npc","x":240,"y":256,"width":16,"height":16,"rotation":0,"visible":true,"properties":[{"name":"id","type":"string","value":"tw_ranger"},{"name":"sprite","type":"string","value":"ranger"},{"name":"face","type":"string","value":"left"},{"name":"move","type":"string","value":"still"},{"name":"trainer","type":"string","value":"tw_ranger"},{"name":"sight","type":"string","value":"4"}]},{"id":6,"name":"tw_mystic","type":"npc","x":288,"y":352,"width":16,"height":16,"rotation":0,"visible":true,"properties":[{"name":"id","type":"string","value":"tw_mystic"},{"name":"sprite","type":"string","value":"mystic"},{"name":"face","type":"string","value":"down"},{"name":"move","type":"string","value":"still"},{"name":"trainer","type":"string","value":"tw_mystic"},{"name":"sight","type":"string","value":"4"}]},{"id":7,"name":"tw_acolyte_1","type":"npc","x":464,"y":416,"width":16,"height":16,"rotation":0,"visible":true,"properties":[{"name":"id","type":"string","value":"tw_acolyte_1"},{"name":"sprite","type":"string","value":"acolyte"},{"name":"face","type":"string","value":"down"},{"name":"move","type":"string","value":"still"},{"name":"trainer","type":"string","value":"tw_acolyte_1"},{"name":"sight","type":"string","value":"7"},{"name":"hide","type":"string","value":"wren2_done"},{"name":"leave","type":"string","value":"1"}]},{"id":8,"name":"tw_acolyte_2","type":"npc","x":416,"y":528,"width":16,"height":16,"rotation":0,"visible":true,"properties":[{"name":"id","type":"string","value":"tw_acolyte_2"},{"name":"sprite","type":"string","value":"acolyte_b"},{"name":"face","type":"string","value":"right"},{"name":"move","type":"string","value":"still"},{"name":"trainer","type":"string","value":"tw_acolyte_2"},{"name":"sight","type":"string","value":"4"},{"name":"hide","type":"string","value":"wren2_done"},{"name":"leave","type":"string","value":"1"}]},{"id":9,"name":"tw_wren","type":"npc","x":480,"y":608,"width":16,"height":16,"rotation":0,"visible":true,"properties":[{"name":"id","type":"string","value":"tw_wren"},{"name":"sprite","type":"string","value":"wren"},{"name":"face","type":"string","value":"up"},{"name":"move","type":"string","value":"still"},{"name":"show","type":"string","value":"never"}]},{"id":10,"name":"","type":"trigger","x":480,"y":560,"width":32,"height":16,"rotation":0,"visible":true,"properties":[{"name":"script","type":"string","value":"thornwild.wren"},{"name":"w","type":"string","value":"2"},{"name":"h","type":"string","value":"1"},{"name":"once","type":"string","value":"wren2_done"},{"name":"cond","type":"string","value":"beat:tw_acolyte_1&beat:tw_acolyte_2"}]},{"id":11,"name":"","type":"trigger","x":480,"y":544,"width":32,"height":16,"rotation":0,"visible":true,"properties":[{"name":"script","type":"string","value":"thornwild.acolytes_block"},{"name":"w","type":"string","value":"2"},{"name":"h","type":"string","value":"1"},{"name":"cond","type":"string","value":"!beat:tw_acolyte_1|!beat:tw_acolyte_2"}]},{"id":12,"name":"","type":"item","x":80,"y":80,"width":16,"height":16,"rotation":0,"visible":true,"properties":[{"name":"item","type":"string","value":"td14"},{"name":"qty","type":"string","value":"1"},{"name":"flag","type":"string","value":"item_thornwild_5_5"}]},{"id":13,"name":"","type":"item","x":640,"y":416,"width":16,"height":16,"rotation":0,"visible":true,"properties":[{"name":"item","type":"string","value":"prime_capsule"},{"name":"qty","type":"string","value":"1"},{"name":"flag","type":"string","value":"item_thornwild_40_26"}]},{"id":14,"name":"","type":"item","x":384,"y":64,"width":16,"height":16,"rotation":0,"visible":true,"properties":[{"name":"item","type":"string","value":"strong_tonic"},{"name":"qty","type":"string","value":"1"},{"name":"flag","type":"string","value":"item_thornwild_24_4"},{"name":"hidden","type":"string","value":"1"}]},{"id":15,"name":"","type":"item","x":80,"y":544,"width":16,"height":16,"rotation":0,"visible":true,"properties":[{"name":"item","type":"string","value":"capsule"},{"name":"qty","type":"string","value":"3"},{"name":"flag","type":"string","value":"item_thornwild_5_34"}]},{"id":16,"name":"","type":"item","x":576,"y":192,"width":16,"height":16,"rotation":0,"visible":true,"properties":[{"name":"item","type":"string","value":"nerve_balm"},{"name":"qty","type":"string","value":"1"},{"name":"flag","type":"string","value":"item_thornwild_36_12"}]},{"id":17,"name":"tw_spriglet","type":"npc","x":64,"y":416,"width":16,"height":16,"rotation":0,"visible":true,"properties":[{"name":"id","type":"string","value":"tw_spriglet"},{"name":"sprite","type":"string","value":"mon:spriglet"},{"name":"face","type":"string","value":"right"},{"name":"move","type":"string","value":"still"},{"name":"script","type":"string","value":"rescue.spriglet"},{"name":"show","type":"string","value":"!var:starter=spriglet"},{"name":"hide","type":"string","value":"rescued_spriglet"}]},{"id":18,"name":"","type":"bramble","x":80,"y":416,"width":16,"height":16,"rotation":0,"visible":true,"properties":[{"name":"hide","type":"string","value":"var:starter=spriglet"}]},{"id":19,"name":"","type":"bramble","x":64,"y":432,"width":16,"height":16,"rotation":0,"visible":true,"properties":[{"name":"hide","type":"string","value":"var:starter=spriglet"}]},{"id":20,"name":"","type":"item","x":608,"y":224,"width":16,"height":16,"rotation":0,"visible":true,"properties":[{"name":"item","type":"string","value":"strong_tonic"},{"name":"qty","type":"string","value":"1"},{"name":"flag","type":"string","value":"item_thornwild_38_14"},{"name":"hidden","type":"string","value":"1"},{"name":"in","type":"string","value":"tree"}]},{"id":21,"name":"","type":"item","x":560,"y":128,"width":16,"height":16,"rotation":0,"visible":true,"properties":[{"name":"item","type":"string","value":"rekindle_seed"},{"name":"qty","type":"string","value":"1"},{"name":"flag","type":"string","value":"item_thornwild_35_8"},{"name":"hidden","type":"string","value":"1"},{"name":"in","type":"string","value":"bush"}]},{"id":22,"name":"","type":"light","x":376,"y":448,"width":0,"height":0,"rotation":0,"visible":true,"point":true,"properties":[{"name":"r","type":"int","value":18},{"name":"color","type":"string","value":"#8ae8ff"},{"name":"window","type":"bool","value":false}]},{"id":23,"name":"","type":"light","x":520,"y":448,"width":0,"height":0,"rotation":0,"visible":true,"point":true,"properties":[{"name":"r","type":"int","value":18},{"name":"color","type":"string","value":"#8ae8ff"},{"name":"window","type":"bool","value":false}]},{"id":24,"name":"","type":"light","x":376,"y":496,"width":0,"height":0,"rotation":0,"visible":true,"point":true,"properties":[{"name":"r","type":"int","value":18},{"name":"color","type":"string","value":"#8ae8ff"},{"name":"window","type":"bool","value":false}]},{"id":25,"name":"","type":"light","x":520,"y":496,"width":0,"height":0,"rotation":0,"visible":true,"point":true,"properties":[{"name":"r","type":"int","value":18},{"name":"color","type":"string","value":"#8ae8ff"},{"name":"window","type":"bool","value":false}]}]}],"tilesets":[{"firstgid":1,"name":"world","image":"../tilesets/world.png","imagewidth":1024,"imageheight":800,"tilewidth":16,"tileheight":16,"tilecount":3177,"columns":64,"margin":0,"spacing":0,"tiles":[{"id":18,"animation":[{"tileid":18,"duration":220},{"tileid":19,"duration":220},{"tileid":20,"duration":220},{"tileid":21,"duration":220}]},{"id":22,"animation":[{"tileid":22,"duration":220},{"tileid":23,"duration":220},{"tileid":24,"duration":220},{"tileid":25,"duration":220}]},{"id":26,"animation":[{"tileid":26,"duration":220},{"tileid":27,"duration":220},{"tileid":28,"duration":220},{"tileid":29,"duration":220}]},{"id":30,"animation":[{"tileid":30,"duration":220},{"tileid":31,"duration":220},{"tileid":32,"duration":220},{"tileid":33,"duration":220}]},{"id":34,"animation":[{"tileid":34,"duration":220},{"tileid":35,"duration":220},{"tileid":36,"duration":220},{"tileid":37,"duration":220}]},{"id":38,"animation":[{"tileid":38,"duration":220},{"tileid":39,"duration":220},{"tileid":40,"duration":220},{"tileid":41,"duration":220}]},{"id":42,"animation":[{"tileid":42,"duration":220},{"tileid":43,"duration":220},{"tileid":44,"duration":220},{"tileid":45,"duration":220}]},{"id":46,"animation":[{"tileid":46,"duration":220},{"tileid":47,"duration":220},{"tileid":48,"duration":220},{"tileid":49,"duration":220}]},{"id":50,"animation":[{"tileid":50,"duration":220},{"tileid":51,"duration":220},{"tileid":52,"duration":220},{"tileid":53,"duration":220}]},{"id":54,"animation":[{"tileid":54,"duration":220},{"tileid":55,"duration":220},{"tileid":56,"duration":220},{"tileid":57,"duration":220}]},{"id":58,"animation":[{"tileid":58,"duration":220},{"tileid":59,"duration":220},{"tileid":60,"duration":220},{"tileid":61,"duration":220}]},{"id":62,"animation":[{"tileid":62,"duration":220},{"tileid":63,"duration":220},{"tileid":64,"duration":220},{"tileid":65,"duration":220}]},{"id":66,"animation":[{"tileid":66,"duration":220},{"tileid":67,"duration":220},{"tileid":68,"duration":220},{"tileid":69,"duration":220}]},{"id":70,"animation":[{"tileid":70,"duration":220},{"tileid":71,"duration":220},{"tileid":72,"duration":220},{"tileid":73,"duration":220}]},{"id":74,"animation":[{"tileid":74,"duration":220},{"tileid":75,"duration":220},{"tileid":76,"duration":220},{"tileid":77,"duration":220}]},{"id":78,"animation":[{"tileid":78,"duration":220},{"tileid":79,"duration":220},{"tileid":80,"duration":220},{"tileid":81,"duration":220}]},{"id":82,"animation":[{"tileid":82,"duration":220},{"tileid":83,"duration":220},{"tileid":84,"duration":220},{"tileid":85,"duration":220}]},{"id":86,"animation":[{"tileid":86,"duration":220},{"tileid":87,"duration":220},{"tileid":88,"duration":220},{"tileid":89,"duration":220}]},{"id":90,"animation":[{"tileid":90,"duration":220},{"tileid":91,"duration":220},{"tileid":92,"duration":220},{"tileid":93,"duration":220}]},{"id":94,"animation":[{"tileid":94,"duration":220},{"tileid":95,"duration":220},{"tileid":96,"duration":220},{"tileid":97,"duration":220}]},{"id":98,"animation":[{"tileid":98,"duration":220},{"tileid":99,"duration":220},{"tileid":100,"duration":220},{"tileid":101,"duration":220}]},{"id":102,"animation":[{"tileid":102,"duration":220},{"tileid":103,"duration":220},{"tileid":104,"duration":220},{"tileid":105,"duration":220}]},{"id":106,"animation":[{"tileid":106,"duration":220},{"tileid":107,"duration":220},{"tileid":108,"duration":220},{"tileid":109,"duration":220}]},{"id":139,"animation":[{"tileid":139,"duration":220},{"tileid":140,"duration":220},{"tileid":141,"duration":220},{"tileid":142,"duration":220}]},{"id":143,"animation":[{"tileid":143,"duration":220},{"tileid":144,"duration":220},{"tileid":145,"duration":220},{"tileid":146,"duration":220}]},{"id":147,"animation":[{"tileid":147,"duration":220},{"tileid":148,"duration":220},{"tileid":149,"duration":220},{"tileid":150,"duration":220}]},{"id":309,"animation":[{"tileid":309,"duration":220},{"tileid":310,"duration":220},{"tileid":311,"duration":220},{"tileid":312,"duration":220}]},{"id":313,"animation":[{"tileid":313,"duration":220},{"tileid":314,"duration":220},{"tileid":315,"duration":220},{"tileid":316,"duration":220}]},{"id":322,"animation":[{"tileid":322,"duration":220},{"tileid":323,"duration":220},{"tileid":324,"duration":220},{"tileid":325,"duration":220}]},{"id":326,"animation":[{"tileid":326,"duration":220},{"tileid":327,"duration":220},{"tileid":328,"duration":220},{"tileid":329,"duration":220}]},{"id":330,"animation":[{"tileid":330,"duration":220},{"tileid":331,"duration":220},{"tileid":332,"duration":220},{"tileid":333,"duration":220}]},{"id":334,"animation":[{"tileid":334,"duration":220},{"tileid":335,"duration":220},{"tileid":336,"duration":220},{"tileid":337,"duration":220}]},{"id":338,"animation":[{"tileid":338,"duration":220},{"tileid":339,"duration":220},{"tileid":340,"duration":220},{"tileid":341,"duration":220}]},{"id":342,"animation":[{"tileid":342,"duration":220},{"tileid":343,"duration":220},{"tileid":344,"duration":220},{"tileid":345,"duration":220}]},{"id":352,"animation":[{"tileid":352,"duration":220},{"tileid":353,"duration":220},{"tileid":354,"duration":220},{"tileid":355,"duration":220}]},{"id":356,"animation":[{"tileid":356,"duration":220},{"tileid":357,"duration":220},{"tileid":358,"duration":220},{"tileid":359,"duration":220}]},{"id":360,"animation":[{"tileid":360,"duration":220},{"tileid":361,"duration":220},{"tileid":362,"duration":220},{"tileid":363,"duration":220}]},{"id":364,"animation":[{"tileid":364,"duration":220},{"tileid":365,"duration":220},{"tileid":366,"duration":220},{"tileid":367,"duration":220}]},{"id":368,"animation":[{"tileid":368,"duration":220},{"tileid":369,"duration":220},{"tileid":370,"duration":220},{"tileid":371,"duration":220}]},{"id":372,"animation":[{"tileid":372,"duration":220},{"tileid":373,"duration":220},{"tileid":374,"duration":220},{"tileid":375,"duration":220}]},{"id":380,"animation":[{"tileid":380,"duration":220},{"tileid":381,"duration":220},{"tileid":382,"duration":220},{"tileid":383,"duration":220}]},{"id":384,"animation":[{"tileid":384,"duration":220},{"tileid":385,"duration":220},{"tileid":386,"duration":220},{"tileid":387,"duration":220}]},{"id":551,"animation":[{"tileid":551,"duration":220},{"tileid":552,"duration":220},{"tileid":553,"duration":220},{"tileid":554,"duration":220}]},{"id":555,"animation":[{"tileid":555,"duration":220},{"tileid":556,"duration":220},{"tileid":557,"duration":220},{"tileid":558,"duration":220}]},{"id":613,"animation":[{"tileid":613,"duration":220},{"tileid":614,"duration":220},{"tileid":615,"duration":220},{"tileid":616,"duration":220}]},{"id":617,"animation":[{"tileid":617,"duration":220},{"tileid":618,"duration":220},{"tileid":619,"duration":220},{"tileid":620,"duration":220}]},{"id":621,"animation":[{"tileid":621,"duration":220},{"tileid":622,"duration":220},{"tileid":623,"duration":220},{"tileid":624,"duration":220}]},{"id":625,"animation":[{"tileid":625,"duration":220},{"tileid":626,"duration":220},{"tileid":627,"duration":220},{"tileid":628,"duration":220}]},{"id":631,"animation":[{"tileid":631,"duration":220},{"tileid":632,"duration":220},{"tileid":633,"duration":220},{"tileid":634,"duration":220}]},{"id":635,"animation":[{"tileid":635,"duration":220},{"tileid":636,"duration":220},{"tileid":637,"duration":220},{"tileid":638,"duration":220}]},{"id":639,"animation":[{"tileid":639,"duration":220},{"tileid":640,"duration":220},{"tileid":641,"duration":220},{"tileid":642,"duration":220}]},{"id":643,"animation":[{"tileid":643,"duration":220},{"tileid":644,"duration":220},{"tileid":645,"duration":220},{"tileid":646,"duration":220}]},{"id":1023,"animation":[{"tileid":1023,"duration":220},{"tileid":1024,"duration":220},{"tileid":1025,"duration":220},{"tileid":1026,"duration":220}]},{"id":1027,"animation":[{"tileid":1027,"duration":220},{"tileid":1028,"duration":220},{"tileid":1029,"duration":220},{"tileid":1030,"duration":220}]},{"id":1031,"animation":[{"tileid":1031,"duration":220},{"tileid":1032,"duration":220},{"tileid":1033,"duration":220},{"tileid":1034,"duration":220}]},{"id":1035,"animation":[{"tileid":1035,"duration":220},{"tileid":1036,"duration":220},{"tileid":1037,"duration":220},{"tileid":1038,"duration":220}]},{"id":1040,"animation":[{"tileid":1040,"duration":220},{"tileid":1041,"duration":220},{"tileid":1042,"duration":220},{"tileid":1043,"duration":220}]},{"id":1044,"animation":[{"tileid":1044,"duration":220},{"tileid":1045,"duration":220},{"tileid":1046,"duration":220},{"tileid":1047,"duration":220}]},{"id":1050,"animation":[{"tileid":1050,"duration":220},{"tileid":1051,"duration":220},{"tileid":1052,"duration":220},{"tileid":1053,"duration":220}]},{"id":1055,"animation":[{"tileid":1055,"duration":220},{"tileid":1056,"duration":220},{"tileid":1057,"duration":220},{"tileid":1058,"duration":220}]},{"id":1059,"animation":[{"tileid":1059,"duration":220},{"tileid":1060,"duration":220},{"tileid":1061,"duration":220},{"tileid":1062,"duration":220}]},{"id":1071,"animation":[{"tileid":1071,"duration":220},{"tileid":1072,"duration":220},{"tileid":1073,"duration":220},{"tileid":1074,"duration":220}]},{"id":1096,"animation":[{"tileid":1096,"duration":220},{"tileid":1097,"duration":220},{"tileid":1098,"duration":220},{"tileid":1099,"duration":220}]},{"id":1100,"animation":[{"tileid":1100,"duration":220},{"tileid":1101,"duration":220},{"tileid":1102,"duration":220},{"tileid":1103,"duration":220}]},{"id":1110,"animation":[{"tileid":1110,"duration":220},{"tileid":1111,"duration":220},{"tileid":1112,"duration":220},{"tileid":1113,"duration":220}]},{"id":1114,"animation":[{"tileid":1114,"duration":220},{"tileid":1115,"duration":220},{"tileid":1116,"duration":220},{"tileid":1117,"duration":220}]},{"id":1140,"animation":[{"tileid":1140,"duration":220},{"tileid":1141,"duration":220},{"tileid":1142,"duration":220},{"tileid":1143,"duration":220}]},{"id":1144,"animation":[{"tileid":1144,"duration":220},{"tileid":1145,"duration":220},{"tileid":1146,"duration":220},{"tileid":1147,"duration":220}]},{"id":1148,"animation":[{"tileid":1148,"duration":220},{"tileid":1149,"duration":220},{"tileid":1150,"duration":220},{"tileid":1151,"duration":220}]},{"id":1152,"animation":[{"tileid":1152,"duration":220},{"tileid":1153,"duration":220},{"tileid":1154,"duration":220},{"tileid":1155,"duration":220}]},{"id":1156,"animation":[{"tileid":1156,"duration":220},{"tileid":1157,"duration":220},{"tileid":1158,"duration":220},{"tileid":1159,"duration":220}]},{"id":1160,"animation":[{"tileid":1160,"duration":220},{"tileid":1161,"duration":220},{"tileid":1162,"duration":220},{"tileid":1163,"duration":220}]},{"id":1173,"animation":[{"tileid":1173,"duration":220},{"tileid":1174,"duration":220},{"tileid":1175,"duration":220},{"tileid":1176,"duration":220}]},{"id":1184,"animation":[{"tileid":1184,"duration":220},{"tileid":1185,"duration":220},{"tileid":1186,"duration":220},{"tileid":1187,"duration":220}]},{"id":1203,"animation":[{"tileid":1203,"duration":220},{"tileid":1204,"duration":220},{"tileid":1205,"duration":220},{"tileid":1206,"duration":220}]},{"id":1207,"animation":[{"tileid":1207,"duration":220},{"tileid":1208,"duration":220},{"tileid":1209,"duration":220},{"tileid":1210,"duration":220}]},{"id":1211,"animation":[{"tileid":1211,"duration":220},{"tileid":1212,"duration":220},{"tileid":1213,"duration":220},{"tileid":1214,"duration":220}]},{"id":1215,"animation":[{"tileid":1215,"duration":220},{"tileid":1216,"duration":220},{"tileid":1217,"duration":220},{"tileid":1218,"duration":220}]},{"id":1230,"animation":[{"tileid":1230,"duration":220},{"tileid":1231,"duration":220},{"tileid":1232,"duration":220},{"tileid":1233,"duration":220}]},{"id":1234,"animation":[{"tileid":1234,"duration":220},{"tileid":1235,"duration":220},{"tileid":1236,"duration":220},{"tileid":1237,"duration":220}]},{"id":1238,"animation":[{"tileid":1238,"duration":220},{"tileid":1239,"duration":220},{"tileid":1240,"duration":220},{"tileid":1241,"duration":220}]},{"id":1252,"animation":[{"tileid":1252,"duration":220},{"tileid":1253,"duration":220},{"tileid":1254,"duration":220},{"tileid":1255,"duration":220}]},{"id":1258,"animation":[{"tileid":1258,"duration":220},{"tileid":1259,"duration":220},{"tileid":1260,"duration":220},{"tileid":1261,"duration":220}]},{"id":1279,"animation":[{"tileid":1279,"duration":220},{"tileid":1280,"duration":220},{"tileid":1281,"duration":220},{"tileid":1282,"duration":220}]},{"id":1283,"animation":[{"tileid":1283,"duration":220},{"tileid":1284,"duration":220},{"tileid":1285,"duration":220},{"tileid":1286,"duration":220}]},{"id":1287,"animation":[{"tileid":1287,"duration":220},{"tileid":1288,"duration":220},{"tileid":1289,"duration":220},{"tileid":1290,"duration":220}]},{"id":1291,"animation":[{"tileid":1291,"duration":220},{"tileid":1292,"duration":220},{"tileid":1293,"duration":220},{"tileid":1294,"duration":220}]},{"id":1295,"animation":[{"tileid":1295,"duration":220},{"tileid":1296,"duration":220},{"tileid":1297,"duration":220},{"tileid":1298,"duration":220}]},{"id":1347,"animation":[{"tileid":1347,"duration":220},{"tileid":1348,"duration":220},{"tileid":1349,"duration":220},{"tileid":1350,"duration":220}]},{"id":1355,"animation":[{"tileid":1355,"duration":220},{"tileid":1356,"duration":220},{"tileid":1357,"duration":220},{"tileid":1358,"duration":220}]},{"id":1361,"animation":[{"tileid":1361,"duration":220},{"tileid":1362,"duration":220},{"tileid":1363,"duration":220},{"tileid":1364,"duration":220}]},{"id":1401,"animation":[{"tileid":1401,"duration":220},{"tileid":1402,"duration":220},{"tileid":1403,"duration":220},{"tileid":1404,"duration":220}]},{"id":1657,"animation":[{"tileid":1657,"duration":220},{"tileid":1658,"duration":220},{"tileid":1659,"duration":220},{"tileid":1660,"duration":220}]},{"id":1661,"animation":[{"tileid":1661,"duration":220},{"tileid":1662,"duration":220},{"tileid":1663,"duration":220},{"tileid":1664,"duration":220}]},{"id":1665,"animation":[{"tileid":1665,"duration":220},{"tileid":1666,"duration":220},{"tileid":1667,"duration":220},{"tileid":1668,"duration":220}]},{"id":1669,"animation":[{"tileid":1669,"duration":220},{"tileid":1670,"duration":220},{"tileid":1671,"duration":220},{"tileid":1672,"duration":220}]},{"id":1676,"animation":[{"tileid":1676,"duration":220},{"tileid":1677,"duration":220},{"tileid":1678,"duration":220},{"tileid":1679,"duration":220}]},{"id":1680,"animation":[{"tileid":1680,"duration":220},{"tileid":1681,"duration":220},{"tileid":1682,"duration":220},{"tileid":1683,"duration":220}]},{"id":1684,"animation":[{"tileid":1684,"duration":220},{"tileid":1685,"duration":220},{"tileid":1686,"duration":220},{"tileid":1687,"duration":220}]},{"id":1688,"animation":[{"tileid":1688,"duration":220},{"tileid":1689,"duration":220},{"tileid":1690,"duration":220},{"tileid":1691,"duration":220}]},{"id":1693,"animation":[{"tileid":1693,"duration":220},{"tileid":1694,"duration":220},{"tileid":1695,"duration":220},{"tileid":1696,"duration":220}]},{"id":1697,"animation":[{"tileid":1697,"duration":220},{"tileid":1698,"duration":220},{"tileid":1699,"duration":220},{"tileid":1700,"duration":220}]},{"id":1701,"animation":[{"tileid":1701,"duration":220},{"tileid":1702,"duration":220},{"tileid":1703,"duration":220},{"tileid":1704,"duration":220}]},{"id":1705,"animation":[{"tileid":1705,"duration":220},{"tileid":1706,"duration":220},{"tileid":1707,"duration":220},{"tileid":1708,"duration":220}]},{"id":1709,"animation":[{"tileid":1709,"duration":220},{"tileid":1710,"duration":220},{"tileid":1711,"duration":220},{"tileid":1712,"duration":220}]},{"id":1715,"animation":[{"tileid":1715,"duration":220},{"tileid":1716,"duration":220},{"tileid":1717,"duration":220},{"tileid":1718,"duration":220}]},{"id":1719,"animation":[{"tileid":1719,"duration":220},{"tileid":1720,"duration":220},{"tileid":1721,"duration":220},{"tileid":1722,"duration":220}]},{"id":1736,"animation":[{"tileid":1736,"duration":220},{"tileid":1737,"duration":220},{"tileid":1738,"duration":220},{"tileid":1739,"duration":220},{"tileid":1740,"duration":220},{"tileid":1741,"duration":220},{"tileid":1742,"duration":220},{"tileid":1743,"duration":220}]},{"id":1744,"animation":[{"tileid":1744,"duration":220},{"tileid":1745,"duration":220},{"tileid":1746,"duration":220},{"tileid":1747,"duration":220},{"tileid":1748,"duration":220},{"tileid":1749,"duration":220},{"tileid":1750,"duration":220},{"tileid":1751,"duration":220}]},{"id":1752,"animation":[{"tileid":1752,"duration":220},{"tileid":1753,"duration":220},{"tileid":1754,"duration":220},{"tileid":1755,"duration":220},{"tileid":1756,"duration":220},{"tileid":1757,"duration":220},{"tileid":1758,"duration":220},{"tileid":1759,"duration":220}]},{"id":1760,"animation":[{"tileid":1760,"duration":220},{"tileid":1761,"duration":220},{"tileid":1762,"duration":220},{"tileid":1763,"duration":220},{"tileid":1764,"duration":220},{"tileid":1765,"duration":220},{"tileid":1766,"duration":220},{"tileid":1767,"duration":220}]},{"id":1768,"animation":[{"tileid":1768,"duration":220},{"tileid":1769,"duration":220},{"tileid":1770,"duration":220},{"tileid":1771,"duration":220},{"tileid":1772,"duration":220},{"tileid":1773,"duration":220},{"tileid":1774,"duration":220},{"tileid":1775,"duration":220}]},{"id":1776,"animation":[{"tileid":1776,"duration":220},{"tileid":1777,"duration":220},{"tileid":1778,"duration":220},{"tileid":1779,"duration":220},{"tileid":1780,"duration":220},{"tileid":1781,"duration":220},{"tileid":1782,"duration":220},{"tileid":1783,"duration":220}]},{"id":1784,"animation":[{"tileid":1784,"duration":220},{"tileid":1785,"duration":220},{"tileid":1786,"duration":220},{"tileid":1787,"duration":220},{"tileid":1788,"duration":220},{"tileid":1789,"duration":220},{"tileid":1790,"duration":220},{"tileid":1791,"duration":220}]},{"id":1792,"animation":[{"tileid":1792,"duration":220},{"tileid":1793,"duration":220},{"tileid":1794,"duration":220},{"tileid":1795,"duration":220},{"tileid":1796,"duration":220},{"tileid":1797,"duration":220},{"tileid":1798,"duration":220},{"tileid":1799,"duration":220}]},{"id":1800,"animation":[{"tileid":1800,"duration":220},{"tileid":1801,"duration":220},{"tileid":1802,"duration":220},{"tileid":1803,"duration":220},{"tileid":1804,"duration":220},{"tileid":1805,"duration":220},{"tileid":1806,"duration":220},{"tileid":1807,"duration":220}]},{"id":1808,"animation":[{"tileid":1808,"duration":220},{"tileid":1809,"duration":220},{"tileid":1810,"duration":220},{"tileid":1811,"duration":220},{"tileid":1812,"duration":220},{"tileid":1813,"duration":220},{"tileid":1814,"duration":220},{"tileid":1815,"duration":220}]},{"id":1816,"animation":[{"tileid":1816,"duration":220},{"tileid":1817,"duration":220},{"tileid":1818,"duration":220},{"tileid":1819,"duration":220},{"tileid":1820,"duration":220},{"tileid":1821,"duration":220},{"tileid":1822,"duration":220},{"tileid":1823,"duration":220}]},{"id":1824,"animation":[{"tileid":1824,"duration":220},{"tileid":1825,"duration":220},{"tileid":1826,"duration":220},{"tileid":1827,"duration":220},{"tileid":1828,"duration":220},{"tileid":1829,"duration":220},{"tileid":1830,"duration":220},{"tileid":1831,"duration":220}]},{"id":1832,"animation":[{"tileid":1832,"duration":220},{"tileid":1833,"duration":220},{"tileid":1834,"duration":220},{"tileid":1835,"duration":220},{"tileid":1836,"duration":220},{"tileid":1837,"duration":220},{"tileid":1838,"duration":220},{"tileid":1839,"duration":220}]},{"id":1840,"animation":[{"tileid":1840,"duration":220},{"tileid":1841,"duration":220},{"tileid":1842,"duration":220},{"tileid":1843,"duration":220},{"tileid":1844,"duration":220},{"tileid":1845,"duration":220},{"tileid":1846,"duration":220},{"tileid":1847,"duration":220}]},{"id":1848,"animation":[{"tileid":1848,"duration":220},{"tileid":1849,"duration":220},{"tileid":1850,"duration":220},{"tileid":1851,"duration":220},{"tileid":1852,"duration":220},{"tileid":1853,"duration":220},{"tileid":1854,"duration":220},{"tileid":1855,"duration":220}]},{"id":1856,"animation":[{"tileid":1856,"duration":220},{"tileid":1857,"duration":220},{"tileid":1858,"duration":220},{"tileid":1859,"duration":220},{"tileid":1860,"duration":220},{"tileid":1861,"duration":220},{"tileid":1862,"duration":220},{"tileid":1863,"duration":220}]},{"id":1864,"animation":[{"tileid":1864,"duration":220},{"tileid":1865,"duration":220},{"tileid":1866,"duration":220},{"tileid":1867,"duration":220},{"tileid":1868,"duration":220},{"tileid":1869,"duration":220},{"tileid":1870,"duration":220},{"tileid":1871,"duration":220}]},{"id":1872,"animation":[{"tileid":1872,"duration":220},{"tileid":1873,"duration":220},{"tileid":1874,"duration":220},{"tileid":1875,"duration":220},{"tileid":1876,"duration":220},{"tileid":1877,"duration":220},{"tileid":1878,"duration":220},{"tileid":1879,"duration":220}]},{"id":1880,"animation":[{"tileid":1880,"duration":220},{"tileid":1881,"duration":220},{"tileid":1882,"duration":220},{"tileid":1883,"duration":220},{"tileid":1884,"duration":220},{"tileid":1885,"duration":220},{"tileid":1886,"duration":220},{"tileid":1887,"duration":220}]},{"id":1888,"animation":[{"tileid":1888,"duration":220},{"tileid":1889,"duration":220},{"tileid":1890,"duration":220},{"tileid":1891,"duration":220},{"tileid":1892,"duration":220},{"tileid":1893,"duration":220},{"tileid":1894,"duration":220},{"tileid":1895,"duration":220}]},{"id":1896,"animation":[{"tileid":1896,"duration":220},{"tileid":1897,"duration":220},{"tileid":1898,"duration":220},{"tileid":1899,"duration":220},{"tileid":1900,"duration":220},{"tileid":1901,"duration":220},{"tileid":1902,"duration":220},{"tileid":1903,"duration":220}]},{"id":1904,"animation":[{"tileid":1904,"duration":220},{"tileid":1905,"duration":220},{"tileid":1906,"duration":220},{"tileid":1907,"duration":220},{"tileid":1908,"duration":220},{"tileid":1909,"duration":220},{"tileid":1910,"duration":220},{"tileid":1911,"duration":220}]},{"id":1912,"animation":[{"tileid":1912,"duration":220},{"tileid":1913,"duration":220},{"tileid":1914,"duration":220},{"tileid":1915,"duration":220},{"tileid":1916,"duration":220},{"tileid":1917,"duration":220},{"tileid":1918,"duration":220},{"tileid":1919,"duration":220}]},{"id":1920,"animation":[{"tileid":1920,"duration":220},{"tileid":1921,"duration":220},{"tileid":1922,"duration":220},{"tileid":1923,"duration":220},{"tileid":1924,"duration":220},{"tileid":1925,"duration":220},{"tileid":1926,"duration":220},{"tileid":1927,"duration":220}]},{"id":1944,"animation":[{"tileid":1944,"duration":220},{"tileid":1945,"duration":220},{"tileid":1946,"duration":220},{"tileid":1947,"duration":220}]},{"id":1948,"animation":[{"tileid":1948,"duration":220},{"tileid":1949,"duration":220},{"tileid":1950,"duration":220},{"tileid":1951,"duration":220}]},{"id":1955,"animation":[{"tileid":1955,"duration":220},{"tileid":1956,"duration":220},{"tileid":1957,"duration":220},{"tileid":1958,"duration":220}]},{"id":1959,"animation":[{"tileid":1959,"duration":220},{"tileid":1960,"duration":220},{"tileid":1961,"duration":220},{"tileid":1962,"duration":220}]},{"id":1963,"animation":[{"tileid":1963,"duration":220},{"tileid":1964,"duration":220},{"tileid":1965,"duration":220},{"tileid":1966,"duration":220}]},{"id":1967,"animation":[{"tileid":1967,"duration":220},{"tileid":1968,"duration":220},{"tileid":1969,"duration":220},{"tileid":1970,"duration":220}]},{"id":1972,"animation":[{"tileid":1972,"duration":220},{"tileid":1973,"duration":220},{"tileid":1974,"duration":220},{"tileid":1975,"duration":220}]},{"id":1976,"animation":[{"tileid":1976,"duration":220},{"tileid":1977,"duration":220},{"tileid":1978,"duration":220},{"tileid":1979,"duration":220}]},{"id":1980,"animation":[{"tileid":1980,"duration":220},{"tileid":1981,"duration":220},{"tileid":1982,"duration":220},{"tileid":1983,"duration":220}]},{"id":1986,"animation":[{"tileid":1986,"duration":220},{"tileid":1987,"duration":220},{"tileid":1988,"duration":220},{"tileid":1989,"duration":220}]},{"id":1990,"animation":[{"tileid":1990,"duration":220},{"tileid":1991,"duration":220},{"tileid":1992,"duration":220},{"tileid":1993,"duration":220}]},{"id":2000,"animation":[{"tileid":2000,"duration":220},{"tileid":2001,"duration":220},{"tileid":2002,"duration":220},{"tileid":2003,"duration":220}]},{"id":2006,"animation":[{"tileid":2006,"duration":220},{"tileid":2007,"duration":220},{"tileid":2008,"duration":220},{"tileid":2009,"duration":220}]},{"id":2012,"animation":[{"tileid":2012,"duration":220},{"tileid":2013,"duration":220},{"tileid":2014,"duration":220},{"tileid":2015,"duration":220}]},{"id":2017,"animation":[{"tileid":2017,"duration":220},{"tileid":2018,"duration":220},{"tileid":2019,"duration":220},{"tileid":2020,"duration":220}]},{"id":2021,"animation":[{"tileid":2021,"duration":220},{"tileid":2022,"duration":220},{"tileid":2023,"duration":220},{"tileid":2024,"duration":220}]},{"id":2026,"animation":[{"tileid":2026,"duration":220},{"tileid":2027,"duration":220},{"tileid":2028,"duration":220},{"tileid":2029,"duration":220}]},{"id":2031,"animation":[{"tileid":2031,"duration":220},{"tileid":2032,"duration":220},{"tileid":2033,"duration":220},{"tileid":2034,"duration":220}]},{"id":2035,"animation":[{"tileid":2035,"duration":220},{"tileid":2036,"duration":220},{"tileid":2037,"duration":220},{"tileid":2038,"duration":220}]},{"id":2039,"animation":[{"tileid":2039,"duration":220},{"tileid":2040,"duration":220},{"tileid":2041,"duration":220},{"tileid":2042,"duration":220}]},{"id":2044,"animation":[{"tileid":2044,"duration":220},{"tileid":2045,"duration":220},{"tileid":2046,"duration":220},{"tileid":2047,"duration":220}]},{"id":2048,"animation":[{"tileid":2048,"duration":220},{"tileid":2049,"duration":220},{"tileid":2050,"duration":220},{"tileid":2051,"duration":220}]},{"id":2052,"animation":[{"tileid":2052,"duration":220},{"tileid":2053,"duration":220},{"tileid":2054,"duration":220},{"tileid":2055,"duration":220}]},{"id":2056,"animation":[{"tileid":2056,"duration":220},{"tileid":2057,"duration":220},{"tileid":2058,"duration":220},{"tileid":2059,"duration":220}]},{"id":2060,"animation":[{"tileid":2060,"duration":220},{"tileid":2061,"duration":220},{"tileid":2062,"duration":220},{"tileid":2063,"duration":220}]},{"id":2064,"animation":[{"tileid":2064,"duration":220},{"tileid":2065,"duration":220},{"tileid":2066,"duration":220},{"tileid":2067,"duration":220}]},{"id":2069,"animation":[{"tileid":2069,"duration":220},{"tileid":2070,"duration":220},{"tileid":2071,"duration":220},{"tileid":2072,"duration":220}]},{"id":2096,"animation":[{"tileid":2096,"duration":220},{"tileid":2097,"duration":220},{"tileid":2098,"duration":220},{"tileid":2099,"duration":220}]},{"id":2100,"animation":[{"tileid":2100,"duration":220},{"tileid":2101,"duration":220},{"tileid":2102,"duration":220},{"tileid":2103,"duration":220}]},{"id":2104,"animation":[{"tileid":2104,"duration":220},{"tileid":2105,"duration":220},{"tileid":2106,"duration":220},{"tileid":2107,"duration":220}]},{"id":2108,"animation":[{"tileid":2108,"duration":220},{"tileid":2109,"duration":220},{"tileid":2110,"duration":220},{"tileid":2111,"duration":220}]},{"id":2112,"animation":[{"tileid":2112,"duration":220},{"tileid":2113,"duration":220},{"tileid":2114,"duration":220},{"tileid":2115,"duration":220}]},{"id":2116,"animation":[{"tileid":2116,"duration":220},{"tileid":2117,"duration":220},{"tileid":2118,"duration":220},{"tileid":2119,"duration":220}]},{"id":2120,"animation":[{"tileid":2120,"duration":220},{"tileid":2121,"duration":220},{"tileid":2122,"duration":220},{"tileid":2123,"duration":220}]},{"id":2124,"animation":[{"tileid":2124,"duration":220},{"tileid":2125,"duration":220},{"tileid":2126,"duration":220},{"tileid":2127,"duration":220}]},{"id":2128,"animation":[{"tileid":2128,"duration":220},{"tileid":2129,"duration":220},{"tileid":2130,"duration":220},{"tileid":2131,"duration":220}]},{"id":2132,"animation":[{"tileid":2132,"duration":220},{"tileid":2133,"duration":220},{"tileid":2134,"duration":220},{"tileid":2135,"duration":220}]},{"id":2136,"animation":[{"tileid":2136,"duration":220},{"tileid":2137,"duration":220},{"tileid":2138,"duration":220},{"tileid":2139,"duration":220}]},{"id":2140,"animation":[{"tileid":2140,"duration":220},{"tileid":2141,"duration":220},{"tileid":2142,"duration":220},{"tileid":2143,"duration":220}]},{"id":2144,"animation":[{"tileid":2144,"duration":220},{"tileid":2145,"duration":220},{"tileid":2146,"duration":220},{"tileid":2147,"duration":220}]},{"id":2148,"animation":[{"tileid":2148,"duration":220},{"tileid":2149,"duration":220},{"tileid":2150,"duration":220},{"tileid":2151,"duration":220}]},{"id":2152,"animation":[{"tileid":2152,"duration":220},{"tileid":2153,"duration":220},{"tileid":2154,"duration":220},{"tileid":2155,"duration":220}]},{"id":2156,"animation":[{"tileid":2156,"duration":220},{"tileid":2157,"duration":220},{"tileid":2158,"duration":220},{"tileid":2159,"duration":220}]},{"id":2161,"animation":[{"tileid":2161,"duration":220},{"tileid":2162,"duration":220},{"tileid":2163,"duration":220},{"tileid":2164,"duration":220}]},{"id":2165,"animation":[{"tileid":2165,"duration":220},{"tileid":2166,"duration":220},{"tileid":2167,"duration":220},{"tileid":2168,"duration":220}]},{"id":2169,"animation":[{"tileid":2169,"duration":220},{"tileid":2170,"duration":220},{"tileid":2171,"duration":220},{"tileid":2172,"duration":220}]},{"id":2173,"animation":[{"tileid":2173,"duration":220},{"tileid":2174,"duration":220},{"tileid":2175,"duration":220},{"tileid":2176,"duration":220}]},{"id":2179,"animation":[{"tileid":2179,"duration":220},{"tileid":2180,"duration":220},{"tileid":2181,"duration":220},{"tileid":2182,"duration":220}]},{"id":2183,"animation":[{"tileid":2183,"duration":220},{"tileid":2184,"duration":220},{"tileid":2185,"duration":220},{"tileid":2186,"duration":220}]},{"id":2187,"animation":[{"tileid":2187,"duration":220},{"tileid":2188,"duration":220},{"tileid":2189,"duration":220},{"tileid":2190,"duration":220}]},{"id":2191,"animation":[{"tileid":2191,"duration":220},{"tileid":2192,"duration":220},{"tileid":2193,"duration":220},{"tileid":2194,"duration":220}]},{"id":2195,"animation":[{"tileid":2195,"duration":220},{"tileid":2196,"duration":220},{"tileid":2197,"duration":220},{"tileid":2198,"duration":220}]},{"id":2201,"animation":[{"tileid":2201,"duration":220},{"tileid":2202,"duration":220},{"tileid":2203,"duration":220},{"tileid":2204,"duration":220}]},{"id":2205,"animation":[{"tileid":2205,"duration":220},{"tileid":2206,"duration":220},{"tileid":2207,"duration":220},{"tileid":2208,"duration":220}]},{"id":2275,"animation":[{"tileid":2275,"duration":220},{"tileid":2276,"duration":220},{"tileid":2277,"duration":220},{"tileid":2278,"duration":220},{"tileid":2279,"duration":220},{"tileid":2280,"duration":220},{"tileid":2281,"duration":220},{"tileid":2282,"duration":220}]},{"id":2283,"animation":[{"tileid":2283,"duration":220},{"tileid":2284,"duration":220},{"tileid":2285,"duration":220},{"tileid":2286,"duration":220},{"tileid":2287,"duration":220},{"tileid":2288,"duration":220},{"tileid":2289,"duration":220},{"tileid":2290,"duration":220}]},{"id":2291,"animation":[{"tileid":2291,"duration":220},{"tileid":2292,"duration":220},{"tileid":2293,"duration":220},{"tileid":2294,"duration":220},{"tileid":2295,"duration":220},{"tileid":2296,"duration":220},{"tileid":2297,"duration":220},{"tileid":2298,"duration":220}]},{"id":2299,"animation":[{"tileid":2299,"duration":220},{"tileid":2300,"duration":220},{"tileid":2301,"duration":220},{"tileid":2302,"duration":220},{"tileid":2303,"duration":220},{"tileid":2304,"duration":220},{"tileid":2305,"duration":220},{"tileid":2306,"duration":220}]},{"id":2307,"animation":[{"tileid":2307,"duration":220},{"tileid":2308,"duration":220},{"tileid":2309,"duration":220},{"tileid":2310,"duration":220},{"tileid":2311,"duration":220},{"tileid":2312,"duration":220},{"tileid":2313,"duration":220},{"tileid":2314,"duration":220}]},{"id":2315,"animation":[{"tileid":2315,"duration":220},{"tileid":2316,"duration":220},{"tileid":2317,"duration":220},{"tileid":2318,"duration":220},{"tileid":2319,"duration":220},{"tileid":2320,"duration":220},{"tileid":2321,"duration":220},{"tileid":2322,"duration":220}]},{"id":2323,"animation":[{"tileid":2323,"duration":220},{"tileid":2324,"duration":220},{"tileid":2325,"duration":220},{"tileid":2326,"duration":220},{"tileid":2327,"duration":220},{"tileid":2328,"duration":220},{"tileid":2329,"duration":220},{"tileid":2330,"duration":220}]},{"id":2331,"animation":[{"tileid":2331,"duration":220},{"tileid":2332,"duration":220},{"tileid":2333,"duration":220},{"tileid":2334,"duration":220},{"tileid":2335,"duration":220},{"tileid":2336,"duration":220},{"tileid":2337,"duration":220},{"tileid":2338,"duration":220}]},{"id":2343,"animation":[{"tileid":2343,"duration":220},{"tileid":2344,"duration":220},{"tileid":2345,"duration":220},{"tileid":2346,"duration":220}]},{"id":2347,"animation":[{"tileid":2347,"duration":220},{"tileid":2348,"duration":220},{"tileid":2349,"duration":220},{"tileid":2350,"duration":220}]},{"id":2353,"animation":[{"tileid":2353,"duration":220},{"tileid":2354,"duration":220},{"tileid":2355,"duration":220},{"tileid":2356,"duration":220}]},{"id":2357,"animation":[{"tileid":2357,"duration":220},{"tileid":2358,"duration":220},{"tileid":2359,"duration":220},{"tileid":2360,"duration":220}]},{"id":2361,"animation":[{"tileid":2361,"duration":220},{"tileid":2362,"duration":220},{"tileid":2363,"duration":220},{"tileid":2364,"duration":220}]},{"id":2365,"animation":[{"tileid":2365,"duration":220},{"tileid":2366,"duration":220},{"tileid":2367,"duration":220},{"tileid":2368,"duration":220}]},{"id":2371,"animation":[{"tileid":2371,"duration":220},{"tileid":2372,"duration":220},{"tileid":2373,"duration":220},{"tileid":2374,"duration":220}]},{"id":2375,"animation":[{"tileid":2375,"duration":220},{"tileid":2376,"duration":220},{"tileid":2377,"duration":220},{"tileid":2378,"duration":220}]},{"id":2482,"animation":[{"tileid":2482,"duration":220},{"tileid":2483,"duration":220},{"tileid":2484,"duration":220},{"tileid":2485,"duration":220}]},{"id":2486,"animation":[{"tileid":2486,"duration":220},{"tileid":2487,"duration":220},{"tileid":2488,"duration":220},{"tileid":2489,"duration":220}]},{"id":2490,"animation":[{"tileid":2490,"duration":220},{"tileid":2491,"duration":220},{"tileid":2492,"duration":220},{"tileid":2493,"duration":220}]},{"id":2494,"animation":[{"tileid":2494,"duration":220},{"tileid":2495,"duration":220},{"tileid":2496,"duration":220},{"tileid":2497,"duration":220}]},{"id":2498,"animation":[{"tileid":2498,"duration":220},{"tileid":2499,"duration":220},{"tileid":2500,"duration":220},{"tileid":2501,"duration":220}]},{"id":2502,"animation":[{"tileid":2502,"duration":220},{"tileid":2503,"duration":220},{"tileid":2504,"duration":220},{"tileid":2505,"duration":220}]},{"id":2506,"animation":[{"tileid":2506,"duration":220},{"tileid":2507,"duration":220},{"tileid":2508,"duration":220},{"tileid":2509,"duration":220}]},{"id":2510,"animation":[{"tileid":2510,"duration":220},{"tileid":2511,"duration":220},{"tileid":2512,"duration":220},{"tileid":2513,"duration":220}]},{"id":2514,"animation":[{"tileid":2514,"duration":220},{"tileid":2515,"duration":220},{"tileid":2516,"duration":220},{"tileid":2517,"duration":220}]},{"id":2521,"animation":[{"tileid":2521,"duration":220},{"tileid":2522,"duration":220},{"tileid":2523,"duration":220},{"tileid":2524,"duration":220}]},{"id":2525,"animation":[{"tileid":2525,"duration":220},{"tileid":2526,"duration":220},{"tileid":2527,"duration":220},{"tileid":2528,"duration":220}]},{"id":2529,"animation":[{"tileid":2529,"duration":220},{"tileid":2530,"duration":220},{"tileid":2531,"duration":220},{"tileid":2532,"duration":220}]},{"id":2536,"animation":[{"tileid":2536,"duration":220},{"tileid":2537,"duration":220},{"tileid":2538,"duration":220},{"tileid":2539,"duration":220}]},{"id":2540,"animation":[{"tileid":2540,"duration":220},{"tileid":2541,"duration":220},{"tileid":2542,"duration":220},{"tileid":2543,"duration":220}]},{"id":2545,"animation":[{"tileid":2545,"duration":220},{"tileid":2546,"duration":220},{"tileid":2547,"duration":220},{"tileid":2548,"duration":220}]},{"id":2549,"animation":[{"tileid":2549,"duration":220},{"tileid":2550,"duration":220},{"tileid":2551,"duration":220},{"tileid":2552,"duration":220}]},{"id":2556,"animation":[{"tileid":2556,"duration":220},{"tileid":2557,"duration":220},{"tileid":2558,"duration":220},{"tileid":2559,"duration":220}]},{"id":2560,"animation":[{"tileid":2560,"duration":220},{"tileid":2561,"duration":220},{"tileid":2562,"duration":220},{"tileid":2563,"duration":220}]},{"id":2564,"animation":[{"tileid":2564,"duration":220},{"tileid":2565,"duration":220},{"tileid":2566,"duration":220},{"tileid":2567,"duration":220}]},{"id":2571,"animation":[{"tileid":2571,"duration":220},{"tileid":2572,"duration":220},{"tileid":2573,"duration":220},{"tileid":2574,"duration":220}]},{"id":2594,"animation":[{"tileid":2594,"duration":220},{"tileid":2595,"duration":220},{"tileid":2596,"duration":220},{"tileid":2597,"duration":220}]},{"id":2598,"animation":[{"tileid":2598,"duration":220},{"tileid":2599,"duration":220},{"tileid":2600,"duration":220},{"tileid":2601,"duration":220}]},{"id":2602,"animation":[{"tileid":2602,"duration":220},{"tileid":2603,"duration":220},{"tileid":2604,"duration":220},{"tileid":2605,"duration":220}]},{"id":2606,"animation":[{"tileid":2606,"duration":220},{"tileid":2607,"duration":220},{"tileid":2608,"duration":220},{"tileid":2609,"duration":220}]},{"id":2610,"animation":[{"tileid":2610,"duration":220},{"tileid":2611,"duration":220},{"tileid":2612,"duration":220},{"tileid":2613,"duration":220}]},{"id":2619,"animation":[{"tileid":2619,"duration":220},{"tileid":2620,"duration":220},{"tileid":2621,"duration":220},{"tileid":2622,"duration":220}]},{"id":2623,"animation":[{"tileid":2623,"duration":220},{"tileid":2624,"duration":220},{"tileid":2625,"duration":220},{"tileid":2626,"duration":220}]},{"id":2627,"animation":[{"tileid":2627,"duration":220},{"tileid":2628,"duration":220},{"tileid":2629,"duration":220},{"tileid":2630,"duration":220}]},{"id":2635,"animation":[{"tileid":2635,"duration":220},{"tileid":2636,"duration":220},{"tileid":2637,"duration":220},{"tileid":2638,"duration":220}]},{"id":2641,"animation":[{"tileid":2641,"duration":220},{"tileid":2642,"duration":220},{"tileid":2643,"duration":220},{"tileid":2644,"duration":220}]},{"id":2649,"animation":[{"tileid":2649,"duration":220},{"tileid":2650,"duration":220},{"tileid":2651,"duration":220},{"tileid":2652,"duration":220}]},{"id":2653,"animation":[{"tileid":2653,"duration":220},{"tileid":2654,"duration":220},{"tileid":2655,"duration":220},{"tileid":2656,"duration":220}]},{"id":2875,"animation":[{"tileid":2875,"duration":220},{"tileid":2876,"duration":220},{"tileid":2877,"duration":220},{"tileid":2878,"duration":220}]},{"id":2879,"animation":[{"tileid":2879,"duration":220},{"tileid":2880,"duration":220},{"tileid":2881,"duration":220},{"tileid":2882,"duration":220}]},{"id":2883,"animation":[{"tileid":2883,"duration":220},{"tileid":2884,"duration":220},{"tileid":2885,"duration":220},{"tileid":2886,"duration":220}]},{"id":2887,"animation":[{"tileid":2887,"duration":220},{"tileid":2888,"duration":220},{"tileid":2889,"duration":220},{"tileid":2890,"duration":220}]},{"id":2891,"animation":[{"tileid":2891,"duration":220},{"tileid":2892,"duration":220},{"tileid":2893,"duration":220},{"tileid":2894,"duration":220}]},{"id":2897,"animation":[{"tileid":2897,"duration":220},{"tileid":2898,"duration":220},{"tileid":2899,"duration":220},{"tileid":2900,"duration":220}]},{"id":2901,"animation":[{"tileid":2901,"duration":220},{"tileid":2902,"duration":220},{"tileid":2903,"duration":220},{"tileid":2904,"duration":220}]},{"id":2907,"animation":[{"tileid":2907,"duration":220},{"tileid":2908,"duration":220},{"tileid":2909,"duration":220},{"tileid":2910,"duration":220}]},{"id":2911,"animation":[{"tileid":2911,"duration":220},{"tileid":2912,"duration":220},{"tileid":2913,"duration":220},{"tileid":2914,"duration":220}]},{"id":2915,"animation":[{"tileid":2915,"duration":220},{"tileid":2916,"duration":220},{"tileid":2917,"duration":220},{"tileid":2918,"duration":220}]},{"id":2919,"animation":[{"tileid":2919,"duration":220},{"tileid":2920,"duration":220},{"tileid":2921,"duration":220},{"tileid":2922,"duration":220}]},{"id":2923,"animation":[{"tileid":2923,"duration":220},{"tileid":2924,"duration":220},{"tileid":2925,"duration":220},{"tileid":2926,"duration":220}]},{"id":2927,"animation":[{"tileid":2927,"duration":220},{"tileid":2928,"duration":220},{"tileid":2929,"duration":220},{"tileid":2930,"duration":220}]},{"id":2931,"animation":[{"tileid":2931,"duration":220},{"tileid":2932,"duration":220},{"tileid":2933,"duration":220},{"tileid":2934,"duration":220}]},{"id":2935,"animation":[{"tileid":2935,"duration":220},{"tileid":2936,"duration":220},{"tileid":2937,"duration":220},{"tileid":2938,"duration":220}]},{"id":2942,"animation":[{"tileid":2942,"duration":220},{"tileid":2943,"duration":220},{"tileid":2944,"duration":220},{"tileid":2945,"duration":220}]},{"id":2951,"animation":[{"tileid":2951,"duration":220},{"tileid":2952,"duration":220},{"tileid":2953,"duration":220},{"tileid":2954,"duration":220}]},{"id":2955,"animation":[{"tileid":2955,"duration":220},{"tileid":2956,"duration":220},{"tileid":2957,"duration":220},{"tileid":2958,"duration":220}]},{"id":2959,"animation":[{"tileid":2959,"duration":220},{"tileid":2960,"duration":220},{"tileid":2961,"duration":220},{"tileid":2962,"duration":220}]},{"id":2963,"animation":[{"tileid":2963,"duration":220},{"tileid":2964,"duration":220},{"tileid":2965,"duration":220},{"tileid":2966,"duration":220}]},{"id":2967,"animation":[{"tileid":2967,"duration":220},{"tileid":2968,"duration":220},{"tileid":2969,"duration":220},{"tileid":2970,"duration":220}]},{"id":2971,"animation":[{"tileid":2971,"duration":220},{"tileid":2972,"duration":220},{"tileid":2973,"duration":220},{"tileid":2974,"duration":220}]},{"id":2975,"animation":[{"tileid":2975,"duration":220},{"tileid":2976,"duration":220},{"tileid":2977,"duration":220},{"tileid":2978,"duration":220}]},{"id":2979,"animation":[{"tileid":2979,"duration":220},{"tileid":2980,"duration":220},{"tileid":2981,"duration":220},{"tileid":2982,"duration":220}]},{"id":2983,"animation":[{"tileid":2983,"duration":220},{"tileid":2984,"duration":220},{"tileid":2985,"duration":220},{"tileid":2986,"duration":220}]},{"id":2987,"animation":[{"tileid":2987,"duration":220},{"tileid":2988,"duration":220},{"tileid":2989,"duration":220},{"tileid":2990,"duration":220}]},{"id":2991,"animation":[{"tileid":2991,"duration":220},{"tileid":2992,"duration":220},{"tileid":2993,"duration":220},{"tileid":2994,"duration":220}]},{"id":2995,"animation":[{"tileid":2995,"duration":220},{"tileid":2996,"duration":220},{"tileid":2997,"duration":220},{"tileid":2998,"duration":220}]},{"id":2999,"animation":[{"tileid":2999,"duration":220},{"tileid":3000,"duration":220},{"tileid":3001,"duration":220},{"tileid":3002,"duration":220}]},{"id":3003,"animation":[{"tileid":3003,"duration":220},{"tileid":3004,"duration":220},{"tileid":3005,"duration":220},{"tileid":3006,"duration":220}]},{"id":3007,"animation":[{"tileid":3007,"duration":220},{"tileid":3008,"duration":220},{"tileid":3009,"duration":220},{"tileid":3010,"duration":220}]},{"id":3011,"animation":[{"tileid":3011,"duration":220},{"tileid":3012,"duration":220},{"tileid":3013,"duration":220},{"tileid":3014,"duration":220}]},{"id":3015,"animation":[{"tileid":3015,"duration":220},{"tileid":3016,"duration":220},{"tileid":3017,"duration":220},{"tileid":3018,"duration":220}]},{"id":3019,"animation":[{"tileid":3019,"duration":220},{"tileid":3020,"duration":220},{"tileid":3021,"duration":220},{"tileid":3022,"duration":220}]},{"id":3023,"animation":[{"tileid":3023,"duration":220},{"tileid":3024,"duration":220},{"tileid":3025,"duration":220},{"tileid":3026,"duration":220}]},{"id":3027,"animation":[{"tileid":3027,"duration":220},{"tileid":3028,"duration":220},{"tileid":3029,"duration":220},{"tileid":3030,"duration":220}]},{"id":3031,"animation":[{"tileid":3031,"duration":220},{"tileid":3032,"duration":220},{"tileid":3033,"duration":220},{"tileid":3034,"duration":220}]},{"id":3035,"animation":[{"tileid":3035,"duration":220},{"tileid":3036,"duration":220},{"tileid":3037,"duration":220},{"tileid":3038,"duration":220}]},{"id":3039,"animation":[{"tileid":3039,"duration":220},{"tileid":3040,"duration":220},{"tileid":3041,"duration":220},{"tileid":3042,"duration":220}]},{"id":3043,"animation":[{"tileid":3043,"duration":220},{"tileid":3044,"duration":220},{"tileid":3045,"duration":220},{"tileid":3046,"duration":220}]},{"id":3047,"animation":[{"tileid":3047,"duration":220},{"tileid":3048,"duration":220},{"tileid":3049,"duration":220},{"tileid":3050,"duration":220}]},{"id":3051,"animation":[{"tileid":3051,"duration":220},{"tileid":3052,"duration":220},{"tileid":3053,"duration":220},{"tileid":3054,"duration":220}]},{"id":3057,"animation":[{"tileid":3057,"duration":220},{"tileid":3058,"duration":220},{"tileid":3059,"duration":220},{"tileid":3060,"duration":220}]},{"id":3062,"animation":[{"tileid":3062,"duration":220},{"tileid":3063,"duration":220},{"tileid":3064,"duration":220},{"tileid":3065,"duration":220}]},{"id":3066,"animation":[{"tileid":3066,"duration":220},{"tileid":3067,"duration":220},{"tileid":3068,"duration":220},{"tileid":3069,"duration":220}]},{"id":3071,"animation":[{"tileid":3071,"duration":220},{"tileid":3072,"duration":220},{"tileid":3073,"duration":220},{"tileid":3074,"duration":220}]},{"id":3075,"animation":[{"tileid":3075,"duration":220},{"tileid":3076,"duration":220},{"tileid":3077,"duration":220},{"tileid":3078,"duration":220}]},{"id":3079,"animation":[{"tileid":3079,"duration":220},{"tileid":3080,"duration":220},{"tileid":3081,"duration":220},{"tileid":3082,"duration":220}]},{"id":3083,"animation":[{"tileid":3083,"duration":220},{"tileid":3084,"duration":220},{"tileid":3085,"duration":220},{"tileid":3086,"duration":220}]},{"id":3087,"animation":[{"tileid":3087,"duration":220},{"tileid":3088,"duration":220},{"tileid":3089,"duration":220},{"tileid":3090,"duration":220}]},{"id":3091,"animation":[{"tileid":3091,"duration":220},{"tileid":3092,"duration":220},{"tileid":3093,"duration":220},{"tileid":3094,"duration":220}]},{"id":3095,"animation":[{"tileid":3095,"duration":220},{"tileid":3096,"duration":220},{"tileid":3097,"duration":220},{"tileid":3098,"duration":220}]},{"id":3099,"animation":[{"tileid":3099,"duration":220},{"tileid":3100,"duration":220},{"tileid":3101,"duration":220},{"tileid":3102,"duration":220}]},{"id":3103,"animation":[{"tileid":3103,"duration":220},{"tileid":3104,"duration":220},{"tileid":3105,"duration":220},{"tileid":3106,"duration":220}]},{"id":3107,"animation":[{"tileid":3107,"duration":220},{"tileid":3108,"duration":220},{"tileid":3109,"duration":220},{"tileid":3110,"duration":220}]}]},{"firstgid":3178,"name":"meta","image":"../tilesets/meta.png","imagewidth":256,"imageheight":16,"tilewidth":16,"tileheight":16,"tilecount":16,"columns":16,"margin":0,"spacing":0,"tiles":[{"id":0,"properties":[{"name":"behavior","type":"string","value":"none"}]},{"id":1,"properties":[{"name":"behavior","type":"string","value":"solid"}]},{"id":2,"properties":[{"name":"behavior","type":"string","value":"water"}]},{"id":3,"properties":[{"name":"behavior","type":"string","value":"grass"}]},{"id":4,"properties":[{"name":"behavior","type":"string","value":"ledge_down"}]},{"id":5,"properties":[{"name":"behavior","type":"string","value":"ledge_left"}]},{"id":6,"properties":[{"name":"behavior","type":"string","value":"ledge_right"}]},{"id":7,"properties":[{"name":"behavior","type":"string","value":"counter"}]},{"id":8,"properties":[{"name":"behavior","type":"string","value":"door"}]},{"id":9,"properties":[{"name":"behavior","type":"string","value":"bridge"}]},{"id":10,"properties":[{"name":"behavior","type":"string","value":"noenc"}]},{"id":11,"properties":[{"name":"behavior","type":"string","value":"ice"}]},{"id":12,"properties":[{"name":"behavior","type":"string","value":"push_up"}]},{"id":13,"properties":[{"name":"behavior","type":"string","value":"push_down"}]},{"id":14,"properties":[{"name":"behavior","type":"string","value":"push_left"}]},{"id":15,"properties":[{"name":"behavior","type":"string","value":"push_right"}]}]}]}