{"type":"map","version":"1.10","tiledversion":"1.10.2","orientation":"orthogonal","renderorder":"right-down","width":16,"height":11,"tilewidth":16,"tileheight":16,"infinite":false,"nextlayerid":6,"nextobjectid":6,"properties":[{"name":"kind","type":"string","value":"interior"},{"name":"name","type":"string","value":"Gearhollow Haven"},{"name":"floor","type":"string","value":"mint"},{"name":"wall","type":"string","value":"teal"},{"name":"music","type":"string","value":"haven"}],"layers":[{"id":1,"name":"ground","type":"tilelayer","width":16,"height":11,"x":0,"y":0,"opacity":1,"visible":true,"data":[409,409,410,409,409,409,409,409,409,409,409,409,409,410,409,409,411,411,413,411,411,411,411,411,411,411,411,411,411,413,411,411,419,420,419,419,420,419,419,420,419,419,420,419,419,420,419,419,428,429,428,428,429,428,428,429,428,428,429,428,428,429,428,428,428,429,428,428,429,428,428,429,428,428,429,428,428,429,428,428,428,429,428,428,429,428,428,429,428,428,429,428,428,429,428,428,428,429,428,428,429,428,428,429,428,428,429,428,428,429,428,428,428,429,428,428,429,428,428,429,428,428,429,428,428,429,428,428,428,429,428,428,429,428,428,429,428,428,429,428,428,429,428,428,428,429,428,428,429,428,428,429,428,428,429,428,428,429,428,428,428,429,428,428,429,428,428,429,428,428,429,428,428,429,428,428]},{"id":2,"name":"decor","type":"tilelayer","width":16,"height":11,"x":0,"y":0,"opacity":1,"visible":true,"data":[0,0,0,0,0,0,0,0,0,0,0,0,0,0,0,0,0,0,0,0,0,0,0,0,0,0,0,0,0,0,0,0,0,421,0,422,0,0,424,425,0,0,0,0,426,427,0,0,0,0,0,430,0,0,0,0,0,0,0,0,0,0,0,0,0,0,0,0,432,432,432,432,432,432,430,432,432,432,432,430,0,0,0,0,0,0,0,0,0,0,0,0,0,0,0,0,0,434,0,0,0,0,437,438,439,0,0,0,0,0,0,0,0,440,441,434,0,0,442,443,444,0,0,440,441,434,0,0,0,0,0,0,0,0,0,0,0,0,0,0,0,0,0,0,430,0,0,0,0,0,0,0,0,0,0,0,0,0,0,430,0,0,0,0,0,0,0,445,445,0,0,0,0,0,0,0]},{"id":3,"name":"above","type":"tilelayer","width":16,"height":11,"x":0,"y":0,"opacity":1,"visible":true,"data":[0,0,0,0,0,0,0,0,0,0,0,0,0,0,0,0,0,412,0,414,0,0,415,416,0,0,0,0,417,418,0,0,0,0,0,423,0,0,0,0,0,0,0,0,0,0,0,0,0,0,0,0,431,431,431,431,431,431,423,431,431,431,431,423,0,0,0,0,0,0,0,0,0,0,0,0,0,0,0,0,0,433,0,0,0,0,0,0,0,0,0,0,0,0,0,0,0,435,436,433,0,0,0,0,0,0,0,435,436,433,0,0,0,0,0,0,0,0,0,0,0,0,0,0,0,0,0,0,423,0,0,0,0,0,0,0,0,0,0,0,0,0,0,423,0,0,0,0,0,0,0,0,0,0,0,0,0,0,0,0,0,0,0,0,0,0,0,0,0,0,0,0,0,0,0,0]},{"id":4,"name":"meta","type":"tilelayer","width":16,"height":11,"x":0,"y":0,"opacity":0.6,"visible":false,"data":[2867,2867,2867,2867,2867,2867,2867,2867,2867,2867,2867,2867,2867,2867,2867,2867,2867,2867,2867,2867,2867,2867,2867,2867,2867,2867,2867,2867,2867,2867,2867,2867,0,2867,0,2867,0,0,2867,2867,0,0,0,0,2867,2867,0,0,0,0,0,2867,0,0,0,0,0,0,0,0,0,0,0,0,0,0,0,0,2873,2873,2873,2873,2873,2873,2867,2873,2873,2873,2873,2867,0,0,0,0,0,0,0,0,0,0,0,0,0,0,0,0,0,2867,0,0,0,0,0,0,0,0,0,0,0,0,0,0,0,2867,2867,2867,0,0,0,0,0,0,0,2867,2867,2867,0,0,0,0,0,0,0,0,0,0,0,0,0,0,0,0,0,0,2867,0,0,0,0,0,0,0,0,0,0,0,0,0,0,2867,0,0,0,0,0,0,0,0,0,0,0,0,0,0,0,0]},{"id":5,"name":"objects","type":"objectgroup","draworder":"topdown","x":0,"y":0,"opacity":1,"visible":true,"objects":[{"id":1,"name":"","type":"sign","x":16,"y":32,"width":16,"height":16,"rotation":0,"visible":true,"properties":[{"name":"script","type":"string","value":"haven.pc"}]},{"id":2,"name":"gearhollow_haven_keeper","type":"npc","x":112,"y":48,"width":16,"height":16,"rotation":0,"visible":true,"properties":[{"name":"id","type":"string","value":"gearhollow_haven_keeper"},{"name":"sprite","type":"string","value":"nurse"},{"name":"face","type":"string","value":"down"},{"name":"move","type":"string","value":"still"},{"name":"script","type":"string","value":"haven.heal"},{"name":"noturn","type":"string","value":"1"},{"name":"name","type":"string","value":"Haven Keeper"}]},{"id":3,"name":"gearhollow_haven_clerk","type":"npc","x":192,"y":48,"width":16,"height":16,"rotation":0,"visible":true,"properties":[{"name":"id","type":"string","value":"gearhollow_haven_clerk"},{"name":"sprite","type":"string","value":"clerk"},{"name":"face","type":"string","value":"down"},{"name":"move","type":"string","value":"still"},{"name":"script","type":"string","value":"haven.shop"},{"name":"noturn","type":"string","value":"1"},{"name":"name","type":"string","value":"Clerk"}]},{"id":4,"name":"","type":"warp","x":112,"y":160,"width":16,"height":16,"rotation":0,"visible":true,"properties":[{"name":"mat","type":"string","value":"1"},{"name":"to","type":"string","value":"gearhollow:12,14"},{"name":"face","type":"string","value":"down"}]},{"id":5,"name":"","type":"warp","x":128,"y":160,"width":16,"height":16,"rotation":0,"visible":true,"properties":[{"name":"mat","type":"string","value":"1"},{"name":"to","type":"string","value":"gearhollow:12,14"},{"name":"face","type":"string","value":"down"}]}]}],"tilesets":[{"firstgid":1,"name":"world","image":"../tilesets/world.png","imagewidth":1024,"imageheight":720,"tilewidth":16,"tileheight":16,"tilecount":2865,"columns":64,"margin":0,"spacing":0,"tiles":[{"id":18,"animation":[{"tileid":18,"duration":220},{"tileid":19,"duration":220},{"tileid":20,"duration":220},{"tileid":21,"duration":220}]},{"id":22,"animation":[{"tileid":22,"duration":220},{"tileid":23,"duration":220},{"tileid":24,"duration":220},{"tileid":25,"duration":220}]},{"id":26,"animation":[{"tileid":26,"duration":220},{"tileid":27,"duration":220},{"tileid":28,"duration":220},{"tileid":29,"duration":220}]},{"id":30,"animation":[{"tileid":30,"duration":220},{"tileid":31,"duration":220},{"tileid":32,"duration":220},{"tileid":33,"duration":220}]},{"id":34,"animation":[{"tileid":34,"duration":220},{"tileid":35,"duration":220},{"tileid":36,"duration":220},{"tileid":37,"duration":220}]},{"id":38,"animation":[{"tileid":38,"duration":220},{"tileid":39,"duration":220},{"tileid":40,"duration":220},{"tileid":41,"duration":220}]},{"id":42,"animation":[{"tileid":42,"duration":220},{"tileid":43,"duration":220},{"tileid":44,"duration":220},{"tileid":45,"duration":220}]},{"id":46,"animation":[{"tileid":46,"duration":220},{"tileid":47,"duration":220},{"tileid":48,"duration":220},{"tileid":49,"duration":220}]},{"id":50,"animation":[{"tileid":50,"duration":220},{"tileid":51,"duration":220},{"tileid":52,"duration":220},{"tileid":53,"duration":220}]},{"id":54,"animation":[{"tileid":54,"duration":220},{"tileid":55,"duration":220},{"tileid":56,"duration":220},{"tileid":57,"duration":220}]},{"id":58,"animation":[{"tileid":58,"duration":220},{"tileid":59,"duration":220},{"tileid":60,"duration":220},{"tileid":61,"duration":220}]},{"id":62,"animation":[{"tileid":62,"duration":220},{"tileid":63,"duration":220},{"tileid":64,"duration":220},{"tileid":65,"duration":220}]},{"id":66,"animation":[{"tileid":66,"duration":220},{"tileid":67,"duration":220},{"tileid":68,"duration":220},{"tileid":69,"duration":220}]},{"id":70,"animation":[{"tileid":70,"duration":220},{"tileid":71,"duration":220},{"tileid":72,"duration":220},{"tileid":73,"duration":220}]},{"id":74,"animation":[{"tileid":74,"duration":220},{"tileid":75,"duration":220},{"tileid":76,"duration":220},{"tileid":77,"duration":220}]},{"id":78,"animation":[{"tileid":78,"duration":220},{"tileid":79,"duration":220},{"tileid":80,"duration":220},{"tileid":81,"duration":220}]},{"id":82,"animation":[{"tileid":82,"duration":220},{"tileid":83,"duration":220},{"tileid":84,"duration":220},{"tileid":85,"duration":220}]},{"id":86,"animation":[{"tileid":86,"duration":220},{"tileid":87,"duration":220},{"tileid":88,"duration":220},{"tileid":89,"duration":220}]},{"id":90,"animation":[{"tileid":90,"duration":220},{"tileid":91,"duration":220},{"tileid":92,"duration":220},{"tileid":93,"duration":220}]},{"id":94,"animation":[{"tileid":94,"duration":220},{"tileid":95,"duration":220},{"tileid":96,"duration":220},{"tileid":97,"duration":220}]},{"id":98,"animation":[{"tileid":98,"duration":220},{"tileid":99,"duration":220},{"tileid":100,"duration":220},{"tileid":101,"duration":220}]},{"id":102,"animation":[{"tileid":102,"duration":220},{"tileid":103,"duration":220},{"tileid":104,"duration":220},{"tileid":105,"duration":220}]},{"id":106,"animation":[{"tileid":106,"duration":220},{"tileid":107,"duration":220},{"tileid":108,"duration":220},{"tileid":109,"duration":220}]},{"id":269,"animation":[{"tileid":269,"duration":220},{"tileid":270,"duration":220},{"tileid":271,"duration":220},{"tileid":272,"duration":220}]},{"id":273,"animation":[{"tileid":273,"duration":220},{"tileid":274,"duration":220},{"tileid":275,"duration":220},{"tileid":276,"duration":220}]},{"id":282,"animation":[{"tileid":282,"duration":220},{"tileid":283,"duration":220},{"tileid":284,"duration":220},{"tileid":285,"duration":220}]},{"id":286,"animation":[{"tileid":286,"duration":220},{"tileid":287,"duration":220},{"tileid":288,"duration":220},{"tileid":289,"duration":220}]},{"id":290,"animation":[{"tileid":290,"duration":220},{"tileid":291,"duration":220},{"tileid":292,"duration":220},{"tileid":293,"duration":220}]},{"id":294,"animation":[{"tileid":294,"duration":220},{"tileid":295,"duration":220},{"tileid":296,"duration":220},{"tileid":297,"duration":220}]},{"id":298,"animation":[{"tileid":298,"duration":220},{"tileid":299,"duration":220},{"tileid":300,"duration":220},{"tileid":301,"duration":220}]},{"id":302,"animation":[{"tileid":302,"duration":220},{"tileid":303,"duration":220},{"tileid":304,"duration":220},{"tileid":305,"duration":220}]},{"id":312,"animation":[{"tileid":312,"duration":220},{"tileid":313,"duration":220},{"tileid":314,"duration":220},{"tileid":315,"duration":220}]},{"id":316,"animation":[{"tileid":316,"duration":220},{"tileid":317,"duration":220},{"tileid":318,"duration":220},{"tileid":319,"duration":220}]},{"id":320,"animation":[{"tileid":320,"duration":220},{"tileid":321,"duration":220},{"tileid":322,"duration":220},{"tileid":323,"duration":220}]},{"id":324,"animation":[{"tileid":324,"duration":220},{"tileid":325,"duration":220},{"tileid":326,"duration":220},{"tileid":327,"duration":220}]},{"id":328,"animation":[{"tileid":328,"duration":220},{"tileid":329,"duration":220},{"tileid":330,"duration":220},{"tileid":331,"duration":220}]},{"id":332,"animation":[{"tileid":332,"duration":220},{"tileid":333,"duration":220},{"tileid":334,"duration":220},{"tileid":335,"duration":220}]},{"id":340,"animation":[{"tileid":340,"duration":220},{"tileid":341,"duration":220},{"tileid":342,"duration":220},{"tileid":343,"duration":220}]},{"id":344,"animation":[{"tileid":344,"duration":220},{"tileid":345,"duration":220},{"tileid":346,"duration":220},{"tileid":347,"duration":220}]},{"id":502,"animation":[{"tileid":502,"duration":220},{"tileid":503,"duration":220},{"tileid":504,"duration":220},{"tileid":505,"duration":220}]},{"id":506,"animation":[{"tileid":506,"duration":220},{"tileid":507,"duration":220},{"tileid":508,"duration":220},{"tileid":509,"duration":220}]},{"id":545,"animation":[{"tileid":545,"duration":220},{"tileid":546,"duration":220},{"tileid":547,"duration":220},{"tileid":548,"duration":220}]},{"id":549,"animation":[{"tileid":549,"duration":220},{"tileid":550,"duration":220},{"tileid":551,"duration":220},{"tileid":552,"duration":220}]},{"id":553,"animation":[{"tileid":553,"duration":220},{"tileid":554,"duration":220},{"tileid":555,"duration":220},{"tileid":556,"duration":220}]},{"id":557,"animation":[{"tileid":557,"duration":220},{"tileid":558,"duration":220},{"tileid":559,"duration":220},{"tileid":560,"duration":220}]},{"id":563,"animation":[{"tileid":563,"duration":220},{"tileid":564,"duration":220},{"tileid":565,"duration":220},{"tileid":566,"duration":220}]},{"id":567,"animation":[{"tileid":567,"duration":220},{"tileid":568,"duration":220},{"tileid":569,"duration":220},{"tileid":570,"duration":220}]},{"id":571,"animation":[{"tileid":571,"duration":220},{"tileid":572,"duration":220},{"tileid":573,"duration":220},{"tileid":574,"duration":220}]},{"id":575,"animation":[{"tileid":575,"duration":220},{"tileid":576,"duration":220},{"tileid":577,"duration":220},{"tileid":578,"duration":220}]},{"id":945,"animation":[{"tileid":945,"duration":220},{"tileid":946,"duration":220},{"tileid":947,"duration":220},{"tileid":948,"duration":220}]},{"id":949,"animation":[{"tileid":949,"duration":220},{"tileid":950,"duration":220},{"tileid":951,"duration":220},{"tileid":952,"duration":220}]},{"id":953,"animation":[{"tileid":953,"duration":220},{"tileid":954,"duration":220},{"tileid":955,"duration":220},{"tileid":956,"duration":220}]},{"id":957,"animation":[{"tileid":957,"duration":220},{"tileid":958,"duration":220},{"tileid":959,"duration":220},{"tileid":960,"duration":220}]},{"id":962,"animation":[{"tileid":962,"duration":220},{"tileid":963,"duration":220},{"tileid":964,"duration":220},{"tileid":965,"duration":220}]},{"id":966,"animation":[{"tileid":966,"duration":220},{"tileid":967,"duration":220},{"tileid":968,"duration":220},{"tileid":969,"duration":220}]},{"id":972,"animation":[{"tileid":972,"duration":220},{"tileid":973,"duration":220},{"tileid":974,"duration":220},{"tileid":975,"duration":220}]},{"id":977,"animation":[{"tileid":977,"duration":220},{"tileid":978,"duration":220},{"tileid":979,"duration":220},{"tileid":980,"duration":220}]},{"id":981,"animation":[{"tileid":981,"duration":220},{"tileid":982,"duration":220},{"tileid":983,"duration":220},{"tileid":984,"duration":220}]},{"id":993,"animation":[{"tileid":993,"duration":220},{"tileid":994,"duration":220},{"tileid":995,"duration":220},{"tileid":996,"duration":220}]},{"id":1018,"animation":[{"tileid":1018,"duration":220},{"tileid":1019,"duration":220},{"tileid":1020,"duration":220},{"tileid":1021,"duration":220}]},{"id":1022,"animation":[{"tileid":1022,"duration":220},{"tileid":1023,"duration":220},{"tileid":1024,"duration":220},{"tileid":1025,"duration":220}]},{"id":1032,"animation":[{"tileid":1032,"duration":220},{"tileid":1033,"duration":220},{"tileid":1034,"duration":220},{"tileid":1035,"duration":220}]},{"id":1036,"animation":[{"tileid":1036,"duration":220},{"tileid":1037,"duration":220},{"tileid":1038,"duration":220},{"tileid":1039,"duration":220}]},{"id":1062,"animation":[{"tileid":1062,"duration":220},{"tileid":1063,"duration":220},{"tileid":1064,"duration":220},{"tileid":1065,"duration":220}]},{"id":1066,"animation":[{"tileid":1066,"duration":220},{"tileid":1067,"duration":220},{"tileid":1068,"duration":220},{"tileid":1069,"duration":220}]},{"id":1070,"animation":[{"tileid":1070,"duration":220},{"tileid":1071,"duration":220},{"tileid":1072,"duration":220},{"tileid":1073,"duration":220}]},{"id":1074,"animation":[{"tileid":1074,"duration":220},{"tileid":1075,"duration":220},{"tileid":1076,"duration":220},{"tileid":1077,"duration":220}]},{"id":1078,"animation":[{"tileid":1078,"duration":220},{"tileid":1079,"duration":220},{"tileid":1080,"duration":220},{"tileid":1081,"duration":220}]},{"id":1082,"animation":[{"tileid":1082,"duration":220},{"tileid":1083,"duration":220},{"tileid":1084,"duration":220},{"tileid":1085,"duration":220}]},{"id":1095,"animation":[{"tileid":1095,"duration":220},{"tileid":1096,"duration":220},{"tileid":1097,"duration":220},{"tileid":1098,"duration":220}]},{"id":1106,"animation":[{"tileid":1106,"duration":220},{"tileid":1107,"duration":220},{"tileid":1108,"duration":220},{"tileid":1109,"duration":220}]},{"id":1125,"animation":[{"tileid":1125,"duration":220},{"tileid":1126,"duration":220},{"tileid":1127,"duration":220},{"tileid":1128,"duration":220}]},{"id":1129,"animation":[{"tileid":1129,"duration":220},{"tileid":1130,"duration":220},{"tileid":1131,"duration":220},{"tileid":1132,"duration":220}]},{"id":1133,"animation":[{"tileid":1133,"duration":220},{"tileid":1134,"duration":220},{"tileid":1135,"duration":220},{"tileid":1136,"duration":220}]},{"id":1137,"animation":[{"tileid":1137,"duration":220},{"tileid":1138,"duration":220},{"tileid":1139,"duration":220},{"tileid":1140,"duration":220}]},{"id":1152,"animation":[{"tileid":1152,"duration":220},{"tileid":1153,"duration":220},{"tileid":1154,"duration":220},{"tileid":1155,"duration":220}]},{"id":1156,"animation":[{"tileid":1156,"duration":220},{"tileid":1157,"duration":220},{"tileid":1158,"duration":220},{"tileid":1159,"duration":220}]},{"id":1160,"animation":[{"tileid":1160,"duration":220},{"tileid":1161,"duration":220},{"tileid":1162,"duration":220},{"tileid":1163,"duration":220}]},{"id":1174,"animation":[{"tileid":1174,"duration":220},{"tileid":1175,"duration":220},{"tileid":1176,"duration":220},{"tileid":1177,"duration":220}]},{"id":1180,"animation":[{"tileid":1180,"duration":220},{"tileid":1181,"duration":220},{"tileid":1182,"duration":220},{"tileid":1183,"duration":220}]},{"id":1201,"animation":[{"tileid":1201,"duration":220},{"tileid":1202,"duration":220},{"tileid":1203,"duration":220},{"tileid":1204,"duration":220}]},{"id":1205,"animation":[{"tileid":1205,"duration":220},{"tileid":1206,"duration":220},{"tileid":1207,"duration":220},{"tileid":1208,"duration":220}]},{"id":1209,"animation":[{"tileid":1209,"duration":220},{"tileid":1210,"duration":220},{"tileid":1211,"duration":220},{"tileid":1212,"duration":220}]},{"id":1213,"animation":[{"tileid":1213,"duration":220},{"tileid":1214,"duration":220},{"tileid":1215,"duration":220},{"tileid":1216,"duration":220}]},{"id":1217,"animation":[{"tileid":1217,"duration":220},{"tileid":1218,"duration":220},{"tileid":1219,"duration":220},{"tileid":1220,"duration":220}]},{"id":1263,"animation":[{"tileid":1263,"duration":220},{"tileid":1264,"duration":220},{"tileid":1265,"duration":220},{"tileid":1266,"duration":220}]},{"id":1271,"animation":[{"tileid":1271,"duration":220},{"tileid":1272,"duration":220},{"tileid":1273,"duration":220},{"tileid":1274,"duration":220}]},{"id":1277,"animation":[{"tileid":1277,"duration":220},{"tileid":1278,"duration":220},{"tileid":1279,"duration":220},{"tileid":1280,"duration":220}]},{"id":1317,"animation":[{"tileid":1317,"duration":220},{"tileid":1318,"duration":220},{"tileid":1319,"duration":220},{"tileid":1320,"duration":220}]},{"id":1562,"animation":[{"tileid":1562,"duration":220},{"tileid":1563,"duration":220},{"tileid":1564,"duration":220},{"tileid":1565,"duration":220}]},{"id":1566,"animation":[{"tileid":1566,"duration":220},{"tileid":1567,"duration":220},{"tileid":1568,"duration":220},{"tileid":1569,"duration":220}]},{"id":1570,"animation":[{"tileid":1570,"duration":220},{"tileid":1571,"duration":220},{"tileid":1572,"duration":220},{"tileid":1573,"duration":220}]},{"id":1574,"animation":[{"tileid":1574,"duration":220},{"tileid":1575,"duration":220},{"tileid":1576,"duration":220},{"tileid":1577,"duration":220}]},{"id":1581,"animation":[{"tileid":1581,"duration":220},{"tileid":1582,"duration":220},{"tileid":1583,"duration":220},{"tileid":1584,"duration":220}]},{"id":1585,"animation":[{"tileid":1585,"duration":220},{"tileid":1586,"duration":220},{"tileid":1587,"duration":220},{"tileid":1588,"duration":220}]},{"id":1589,"animation":[{"tileid":1589,"duration":220},{"tileid":1590,"duration":220},{"tileid":1591,"duration":220},{"tileid":1592,"duration":220}]},{"id":1593,"animation":[{"tileid":1593,"duration":220},{"tileid":1594,"duration":220},{"tileid":1595,"duration":220},{"tileid":1596,"duration":220}]},{"id":1598,"animation":[{"tileid":1598,"duration":220},{"tileid":1599,"duration":220},{"tileid":1600,"duration":220},{"tileid":1601,"duration":220}]},{"id":1602,"animation":[{"tileid":1602,"duration":220},{"tileid":1603,"duration":220},{"tileid":1604,"duration":220},{"tileid":1605,"duration":220}]},{"id":1606,"animation":[{"tileid":1606,"duration":220},{"tileid":1607,"duration":220},{"tileid":1608,"duration":220},{"tileid":1609,"duration":220}]},{"id":1610,"animation":[{"tileid":1610,"duration":220},{"tileid":1611,"duration":220},{"tileid":1612,"duration":220},{"tileid":1613,"duration":220}]},{"id":1614,"animation":[{"tileid":1614,"duration":220},{"tileid":1615,"duration":220},{"tileid":1616,"duration":220},{"tileid":1617,"duration":220}]},{"id":1620,"animation":[{"tileid":1620,"duration":220},{"tileid":1621,"duration":220},{"tileid":1622,"duration":220},{"tileid":1623,"duration":220}]},{"id":1624,"animation":[{"tileid":1624,"duration":220},{"tileid":1625,"duration":220},{"tileid":1626,"duration":220},{"tileid":1627,"duration":220}]},{"id":1649,"animation":[{"tileid":1649,"duration":220},{"tileid":1650,"duration":220},{"tileid":1651,"duration":220},{"tileid":1652,"duration":220}]},{"id":1653,"animation":[{"tileid":1653,"duration":220},{"tileid":1654,"duration":220},{"tileid":1655,"duration":220},{"tileid":1656,"duration":220}]},{"id":1660,"animation":[{"tileid":1660,"duration":220},{"tileid":1661,"duration":220},{"tileid":1662,"duration":220},{"tileid":1663,"duration":220}]},{"id":1664,"animation":[{"tileid":1664,"duration":220},{"tileid":1665,"duration":220},{"tileid":1666,"duration":220},{"tileid":1667,"duration":220}]},{"id":1668,"animation":[{"tileid":1668,"duration":220},{"tileid":1669,"duration":220},{"tileid":1670,"duration":220},{"tileid":1671,"duration":220}]},{"id":1672,"animation":[{"tileid":1672,"duration":220},{"tileid":1673,"duration":220},{"tileid":1674,"duration":220},{"tileid":1675,"duration":220}]},{"id":1677,"animation":[{"tileid":1677,"duration":220},{"tileid":1678,"duration":220},{"tileid":1679,"duration":220},{"tileid":1680,"duration":220}]},{"id":1681,"animation":[{"tileid":1681,"duration":220},{"tileid":1682,"duration":220},{"tileid":1683,"duration":220},{"tileid":1684,"duration":220}]},{"id":1685,"animation":[{"tileid":1685,"duration":220},{"tileid":1686,"duration":220},{"tileid":1687,"duration":220},{"tileid":1688,"duration":220}]},{"id":1691,"animation":[{"tileid":1691,"duration":220},{"tileid":1692,"duration":220},{"tileid":1693,"duration":220},{"tileid":1694,"duration":220}]},{"id":1695,"animation":[{"tileid":1695,"duration":220},{"tileid":1696,"duration":220},{"tileid":1697,"duration":220},{"tileid":1698,"duration":220}]},{"id":1706,"animation":[{"tileid":1706,"duration":220},{"tileid":1707,"duration":220},{"tileid":1708,"duration":220},{"tileid":1709,"duration":220}]},{"id":1712,"animation":[{"tileid":1712,"duration":220},{"tileid":1713,"duration":220},{"tileid":1714,"duration":220},{"tileid":1715,"duration":220}]},{"id":1718,"animation":[{"tileid":1718,"duration":220},{"tileid":1719,"duration":220},{"tileid":1720,"duration":220},{"tileid":1721,"duration":220}]},{"id":1723,"animation":[{"tileid":1723,"duration":220},{"tileid":1724,"duration":220},{"tileid":1725,"duration":220},{"tileid":1726,"duration":220}]},{"id":1727,"animation":[{"tileid":1727,"duration":220},{"tileid":1728,"duration":220},{"tileid":1729,"duration":220},{"tileid":1730,"duration":220}]},{"id":1732,"animation":[{"tileid":1732,"duration":220},{"tileid":1733,"duration":220},{"tileid":1734,"duration":220},{"tileid":1735,"duration":220}]},{"id":1737,"animation":[{"tileid":1737,"duration":220},{"tileid":1738,"duration":220},{"tileid":1739,"duration":220},{"tileid":1740,"duration":220}]},{"id":1741,"animation":[{"tileid":1741,"duration":220},{"tileid":1742,"duration":220},{"tileid":1743,"duration":220},{"tileid":1744,"duration":220}]},{"id":1745,"animation":[{"tileid":1745,"duration":220},{"tileid":1746,"duration":220},{"tileid":1747,"duration":220},{"tileid":1748,"duration":220}]},{"id":1750,"animation":[{"tileid":1750,"duration":220},{"tileid":1751,"duration":220},{"tileid":1752,"duration":220},{"tileid":1753,"duration":220}]},{"id":1754,"animation":[{"tileid":1754,"duration":220},{"tileid":1755,"duration":220},{"tileid":1756,"duration":220},{"tileid":1757,"duration":220}]},{"id":1758,"animation":[{"tileid":1758,"duration":220},{"tileid":1759,"duration":220},{"tileid":1760,"duration":220},{"tileid":1761,"duration":220}]},{"id":1762,"animation":[{"tileid":1762,"duration":220},{"tileid":1763,"duration":220},{"tileid":1764,"duration":220},{"tileid":1765,"duration":220}]},{"id":1766,"animation":[{"tileid":1766,"duration":220},{"tileid":1767,"duration":220},{"tileid":1768,"duration":220},{"tileid":1769,"duration":220}]},{"id":1770,"animation":[{"tileid":1770,"duration":220},{"tileid":1771,"duration":220},{"tileid":1772,"duration":220},{"tileid":1773,"duration":220}]},{"id":1775,"animation":[{"tileid":1775,"duration":220},{"tileid":1776,"duration":220},{"tileid":1777,"duration":220},{"tileid":1778,"duration":220}]},{"id":1807,"animation":[{"tileid":1807,"duration":220},{"tileid":1808,"duration":220},{"tileid":1809,"duration":220},{"tileid":1810,"duration":220}]},{"id":1811,"animation":[{"tileid":1811,"duration":220},{"tileid":1812,"duration":220},{"tileid":1813,"duration":220},{"tileid":1814,"duration":220}]},{"id":1815,"animation":[{"tileid":1815,"duration":220},{"tileid":1816,"duration":220},{"tileid":1817,"duration":220},{"tileid":1818,"duration":220}]},{"id":1819,"animation":[{"tileid":1819,"duration":220},{"tileid":1820,"duration":220},{"tileid":1821,"duration":220},{"tileid":1822,"duration":220}]},{"id":1823,"animation":[{"tileid":1823,"duration":220},{"tileid":1824,"duration":220},{"tileid":1825,"duration":220},{"tileid":1826,"duration":220}]},{"id":1827,"animation":[{"tileid":1827,"duration":220},{"tileid":1828,"duration":220},{"tileid":1829,"duration":220},{"tileid":1830,"duration":220}]},{"id":1831,"animation":[{"tileid":1831,"duration":220},{"tileid":1832,"duration":220},{"tileid":1833,"duration":220},{"tileid":1834,"duration":220}]},{"id":1835,"animation":[{"tileid":1835,"duration":220},{"tileid":1836,"duration":220},{"tileid":1837,"duration":220},{"tileid":1838,"duration":220}]},{"id":1839,"animation":[{"tileid":1839,"duration":220},{"tileid":1840,"duration":220},{"tileid":1841,"duration":220},{"tileid":1842,"duration":220}]},{"id":1843,"animation":[{"tileid":1843,"duration":220},{"tileid":1844,"duration":220},{"tileid":1845,"duration":220},{"tileid":1846,"duration":220}]},{"id":1847,"animation":[{"tileid":1847,"duration":220},{"tileid":1848,"duration":220},{"tileid":1849,"duration":220},{"tileid":1850,"duration":220}]},{"id":1851,"animation":[{"tileid":1851,"duration":220},{"tileid":1852,"duration":220},{"tileid":1853,"duration":220},{"tileid":1854,"duration":220}]},{"id":1855,"animation":[{"tileid":1855,"duration":220},{"tileid":1856,"duration":220},{"tileid":1857,"duration":220},{"tileid":1858,"duration":220}]},{"id":1859,"animation":[{"tileid":1859,"duration":220},{"tileid":1860,"duration":220},{"tileid":1861,"duration":220},{"tileid":1862,"duration":220}]},{"id":1863,"animation":[{"tileid":1863,"duration":220},{"tileid":1864,"duration":220},{"tileid":1865,"duration":220},{"tileid":1866,"duration":220}]},{"id":1867,"animation":[{"tileid":1867,"duration":220},{"tileid":1868,"duration":220},{"tileid":1869,"duration":220},{"tileid":1870,"duration":220}]},{"id":1872,"animation":[{"tileid":1872,"duration":220},{"tileid":1873,"duration":220},{"tileid":1874,"duration":220},{"tileid":1875,"duration":220}]},{"id":1876,"animation":[{"tileid":1876,"duration":220},{"tileid":1877,"duration":220},{"tileid":1878,"duration":220},{"tileid":1879,"duration":220}]},{"id":1880,"animation":[{"tileid":1880,"duration":220},{"tileid":1881,"duration":220},{"tileid":1882,"duration":220},{"tileid":1883,"duration":220}]},{"id":1884,"animation":[{"tileid":1884,"duration":220},{"tileid":1885,"duration":220},{"tileid":1886,"duration":220},{"tileid":1887,"duration":220}]},{"id":1890,"animation":[{"tileid":1890,"duration":220},{"tileid":1891,"duration":220},{"tileid":1892,"duration":220},{"tileid":1893,"duration":220}]},{"id":1894,"animation":[{"tileid":1894,"duration":220},{"tileid":1895,"duration":220},{"tileid":1896,"duration":220},{"tileid":1897,"duration":220}]},{"id":1898,"animation":[{"tileid":1898,"duration":220},{"tileid":1899,"duration":220},{"tileid":1900,"duration":220},{"tileid":1901,"duration":220}]},{"id":1902,"animation":[{"tileid":1902,"duration":220},{"tileid":1903,"duration":220},{"tileid":1904,"duration":220},{"tileid":1905,"duration":220}]},{"id":1906,"animation":[{"tileid":1906,"duration":220},{"tileid":1907,"duration":220},{"tileid":1908,"duration":220},{"tileid":1909,"duration":220}]},{"id":1912,"animation":[{"tileid":1912,"duration":220},{"tileid":1913,"duration":220},{"tileid":1914,"duration":220},{"tileid":1915,"duration":220}]},{"id":1916,"animation":[{"tileid":1916,"duration":220},{"tileid":1917,"duration":220},{"tileid":1918,"duration":220},{"tileid":1919,"duration":220}]},{"id":1988,"animation":[{"tileid":1988,"duration":220},{"tileid":1989,"duration":220},{"tileid":1990,"duration":220},{"tileid":1991,"duration":220}]},{"id":1992,"animation":[{"tileid":1992,"duration":220},{"tileid":1993,"duration":220},{"tileid":1994,"duration":220},{"tileid":1995,"duration":220}]},{"id":1999,"animation":[{"tileid":1999,"duration":220},{"tileid":2000,"duration":220},{"tileid":2001,"duration":220},{"tileid":2002,"duration":220}]},{"id":2003,"animation":[{"tileid":2003,"duration":220},{"tileid":2004,"duration":220},{"tileid":2005,"duration":220},{"tileid":2006,"duration":220}]},{"id":2007,"animation":[{"tileid":2007,"duration":220},{"tileid":2008,"duration":220},{"tileid":2009,"duration":220},{"tileid":2010,"duration":220}]},{"id":2011,"animation":[{"tileid":2011,"duration":220},{"tileid":2012,"duration":220},{"tileid":2013,"duration":220},{"tileid":2014,"duration":220}]},{"id":2018,"animation":[{"tileid":2018,"duration":220},{"tileid":2019,"duration":220},{"tileid":2020,"duration":220},{"tileid":2021,"duration":220}]},{"id":2022,"animation":[{"tileid":2022,"duration":220},{"tileid":2023,"duration":220},{"tileid":2024,"duration":220},{"tileid":2025,"duration":220}]},{"id":2138,"animation":[{"tileid":2138,"duration":220},{"tileid":2139,"duration":220},{"tileid":2140,"duration":220},{"tileid":2141,"duration":220}]},{"id":2142,"animation":[{"tileid":2142,"duration":220},{"tileid":2143,"duration":220},{"tileid":2144,"duration":220},{"tileid":2145,"duration":220}]},{"id":2146,"animation":[{"tileid":2146,"duration":220},{"tileid":2147,"duration":220},{"tileid":2148,"duration":220},{"tileid":2149,"duration":220}]},{"id":2150,"animation":[{"tileid":2150,"duration":220},{"tileid":2151,"duration":220},{"tileid":2152,"duration":220},{"tileid":2153,"duration":220}]},{"id":2154,"animation":[{"tileid":2154,"duration":220},{"tileid":2155,"duration":220},{"tileid":2156,"duration":220},{"tileid":2157,"duration":220}]},{"id":2158,"animation":[{"tileid":2158,"duration":220},{"tileid":2159,"duration":220},{"tileid":2160,"duration":220},{"tileid":2161,"duration":220}]},{"id":2162,"animation":[{"tileid":2162,"duration":220},{"tileid":2163,"duration":220},{"tileid":2164,"duration":220},{"tileid":2165,"duration":220}]},{"id":2166,"animation":[{"tileid":2166,"duration":220},{"tileid":2167,"duration":220},{"tileid":2168,"duration":220},{"tileid":2169,"duration":220}]},{"id":2170,"animation":[{"tileid":2170,"duration":220},{"tileid":2171,"duration":220},{"tileid":2172,"duration":220},{"tileid":2173,"duration":220}]},{"id":2177,"animation":[{"tileid":2177,"duration":220},{"tileid":2178,"duration":220},{"tileid":2179,"duration":220},{"tileid":2180,"duration":220}]},{"id":2181,"animation":[{"tileid":2181,"duration":220},{"tileid":2182,"duration":220},{"tileid":2183,"duration":220},{"tileid":2184,"duration":220}]},{"id":2185,"animation":[{"tileid":2185,"duration":220},{"tileid":2186,"duration":220},{"tileid":2187,"duration":220},{"tileid":2188,"duration":220}]},{"id":2192,"animation":[{"tileid":2192,"duration":220},{"tileid":2193,"duration":220},{"tileid":2194,"duration":220},{"tileid":2195,"duration":220}]},{"id":2196,"animation":[{"tileid":2196,"duration":220},{"tileid":2197,"duration":220},{"tileid":2198,"duration":220},{"tileid":2199,"duration":220}]},{"id":2201,"animation":[{"tileid":2201,"duration":220},{"tileid":2202,"duration":220},{"tileid":2203,"duration":220},{"tileid":2204,"duration":220}]},{"id":2205,"animation":[{"tileid":2205,"duration":220},{"tileid":2206,"duration":220},{"tileid":2207,"duration":220},{"tileid":2208,"duration":220}]},{"id":2212,"animation":[{"tileid":2212,"duration":220},{"tileid":2213,"duration":220},{"tileid":2214,"duration":220},{"tileid":2215,"duration":220}]},{"id":2216,"animation":[{"tileid":2216,"duration":220},{"tileid":2217,"duration":220},{"tileid":2218,"duration":220},{"tileid":2219,"duration":220}]},{"id":2220,"animation":[{"tileid":2220,"duration":220},{"tileid":2221,"duration":220},{"tileid":2222,"duration":220},{"tileid":2223,"duration":220}]},{"id":2227,"animation":[{"tileid":2227,"duration":220},{"tileid":2228,"duration":220},{"tileid":2229,"duration":220},{"tileid":2230,"duration":220}]},{"id":2250,"animation":[{"tileid":2250,"duration":220},{"tileid":2251,"duration":220},{"tileid":2252,"duration":220},{"tileid":2253,"duration":220}]},{"id":2254,"animation":[{"tileid":2254,"duration":220},{"tileid":2255,"duration":220},{"tileid":2256,"duration":220},{"tileid":2257,"duration":220}]},{"id":2258,"animation":[{"tileid":2258,"duration":220},{"tileid":2259,"duration":220},{"tileid":2260,"duration":220},{"tileid":2261,"duration":220}]},{"id":2262,"animation":[{"tileid":2262,"duration":220},{"tileid":2263,"duration":220},{"tileid":2264,"duration":220},{"tileid":2265,"duration":220}]},{"id":2266,"animation":[{"tileid":2266,"duration":220},{"tileid":2267,"duration":220},{"tileid":2268,"duration":220},{"tileid":2269,"duration":220}]},{"id":2275,"animation":[{"tileid":2275,"duration":220},{"tileid":2276,"duration":220},{"tileid":2277,"duration":220},{"tileid":2278,"duration":220}]},{"id":2279,"animation":[{"tileid":2279,"duration":220},{"tileid":2280,"duration":220},{"tileid":2281,"duration":220},{"tileid":2282,"duration":220}]},{"id":2283,"animation":[{"tileid":2283,"duration":220},{"tileid":2284,"duration":220},{"tileid":2285,"duration":220},{"tileid":2286,"duration":220}]},{"id":2291,"animation":[{"tileid":2291,"duration":220},{"tileid":2292,"duration":220},{"tileid":2293,"duration":220},{"tileid":2294,"duration":220}]},{"id":2297,"animation":[{"tileid":2297,"duration":220},{"tileid":2298,"duration":220},{"tileid":2299,"duration":220},{"tileid":2300,"duration":220}]},{"id":2305,"animation":[{"tileid":2305,"duration":220},{"tileid":2306,"duration":220},{"tileid":2307,"duration":220},{"tileid":2308,"duration":220}]},{"id":2309,"animation":[{"tileid":2309,"duration":220},{"tileid":2310,"duration":220},{"tileid":2311,"duration":220},{"tileid":2312,"duration":220}]},{"id":2564,"animation":[{"tileid":2564,"duration":220},{"tileid":2565,"duration":220},{"tileid":2566,"duration":220},{"tileid":2567,"duration":220}]},{"id":2568,"animation":[{"tileid":2568,"duration":220},{"tileid":2569,"duration":220},{"tileid":2570,"duration":220},{"tileid":2571,"duration":220}]},{"id":2572,"animation":[{"tileid":2572,"duration":220},{"tileid":2573,"duration":220},{"tileid":2574,"duration":220},{"tileid":2575,"duration":220}]},{"id":2576,"animation":[{"tileid":2576,"duration":220},{"tileid":2577,"duration":220},{"tileid":2578,"duration":220},{"tileid":2579,"duration":220}]},{"id":2580,"animation":[{"tileid":2580,"duration":220},{"tileid":2581,"duration":220},{"tileid":2582,"duration":220},{"tileid":2583,"duration":220}]},{"id":2586,"animation":[{"tileid":2586,"duration":220},{"tileid":2587,"duration":220},{"tileid":2588,"duration":220},{"tileid":2589,"duration":220}]},{"id":2590,"animation":[{"tileid":2590,"duration":220},{"tileid":2591,"duration":220},{"tileid":2592,"duration":220},{"tileid":2593,"duration":220}]},{"id":2596,"animation":[{"tileid":2596,"duration":220},{"tileid":2597,"duration":220},{"tileid":2598,"duration":220},{"tileid":2599,"duration":220}]},{"id":2600,"animation":[{"tileid":2600,"duration":220},{"tileid":2601,"duration":220},{"tileid":2602,"duration":220},{"tileid":2603,"duration":220}]},{"id":2604,"animation":[{"tileid":2604,"duration":220},{"tileid":2605,"duration":220},{"tileid":2606,"duration":220},{"tileid":2607,"duration":220}]},{"id":2608,"animation":[{"tileid":2608,"duration":220},{"tileid":2609,"duration":220},{"tileid":2610,"duration":220},{"tileid":2611,"duration":220}]},{"id":2612,"animation":[{"tileid":2612,"duration":220},{"tileid":2613,"duration":220},{"tileid":2614,"duration":220},{"tileid":2615,"duration":220}]},{"id":2616,"animation":[{"tileid":2616,"duration":220},{"tileid":2617,"duration":220},{"tileid":2618,"duration":220},{"tileid":2619,"duration":220}]},{"id":2620,"animation":[{"tileid":2620,"duration":220},{"tileid":2621,"duration":220},{"tileid":2622,"duration":220},{"tileid":2623,"duration":220}]},{"id":2624,"animation":[{"tileid":2624,"duration":220},{"tileid":2625,"duration":220},{"tileid":2626,"duration":220},{"tileid":2627,"duration":220}]},{"id":2631,"animation":[{"tileid":2631,"duration":220},{"tileid":2632,"duration":220},{"tileid":2633,"duration":220},{"tileid":2634,"duration":220}]},{"id":2640,"animation":[{"tileid":2640,"duration":220},{"tileid":2641,"duration":220},{"tileid":2642,"duration":220},{"tileid":2643,"duration":220}]},{"id":2644,"animation":[{"tileid":2644,"duration":220},{"tileid":2645,"duration":220},{"tileid":2646,"duration":220},{"tileid":2647,"duration":220}]},{"id":2648,"animation":[{"tileid":2648,"duration":220},{"tileid":2649,"duration":220},{"tileid":2650,"duration":220},{"tileid":2651,"duration":220}]},{"id":2652,"animation":[{"tileid":2652,"duration":220},{"tileid":2653,"duration":220},{"tileid":2654,"duration":220},{"tileid":2655,"duration":220}]},{"id":2656,"animation":[{"tileid":2656,"duration":220},{"tileid":2657,"duration":220},{"tileid":2658,"duration":220},{"tileid":2659,"duration":220}]},{"id":2660,"animation":[{"tileid":2660,"duration":220},{"tileid":2661,"duration":220},{"tileid":2662,"duration":220},{"tileid":2663,"duration":220}]},{"id":2664,"animation":[{"tileid":2664,"duration":220},{"tileid":2665,"duration":220},{"tileid":2666,"duration":220},{"tileid":2667,"duration":220}]},{"id":2668,"animation":[{"tileid":2668,"duration":220},{"tileid":2669,"duration":220},{"tileid":2670,"duration":220},{"tileid":2671,"duration":220}]},{"id":2672,"animation":[{"tileid":2672,"duration":220},{"tileid":2673,"duration":220},{"tileid":2674,"duration":220},{"tileid":2675,"duration":220}]},{"id":2676,"animation":[{"tileid":2676,"duration":220},{"tileid":2677,"duration":220},{"tileid":2678,"duration":220},{"tileid":2679,"duration":220}]},{"id":2680,"animation":[{"tileid":2680,"duration":220},{"tileid":2681,"duration":220},{"tileid":2682,"duration":220},{"tileid":2683,"duration":220}]},{"id":2684,"animation":[{"tileid":2684,"duration":220},{"tileid":2685,"duration":220},{"tileid":2686,"duration":220},{"tileid":2687,"duration":220}]},{"id":2688,"animation":[{"tileid":2688,"duration":220},{"tileid":2689,"duration":220},{"tileid":2690,"duration":220},{"tileid":2691,"duration":220}]},{"id":2692,"animation":[{"tileid":2692,"duration":220},{"tileid":2693,"duration":220},{"tileid":2694,"duration":220},{"tileid":2695,"duration":220}]},{"id":2696,"animation":[{"tileid":2696,"duration":220},{"tileid":2697,"duration":220},{"tileid":2698,"duration":220},{"tileid":2699,"duration":220}]},{"id":2700,"animation":[{"tileid":2700,"duration":220},{"tileid":2701,"duration":220},{"tileid":2702,"duration":220},{"tileid":2703,"duration":220}]},{"id":2704,"animation":[{"tileid":2704,"duration":220},{"tileid":2705,"duration":220},{"tileid":2706,"duration":220},{"tileid":2707,"duration":220}]},{"id":2708,"animation":[{"tileid":2708,"duration":220},{"tileid":2709,"duration":220},{"tileid":2710,"duration":220},{"tileid":2711,"duration":220}]},{"id":2712,"animation":[{"tileid":2712,"duration":220},{"tileid":2713,"duration":220},{"tileid":2714,"duration":220},{"tileid":2715,"duration":220}]},{"id":2716,"animation":[{"tileid":2716,"duration":220},{"tileid":2717,"duration":220},{"tileid":2718,"duration":220},{"tileid":2719,"duration":220}]},{"id":2720,"animation":[{"tileid":2720,"duration":220},{"tileid":2721,"duration":220},{"tileid":2722,"duration":220},{"tileid":2723,"duration":220}]},{"id":2724,"animation":[{"tileid":2724,"duration":220},{"tileid":2725,"duration":220},{"tileid":2726,"duration":220},{"tileid":2727,"duration":220}]},{"id":2728,"animation":[{"tileid":2728,"duration":220},{"tileid":2729,"duration":220},{"tileid":2730,"duration":220},{"tileid":2731,"duration":220}]},{"id":2732,"animation":[{"tileid":2732,"duration":220},{"tileid":2733,"duration":220},{"tileid":2734,"duration":220},{"tileid":2735,"duration":220}]},{"id":2736,"animation":[{"tileid":2736,"duration":220},{"tileid":2737,"duration":220},{"tileid":2738,"duration":220},{"tileid":2739,"duration":220}]},{"id":2740,"animation":[{"tileid":2740,"duration":220},{"tileid":2741,"duration":220},{"tileid":2742,"duration":220},{"tileid":2743,"duration":220}]},{"id":2746,"animation":[{"tileid":2746,"duration":220},{"tileid":2747,"duration":220},{"tileid":2748,"duration":220},{"tileid":2749,"duration":220}]},{"id":2751,"animation":[{"tileid":2751,"duration":220},{"tileid":2752,"duration":220},{"tileid":2753,"duration":220},{"tileid":2754,"duration":220}]},{"id":2755,"animation":[{"tileid":2755,"duration":220},{"tileid":2756,"duration":220},{"tileid":2757,"duration":220},{"tileid":2758,"duration":220}]},{"id":2760,"animation":[{"tileid":2760,"duration":220},{"tileid":2761,"duration":220},{"tileid":2762,"duration":220},{"tileid":2763,"duration":220}]},{"id":2764,"animation":[{"tileid":2764,"duration":220},{"tileid":2765,"duration":220},{"tileid":2766,"duration":220},{"tileid":2767,"duration":220}]},{"id":2768,"animation":[{"tileid":2768,"duration":220},{"tileid":2769,"duration":220},{"tileid":2770,"duration":220},{"tileid":2771,"duration":220}]},{"id":2772,"animation":[{"tileid":2772,"duration":220},{"tileid":2773,"duration":220},{"tileid":2774,"duration":220},{"tileid":2775,"duration":220}]},{"id":2776,"animation":[{"tileid":2776,"duration":220},{"tileid":2777,"duration":220},{"tileid":2778,"duration":220},{"tileid":2779,"duration":220}]},{"id":2780,"animation":[{"tileid":2780,"duration":220},{"tileid":2781,"duration":220},{"tileid":2782,"duration":220},{"tileid":2783,"duration":220}]},{"id":2784,"animation":[{"tileid":2784,"duration":220},{"tileid":2785,"duration":220},{"tileid":2786,"duration":220},{"tileid":2787,"duration":220}]},{"id":2788,"animation":[{"tileid":2788,"duration":220},{"tileid":2789,"duration":220},{"tileid":2790,"duration":220},{"tileid":2791,"duration":220}]},{"id":2792,"animation":[{"tileid":2792,"duration":220},{"tileid":2793,"duration":220},{"tileid":2794,"duration":220},{"tileid":2795,"duration":220}]},{"id":2796,"animation":[{"tileid":2796,"duration":220},{"tileid":2797,"duration":220},{"tileid":2798,"duration":220},{"tileid":2799,"duration":220}]}]},{"firstgid":2866,"name":"meta","image":"../tilesets/meta.png","imagewidth":176,"imageheight":16,"tilewidth":16,"tileheight":16,"tilecount":11,"columns":11,"margin":0,"spacing":0,"tiles":[{"id":0,"properties":[{"name":"behavior","type":"string","value":"none"}]},{"id":1,"properties":[{"name":"behavior","type":"string","value":"solid"}]},{"id":2,"properties":[{"name":"behavior","type":"string","value":"water"}]},{"id":3,"properties":[{"name":"behavior","type":"string","value":"grass"}]},{"id":4,"properties":[{"name":"behavior","type":"string","value":"ledge_down"}]},{"id":5,"properties":[{"name":"behavior","type":"string","value":"ledge_left"}]},{"id":6,"properties":[{"name":"behavior","type":"string","value":"ledge_right"}]},{"id":7,"properties":[{"name":"behavior","type":"string","value":"counter"}]},{"id":8,"properties":[{"name":"behavior","type":"string","value":"door"}]},{"id":9,"properties":[{"name":"behavior","type":"string","value":"bridge"}]},{"id":10,"properties":[{"name":"behavior","type":"string","value":"noenc"}]}]}]}